JohndKim/Relevance-Aware-Algorithmic-Recourse/datasets/kinematics32fh.test.csv
"theta1","theta2","theta3","theta4","theta5","theta6","theta7","theta8","alpha1","alpha2","alpha3","alpha4","alpha5","alpha6","alpha7","alpha8","a1","a2","a3","a4","a5","a6","a7","a8","d1","d2","d3","d4","d5","d6","d7","d8","y"
0.26555963,0.31413154,-0.15189233,0.0038507955,0.0035116507,-0.041628016,0.30478115,-0.22423698,0,0,0.39269908,0,0,-0.39269908,-0.39269908,0,0,0.30925645,0.28487934,0.27063653,0.29927228,0,0.2917042,0,0.27986221,0.31426801,0.28730962,0,0,0.29480538,0.30962077,0.30743418,2.2817474
0.098662712,0.091598364,0.11329855,-0.22472734,-0.16974166,-0.28199342,-0.056691839,-0.28884474,-0.39269908,0,0,-0.39269908,-0.39269908,0,-0.39269908,0,0.29561619,0.2981243,0.30764055,0.29259672,0.30901998,0,0.31070528,0.31092667,0.29242738,0.31696546,0.32457461,0,0.3093092,0,0.31698473,0,2.3153908
-0.076268492,-0.074741703,-0.17506226,0.14433071,-0.17158469,0.15813551,-0.0038320081,0.31224783,0.39269908,0.39269908,0.39269908,0.39269908,-0.39269908,-0.39269908,0.39269908,0,0,0,0.2945349,0.29395226,0,0,0.29871081,0,0,0,0.29628793,0.28916884,0,0.27347689,0.29121421,0,1.6448612
-0.16299646,-0.012661443,0.19911112,0.03610293,-0.17375083,0.19433183,0.13541875,0.21323711,0,0.39269908,-0.39269908,0.39269908,0.39269908,0.39269908,0.39269908,-0.39269908,0.300034,0.31358224,0.30795691,0.29407436,0.30927095,0,0.31437972,0.28265177,0.30119358,0.2912765,0.29393773,0,0,0.28742279,0.32246515,0.30823848,2.9389294
0.19715616,-0.14828791,0.26474528,-0.17796021,-0.18111127,0.26617209,-0.073604056,0.095810409,0,0,0,-0.39269908,0,0,0,0,0.29423707,0,0.29810869,0.30123544,0.31613489,0.30378444,0.31280787,0.31161273,0,0,0,0.30763815,0.30244037,0.31706783,0.28474207,0.3306988,2.6278522
0.29685051,-0.31094263,-0.2875682,-0.13253302,-0.09319222,0.11646086,0.14538389,-0.063728845,0.39269908,0.39269908,0.39269908,-0.39269908,0,0,0.39269908,-0.39269908,0.29923885,0.3014467,0,0,0.32817297,0.3150536,0,0.31600167,0,0.31688129,0,0,0.27441805,0.28456194,0,0,1.5067846
-0.08215969,0.18621602,0.077976099,-0.12816598,-0.20974934,0.2381537,0.26011177,-0.14179272,0,0,-0.39269908,0.39269908,-0.39269908,0,-0.39269908,0,0.26797435,0.27774729,0.29724351,0.30152672,0.28486423,0,0,0.30858393,0.31325027,0,0,0,0,0,0,0,1.7749267
-0.011585551,0.060380465,0.080046229,0.10699998,0.10109579,0.14363992,0.15641043,-0.094717542,0.39269908,0,0.39269908,0,0.39269908,0.39269908,-0.39269908,0,0,0.28839792,0.28903999,0.29846945,0.28991962,0.30743143,0,0.29687122,0,0,0,0.28907281,0.32855919,0.29812374,0.29314309,0,1.5726946
0.2356827,0.19919996,0.27252749,-0.07263869,-0.015557049,-0.08681421,-0.13079287,0.2507061,0.39269908,0,-0.39269908,0.39269908,0,0,-0.39269908,0.39269908,0.27514451,0.30410253,0,0,0.28256362,0,0.3045239,0,0.28799814,0.33754413,0.31286415,0,0,0.31823793,0,0,1.1599404
-0.27699689,-0.27480846,0.063660862,-0.078344184,0.224935,-0.11005655,0.049362711,0.25861752,-0.39269908,-0.39269908,0.39269908,0.39269908,0,0,0,0,0,0.32188536,0.29627985,0.30290018,0.35437354,0.3026658,0.3085791,0.29255494,0.29219842,0.28185861,0,0.30655506,0.31419618,0.30665272,0,0,2.1653099
0.26897566,-0.077910051,-0.018405276,-0.20475526,-0.021112176,0.16763517,0.063990191,-0.19818506,-0.39269908,0,0,-0.39269908,-0.39269908,0.39269908,0.39269908,0.39269908,0.28876498,0.29426423,0,0,0,0.29305441,0.29838413,0,0.2969549,0.29113721,0,0.31226958,0,0.31428865,0,0.29453587,1.8360848
-0.0070271365,0.018800519,-0.063904148,-0.24064108,0.031666795,0.038024587,0.079288479,-0.062129046,0,0.39269908,0,0,0.39269908,0.39269908,-0.39269908,0.39269908,0.30459004,0.30138475,0,0,0.30102629,0.29382435,0.30841346,0.30266208,0.29198014,0,0,0.28627791,0,0.29670659,0.28636933,0,2.1725442
0.063511383,-0.077362292,-0.23700342,0.22303258,-0.039763498,0.22580471,0.055770382,-0.11843321,0,-0.39269908,0,-0.39269908,-0.39269908,-0.39269908,0,0.39269908,0.31825296,0.27607379,0.29066552,0,0.31528549,0.29818474,0.29367634,0.33946967,0.31589404,0.31077919,0.32080892,0,0.31974778,0,0.29205314,0.29106588,2.523401
-0.19129915,-0.058970396,-0.25713065,-0.019974259,-0.1852768,-0.00061088753,-0.21409016,0.16688296,0,0.39269908,-0.39269908,0,-0.39269908,-0.39269908,0,-0.39269908,0,0,0,0.28690705,0.30889319,0.3040177,0.31439941,0.28903658,0.3093877,0.31190164,0,0.2829524,0.30578644,0,0.31085495,0.32226804,1.7423614
-0.22778581,-0.051384294,-0.30616382,0.23342398,-0.064025765,0.22860525,0.00067693506,0.067513985,0,-0.39269908,-0.39269908,-0.39269908,-0.39269908,0,0.39269908,-0.39269908,0.30957842,0,0.29337034,0,0.29466662,0.31417619,0.28120558,0.31897785,0,0,0,0,0.30881359,0,0.31571694,0,1.5251433
-0.18652898,-0.31140095,0.1776533,0.049335089,-0.20561461,-0.012910449,-0.21603002,0.23621301,-0.39269908,0,-0.39269908,-0.39269908,0,0,0,-0.39269908,0,0.31143498,0.29851643,0.30537347,0.32883336,0,0,0.30131997,0.2913731,0,0,0,0.27073485,0.28355802,0,0.28780247,1.5705861
-0.22676459,0.14769605,-0.15899693,-0.022693318,-0.01724096,-0.11397038,0.24295161,-0.15450212,0.39269908,-0.39269908,0.39269908,0,-0.39269908,0.39269908,-0.39269908,0,0.29494314,0,0.29438722,0.29760997,0,0,0.3099522,0.31265966,0.29745276,0,0,0,0,0.31115656,0,0,1.3894142
0.11220822,0.2996603,-0.21068883,0.15615624,0.031479941,0.039169585,-0.15460638,0.25597017,0,-0.39269908,0.39269908,-0.39269908,0,0.39269908,0,0.39269908,0.30116939,0.30896463,0,0.3078481,0.28973746,0.29197058,0,0.3074461,0,0.29143934,0.29474479,0.29342807,0.29476109,0.29921959,0.29607197,0.27425894,2.4525117
-0.20060832,-0.066852994,-0.16474349,0.15587408,-0.31265235,-0.12020878,-0.30483292,-0.017553342,0.39269908,-0.39269908,0,-0.39269908,-0.39269908,0,0,0.39269908,0.31517276,0.31000814,0,0,0.27744339,0.27507549,0.28449169,0.28153851,0,0,0,0,0,0.30283023,0,0,1.40088
0.0047900483,0.081570223,-0.040301914,-0.026891578,-0.20573234,-0.10660019,-0.29324455,-0.030635287,-0.39269908,0.39269908,-0.39269908,0.39269908,0,0,-0.39269908,0,0.30281041,0.30091232,0.31293549,0.31352711,0,0.28839823,0.29000283,0,0,0.32720511,0,0.32095602,0,0.28367866,0.29456103,0.29026301,2.1732857
-0.21818554,-0.17735648,-0.087294628,-0.037050519,-0.044401056,0.19387039,-0.080221268,0.092716677,0,0.39269908,0.39269908,0,0,0.39269908,-0.39269908,-0.39269908,0,0,0.30081433,0.2961919,0.30458287,0.28955006,0.28429721,0.31770495,0.31914072,0.29115735,0,0,0.29751909,0,0,0,2.2337905
-0.21456379,-0.25350997,-0.11403219,-0.16745818,-0.23090744,0.26219761,-0.27090758,0.28077354,0.39269908,0.39269908,-0.39269908,-0.39269908,0,0,-0.39269908,0,0.30307801,0,0,0.28897094,0.30950462,0.28815743,0,0.30117107,0.29057624,0,0.27589265,0.30225733,0.29523452,0.31044533,0.3090495,0.28977544,1.9976646
-0.23506075,0.20096908,-0.15310313,-0.23998406,-0.23537075,0.017318689,0.16372843,-0.25144204,0,0,0,0.39269908,0.39269908,-0.39269908,0,-0.39269908,0.29641617,0.30128122,0,0.29469596,0,0.2806808,0.31205713,0.31192817,0.30373996,0.27727917,0,0,0,0,0,0,1.4206373
-0.11557099,-0.26901382,0.06493864,0.034433972,0.050394505,0.0070665741,0.015709336,0.13302019,0.39269908,0,0.39269908,-0.39269908,0.39269908,-0.39269908,-0.39269908,0.39269908,0,0.31974895,0.28265443,0.31746467,0,0.29915567,0.32048542,0.27560821,0.2597949,0,0.28493182,0,0.30920426,0.32682129,0,0.28123586,1.9797405
0.14029015,-0.22289229,-0.11571001,-0.09228216,-0.29612435,-0.050801795,0.059106881,0.037754842,0,-0.39269908,-0.39269908,0,0,0.39269908,0,0,0,0,0.30913625,0,0,0.29965268,0.29115761,0,0,0.31822396,0,0.30682701,0,0.28698546,0,0,1.042151
-0.034577001,0.058992635,0.0025729565,-0.11029917,-0.25848945,-0.23778755,0.2388547,0.10384394,-0.39269908,0,0.39269908,0.39269908,0,-0.39269908,0.39269908,0,0.26975245,0.30824347,0.2947437,0.31292181,0.29403587,0.30503892,0,0,0.30263575,0,0,0.30523854,0,0,0,0,1.4617734
0.18496961,-0.13591555,0.23349067,-0.1998278,-0.14332698,0.076758715,0.14578319,-0.2641586,0,-0.39269908,0.39269908,-0.39269908,-0.39269908,0,0.39269908,0,0,0.28391761,0.27638582,0.30217609,0.33005744,0.29100329,0,0.3137279,0,0.30053147,0.29377206,0.29079663,0,0,0.29658456,0,2.0335071
0.22615401,0.27169319,-0.27170843,0.015489468,0.20761802,-0.24513344,-0.073093397,-0.11800222,-0.39269908,0.39269908,0.39269908,-0.39269908,0,0,0.39269908,0,0,0.29717034,0,0,0.2852251,0.28905534,0.29284391,0.29933757,0,0.29854271,0,0,0.31692798,0.29857017,0.28411972,0,1.7015669
0.11468694,-0.13782731,0.14679404,-0.23945605,-0.15762268,-0.17349804,0.044737111,-0.20065903,-0.39269908,-0.39269908,0.39269908,0.39269908,0.39269908,0.39269908,0.39269908,-0.39269908,0.30575665,0.29878211,0.29365424,0,0.29895738,0,0,0.29969426,0,0,0.30293851,0,0.3162,0,0,0,1.0760461
0.1385471,0.012614016,0.26042651,0.12141222,-0.20343288,0.21295412,0.21762365,0.15855967,0.39269908,0.39269908,0.39269908,0,-0.39269908,0.39269908,-0.39269908,0.39269908,0,0.29087772,0,0.30225807,0.2852569,0,0.28876431,0,0,0,0.31585545,0.33280786,0,0.31598038,0.29340684,0,1.7697314
0.26749833,0.2253677,0.25089503,0.14716014,0.25876297,-0.19164058,-0.14237768,-0.30471951,0,-0.39269908,0.39269908,-0.39269908,0,0,0,0,0,0.30411749,0,0.30623099,0.28796257,0.29911081,0.29251581,0,0,0,0.28525909,0.29227297,0.31457107,0.30974082,0.31419714,0.31682504,1.7182001
-0.28847673,0.30563769,-0.27958233,0.25405774,-0.10421682,0.18004243,-0.008925905,0.15044371,0.39269908,0.39269908,0.39269908,0.39269908,0.39269908,0.39269908,0.39269908,0,0.30973007,0.30813589,0.27304871,0.29318156,0.29665313,0,0,0.2950307,0,0.31160505,0.3223813,0,0,0,0,0.29840331,1.6073954
0.27931071,0.20730432,0.13742236,-0.041394062,-0.16139427,-0.10243572,-0.044366019,0.154407,0.39269908,0.39269908,-0.39269908,0.39269908,0.39269908,-0.39269908,-0.39269908,-0.39269908,0.29277382,0.30709279,0.29809758,0.29569045,0.28473729,0.32695182,0.30127792,0.28777366,0,0,0.28380387,0,0.28433421,0,0.30166999,0,2.296351
0.21137025,-0.013255247,0.27213382,0.22250612,-0.091508072,0.14759033,-0.050839983,0.045604385,0,0,0.39269908,0.39269908,-0.39269908,-0.39269908,-0.39269908,0,0.29959417,0.30478179,0.32154218,0.2913144,0.29941067,0,0.31455943,0,0,0,0,0,0.31138633,0,0,0,1.2841126
-0.064617201,-0.28687396,0.22570324,0.23539267,-0.27716264,0.081027489,0.26275348,0.27511969,0.39269908,0,-0.39269908,0.39269908,0.39269908,0.39269908,0,0,0.29805171,0.31263949,0,0.31307365,0.28955437,0,0.31063102,0.28867618,0,0,0,0,0.29921255,0.30276951,0.31088417,0,1.8856648
0.071960834,-0.067434619,0.11298785,0.20818317,-0.17137426,-0.075000988,-0.13463007,-0.15253383,0,0,0,0,0,0.39269908,-0.39269908,-0.39269908,0.30410107,0.30207605,0.30772047,0.31200465,0,0,0.30392641,0.30673803,0,0,0.31294241,0.3235329,0,0.2914134,0,0.2965155,1.8394289
0.040599467,0.0013240203,0.26166059,0.12808732,0.14437346,-0.081389602,-0.065599582,0.16685231,0,-0.39269908,-0.39269908,0,-0.39269908,0,0.39269908,-0.39269908,0.28669293,0.31904315,0.30030707,0.29815139,0.33501437,0,0.27872919,0.30299269,0.31677759,0,0.31836001,0,0.28063494,0.30774719,0,0,2.1882161
-0.041637644,0.14296253,0.081129323,0.089322265,0.18633892,0.25865066,-0.19424925,-0.0041342552,0.39269908,0,0,-0.39269908,-0.39269908,-0.39269908,0.39269908,0,0,0,0.30430937,0.29554033,0.29224622,0.30205552,0.2945753,0.30524087,0.30792465,0.29076163,0,0,0,0.29406059,0,0.28736951,1.776243
0.11036481,0.10507309,-0.23992659,0.10221156,0.046824807,-0.29858739,0.021790316,-0.079863737,-0.39269908,-0.39269908,0,-0.39269908,0,-0.39269908,0,-0.39269908,0.2938541,0,0,0.29455413,0.29759534,0.30195585,0.29885274,0.28536696,0.28765647,0.30778345,0,0,0.29877348,0,0,0,1.5242943
0.13484342,-0.03156583,-0.22606064,0.041015815,0.087380152,0.21781443,0.22328395,-0.21315378,0.39269908,0,0,0,0,0.39269908,0.39269908,-0.39269908,0.31658629,0,0.29137828,0.34120959,0.28626074,0,0,0.27207344,0.32741842,0.3085733,0,0.30119736,0.30014549,0,0.27731463,0.29990539,2.1665031
0.11086143,0.28365927,-0.2195785,0.28726616,0.082716021,-0.26074263,0.22045165,-0.063442789,0,-0.39269908,-0.39269908,0,-0.39269908,-0.39269908,-0.39269908,-0.39269908,0.30070423,0.30410031,0.316948,0.30436597,0.27554143,0.31509419,0,0.29647756,0,0,0,0,0,0,0,0.27989529,1.6571784
0.17754255,0.072936435,-0.0067944948,0.15889869,0.25650594,0.20184069,0.044701992,-0.16258728,0,0.39269908,0,-0.39269908,0.39269908,-0.39269908,0.39269908,0,0.28883015,0.28508776,0.30750197,0.31011224,0,0,0.29221855,0.29388011,0,0,0.29741841,0,0.31461444,0.29142424,0,0,1.5860974
0.078211822,0.063732635,-0.12869073,-0.23264813,-0.090970103,-0.23554086,0.29975674,0.15357475,0,0.39269908,0.39269908,-0.39269908,0.39269908,0,-0.39269908,0.39269908,0.30897818,0,0.2924155,0.2908085,0.28663792,0.29772563,0.32383844,0.30633105,0,0.27083405,0,0.29873803,0,0.28962424,0,0.29901673,2.0015953
-0.26240307,-0.04069251,-0.30844679,0.19091404,-0.13039241,0.069724871,0.051838811,-0.22290588,0.39269908,-0.39269908,-0.39269908,0,0.39269908,0,0.39269908,-0.39269908,0.31175106,0.3286992,0.30027025,0,0,0,0.31027196,0,0.33061743,0.28068447,0.27267541,0.3178837,0.28058585,0.30632249,0.30004395,0.28035542,2.843616
-0.11292998,0.13610654,-0.16508813,0.018364977,0.15576843,-0.20335456,0.27278311,-0.17452429,-0.39269908,0,0.39269908,0.39269908,0.39269908,0.39269908,0,0,0,0.30463487,0.27927494,0.28767685,0,0.30527768,0.28084498,0.28642551,0,0.29172456,0.29322128,0.28286911,0,0,0.27260232,0,1.8808805
-0.096146719,0.097348342,-0.0078772525,0.18222656,0.25729129,0.20653418,-0.23986737,-0.15920189,0.39269908,0.39269908,0.39269908,-0.39269908,0,-0.39269908,-0.39269908,-0.39269908,0,0.30940627,0,0.32101125,0.29492524,0,0.30008247,0.27191024,0.31390191,0,0.31308873,0.30724373,0,0,0,0,1.6479745
-0.18889545,0.12774136,-0.01543137,0.14052206,-0.095043499,-0.21038616,0.21645725,0.032654345,0.39269908,0.39269908,0.39269908,0,0,-0.39269908,0.39269908,0.39269908,0.29528776,0.31545428,0.30908064,0.30170231,0.27817955,0.3071934,0.31388067,0.28638641,0.30183516,0,0,0.28585182,0.32436648,0.28756536,0,0,2.2047765
0.26220467,-0.15226911,-0.045526886,0.12160381,-0.1249299,0.14371957,0.23844171,0.074294261,0.39269908,-0.39269908,0.39269908,-0.39269908,0.39269908,0.39269908,0.39269908,-0.39269908,0,0,0.2921164,0,0.2697107,0,0.30159888,0.29289924,0.30896936,0.31736986,0,0,0.3256888,0,0.30270456,0,1.5640578
0.13937844,0.16199781,0.19305602,0.055577695,-0.21534222,-0.14193521,0.22046516,0.16357142,0.39269908,0,0.39269908,0,0,0.39269908,0.39269908,0.39269908,0.31487918,0,0.30650262,0.28875994,0.26377938,0.30540332,0.29428648,0,0,0.3188341,0.30739847,0.32531804,0.29400429,0,0,0.28609451,1.9134306
-0.034692191,0.0079421289,0.27983123,0.15927869,-0.26828392,-0.23410334,-0.044276032,-0.2181368,0,0.39269908,0,0,0.39269908,-0.39269908,0.39269908,0,0.31094759,0.29603066,0,0.30738534,0.3047404,0.30535695,0,0.28521542,0.27195735,0,0.30000956,0,0.29345484,0.26122167,0.31057727,0,1.7353277
-0.16865948,0.31328035,-0.0063756479,0.28695479,-0.1239628,0.061453601,-0.10499208,-0.28344533,0,0,0.39269908,-0.39269908,0.39269908,0.39269908,0,0,0,0.30024542,0,0.30950396,0.30624791,0,0.30198262,0,0,0,0,0.30648587,0.30734079,0.3005783,0,0,1.1622501
-0.2945578,-0.11119838,-0.2918492,0.17325095,0.20058075,0.23174094,-0.076675454,-0.0030508658,0.39269908,0,0.39269908,0.39269908,0,0,-0.39269908,0.39269908,0,0.25931205,0.28552228,0.27549547,0.29486057,0,0.29365297,0,0.31854669,0.28467222,0.28963226,0.29995571,0.27940894,0,0.27989901,0.29009898,2.2170753
0.057706905,-0.24386157,-0.059588779,0.031124872,-0.2736172,-0.021029476,0.30093582,-0.13583407,-0.39269908,0,0,0,0.39269908,0.39269908,0.39269908,0,0,0.32244609,0.32004792,0,0.28221948,0.31283462,0.29759267,0.28509897,0,0.30347817,0.31849388,0.31028375,0,0.28903358,0,0.30626767,2.031542
-0.3075853,0.21868349,-0.25006046,0.056423821,0.18249097,0.30290469,0.2823669,0.050669496,0.39269908,0,0.39269908,0,0.39269908,0,-0.39269908,0,0.31495913,0.31737223,0.26372419,0.29913297,0.31519745,0,0.29611638,0,0,0.30951774,0.3139047,0,0,0.30290079,0,0,1.4276532
-0.29161323,-0.25902355,0.21023436,-0.25458877,-0.024338372,-0.019653342,0.18183392,-0.058700852,-0.39269908,0,0.39269908,-0.39269908,0.39269908,0,0,0.39269908,0.30035509,0.3038186,0,0,0,0.27956837,0,0,0,0.30081525,0.30302945,0,0.30698362,0.27885287,0,0.28505527,1.5614405
-0.2122565,0.19754195,0.052512898,-0.20325101,0.12819768,0.11410405,0.11862129,0.013405421,-0.39269908,-0.39269908,0.39269908,0.39269908,0.39269908,-0.39269908,-0.39269908,0.39269908,0.306363,0,0,0.30812701,0.28876886,0.29532802,0.29616677,0.32327903,0.29762662,0,0,0.2946274,0,0,0,0.30813752,1.4997329
-0.004710161,0.0044589551,0.17175394,0.17314997,-0.23995252,0.29463724,0.18969402,0.099157079,0.39269908,0.39269908,-0.39269908,-0.39269908,0,0.39269908,0,0.39269908,0.2892603,0.30850536,0,0.29206528,0.31450549,0.30337449,0.30617958,0.32697029,0.28805921,0.29393408,0.30632627,0.28067439,0,0,0.30224645,0,2.4710394
0.17989816,0.079616152,-0.20979779,0.052181376,-0.12028119,-0.26526543,0.23216216,0.091364452,0,0,0.39269908,0,0,0,0,0.39269908,0.29751706,0,0.30774229,0,0.28386463,0,0.29956921,0.29863098,0.30037632,0,0,0.31723415,0.29155228,0.28717544,0,0.29318783,1.7493916
-0.1753359,-0.056570933,-0.14174163,-0.29605923,-0.21302039,-0.074691309,0.043596371,0.10480444,0.39269908,-0.39269908,0.39269908,-0.39269908,0.39269908,0.39269908,-0.39269908,-0.39269908,0,0.28081525,0.30158974,0,0.27342771,0,0.2923477,0.32515098,0,0.30046483,0,0,0,0.28909976,0.31650833,0.30218821,1.9271547
-0.30962913,-0.20273675,-0.025238469,-0.067937566,-0.17190875,-0.2616903,0.00079502678,0.16732595,-0.39269908,-0.39269908,-0.39269908,0.39269908,0.39269908,0,-0.39269908,0.39269908,0.3175277,0,0.27681359,0.28722628,0.29371588,0.2699993,0.28447886,0,0.31282154,0,0.30128644,0.29112755,0.29171388,0,0.28087543,0,1.5706317
-0.24210266,-0.02865766,0.2710152,0.27142525,0.25161354,0.28502484,0.11194105,0.20762614,-0.39269908,0,-0.39269908,0.39269908,0,-0.39269908,-0.39269908,0.39269908,0.31077188,0.3165588,0.30971098,0.28779412,0.31270124,0.30782865,0.28738943,0,0.3095649,0,0.29528872,0,0.31290742,0.33435456,0,0,1.7946832
0.089736947,0.24439016,0.14713241,-0.20731813,0.25880224,-0.1599976,0.12369707,-0.12936765,-0.39269908,0.39269908,0.39269908,-0.39269908,0,0.39269908,0,0,0,0,0,0.29647538,0.32125427,0,0.30016957,0.29782181,0,0.30789637,0,0,0.31305582,0.33625531,0.28109225,0,1.3387354
-0.19715715,0.13175051,0.13638488,0.11468945,-0.095596227,-0.075301122,-0.15242953,-0.22841347,0,0.39269908,-0.39269908,-0.39269908,0.39269908,0.39269908,0,0,0,0.28694446,0,0.28916665,0.30778924,0,0,0.30392682,0,0,0.2947806,0,0.29267673,0,0,0.30319416,1.0771731
0.18048414,-0.12485498,0.14627991,-0.084013583,-0.18454877,0.29734148,-0.22727312,-0.23102063,0.39269908,0,-0.39269908,0.39269908,0,0,-0.39269908,-0.39269908,0,0.31628341,0.27695444,0,0.32736851,0.2972,0.2924977,0,0.30106026,0,0.33013994,0.29929784,0,0,0.29671366,0,1.4148234
-0.2113363,-0.044481396,0.100229,0.026776072,0.14938082,-0.11737361,0.22193616,-0.24609543,0,0,0,0.39269908,0,-0.39269908,-0.39269908,0.39269908,0.28568105,0,0.27622266,0.30452225,0,0.31496277,0.2970261,0.32006049,0.30912129,0,0,0.30163718,0.32284067,0.27459225,0,0.28803784,1.6973118
0.19096565,0.1086343,-0.07691809,-0.31111939,-0.11677108,0.29562567,-0.16237867,-0.31088956,0,0.39269908,0,-0.39269908,0,0,-0.39269908,-0.39269908,0.267436,0,0.34923121,0.30386145,0.30293689,0.31521224,0,0,0,0,0,0,0.30724565,0,0.32255558,0.28455099,1.8451967
0.12373433,-0.13146332,0.29232268,0.24475701,0.029641247,-0.076158117,-0.10463247,0.10563083,-0.39269908,0.39269908,0,0.39269908,-0.39269908,0,0,-0.39269908,0.29543741,0.26952448,0.28251959,0.32151732,0.27127643,0.31152381,0,0.30010854,0.28477813,0.29608384,0.30985639,0.29297653,0,0,0.29965538,0,2.4412713
0.11570459,0.0011371714,0.26288426,-0.040082523,-0.10949501,0.062307752,-0.20059661,0.12997297,-0.39269908,0,0.39269908,0.39269908,-0.39269908,0,-0.39269908,0.39269908,0.28817555,0,0,0.31889009,0,0.29057564,0,0.28470003,0,0.28950251,0,0.27176169,0,0,0.29615519,0,1.3306157
-0.119748,-0.10036535,0.19479292,-0.2832738,-0.21332876,-0.23087773,0.13332018,0.12835917,-0.39269908,0.39269908,0,0.39269908,0,0,-0.39269908,0,0.30776318,0.29481881,0,0.30167989,0.31471577,0.3080445,0.29825692,0.32412525,0,0.29830976,0,0.29081497,0,0.28490468,0.28817949,0,2.372666
0.24885905,-0.14246745,0.071571388,0.29864445,0.30884363,0.19551569,-0.073732318,-0.17492238,0,-0.39269908,0.39269908,-0.39269908,-0.39269908,-0.39269908,-0.39269908,-0.39269908,0.30739678,0.29575845,0.29023433,0.32165269,0.28383561,0.29055528,0.29708971,0,0.29611972,0,0,0,0.28981237,0,0.29727822,0,1.7989658
0.044655888,-0.30914129,-0.17181185,0.11027892,-0.081817961,0.27480138,-0.18275665,0.25823741,-0.39269908,0,-0.39269908,-0.39269908,-0.39269908,0,0,0.39269908,0.31650205,0.28962694,0.29689364,0,0,0,0.29836542,0,0.28302789,0,0,0,0.27923614,0,0.30416907,0.30077568,1.308067
0.11251005,-0.28230804,0.31029038,0.0066383868,-0.26933153,-0.24825221,0.28846318,0.094855247,0.39269908,0.39269908,0,-0.39269908,-0.39269908,0.39269908,0,0,0,0.32127074,0.28986002,0.33378842,0.29834797,0.28893908,0.31933288,0.28055546,0.32068363,0.29255038,0,0.31631353,0.29949989,0,0,0.32654971,2.261077
0.20256073,0.20836856,-0.19708193,0.1392578,0.019399088,-0.056846127,0.25963242,-0.030047574,0.39269908,-0.39269908,0,0.39269908,0,-0.39269908,0.39269908,0.39269908,0.30740788,0,0.28167202,0,0,0.28272186,0,0.2816779,0.30540248,0.29730925,0.3092843,0.29066301,0.29384911,0.30780315,0.30780132,0,2.0067569
-0.21601526,-0.14405936,-0.29438994,0.19668002,0.017367278,-0.27627707,-0.11484474,-0.00096447541,0.39269908,-0.39269908,0.39269908,0,-0.39269908,0.39269908,0.39269908,0.39269908,0.31772836,0.28538741,0,0.31375645,0.30376066,0,0,0.31560542,0,0,0,0.28518599,0.26123059,0,0,0.28213063,1.3571693
0.10420071,0.17751623,0.25890058,0.236195,0.012900473,0.04836455,-0.18118772,0.23786889,-0.39269908,0,-0.39269908,0,0.39269908,-0.39269908,0.39269908,0.39269908,0,0.31767638,0.31190445,0.30342851,0,0,0.32346614,0,0.29624119,0,0,0,0,0.28003277,0,0.31014372,0.94105198
-0.12598732,-0.035434422,0.099639715,0.17580292,-0.26234159,-0.26392686,0.11012537,-0.14934602,0,0,0.39269908,0,0,-0.39269908,0.39269908,0,0,0.3193648,0,0,0.28695085,0.29323863,0,0,0,0.31738835,0.29600687,0,0.30286096,0.28846738,0,0,1.4488908
0.1671175,0.15995606,-0.19341097,0.26192595,0.18973654,0.18547722,0.22734065,0.10938577,0,0,-0.39269908,0.39269908,0.39269908,0.39269908,0,0.39269908,0.29632699,0,0.2847605,0.29967026,0,0.28990824,0.30654311,0.28874026,0.31792639,0.28278925,0,0,0,0,0,0,1.2622044
-0.067413143,-0.15438964,0.12879494,0.099210562,-0.12546553,-0.062231404,0.22714428,-0.049468393,-0.39269908,0.39269908,-0.39269908,0,0.39269908,0.39269908,0.39269908,0,0.26805705,0.302768,0.29480042,0.30605762,0.31634045,0.29360008,0.3105948,0,0,0,0.31983884,0,0,0.29621998,0,0,1.5338577
-0.19782402,0.23327643,-0.030696868,-0.072753543,-0.060937732,-0.021255469,0.27257693,0.13007756,0.39269908,0,0.39269908,0.39269908,-0.39269908,0.39269908,-0.39269908,-0.39269908,0.30429797,0.33114454,0.26896155,0.26819636,0,0.30493022,0.30074639,0.29561002,0.29445216,0,0,0,0,0.27123153,0.30228873,0.30678038,1.8914486
0.064900368,0.019510332,-0.072122225,-0.13178283,-0.051179346,-0.003193866,-0.27223096,0.029766615,0.39269908,0.39269908,0,-0.39269908,-0.39269908,0.39269908,0.39269908,0,0.27637691,0,0,0,0,0,0.30632957,0.33528747,0,0.30368834,0,0.3312002,0.28649998,0.28944583,0.29143594,0,1.5938215
-0.28569516,-0.068264055,-0.0043390728,-0.041847161,-0.23679837,-0.10065881,0.28913597,0.092770063,-0.39269908,-0.39269908,-0.39269908,0,-0.39269908,0,-0.39269908,0.39269908,0.27628521,0.30347347,0,0.3002121,0.31951959,0,0.33052221,0,0.30373725,0.31522706,0.31515711,0.31719685,0.29001243,0,0.30464476,0,1.5820497
-0.061540872,-0.10513886,-0.23703601,0.30366488,-0.13570286,0.038336577,0.29635788,0.20588344,0.39269908,0,-0.39269908,0.39269908,0.39269908,-0.39269908,0.39269908,-0.39269908,0.32206287,0.29215575,0.31021996,0.2947862,0,0.29384925,0.2995701,0.30689419,0.32684323,0.27994925,0,0.30588417,0,0,0,0,2.2777848
0.013960528,0.27179037,0.10508482,-0.042889168,-0.1568862,0.26651954,0.11116177,0.30480752,0.39269908,-0.39269908,0,-0.39269908,0,-0.39269908,0,0,0.28322873,0.30256301,0.3063626,0.28587782,0.27153343,0.30998908,0.31584541,0,0.28945073,0.28518294,0,0,0.29668818,0.28696643,0,0.32898655,2.4057034
0.18811984,0.031306493,0.2656126,-0.05216135,-0.1714672,0.24790604,0.17666731,-0.18584511,-0.39269908,0.39269908,-0.39269908,0,-0.39269908,0,-0.39269908,-0.39269908,0.32761135,0,0.30249425,0.35175503,0.30515384,0.28783961,0,0,0,0,0.300531,0,0,0,0,0.29245443,1.0656005
-0.30277955,-0.064083661,-0.11612211,-0.10699589,-0.032221946,0.056329192,-0.15129424,0.002824524,-0.39269908,-0.39269908,-0.39269908,0.39269908,0,0,-0.39269908,0,0,0.28356025,0.30451179,0,0,0.32287623,0.29873438,0.30073169,0,0.31033826,0,0,0,0.32340801,0,0.30055543,1.196526
-0.086921919,-0.056104111,0.16432051,0.27487033,-0.28059104,0.26534603,-0.13415407,0.30778389,0,-0.39269908,0,0,-0.39269908,-0.39269908,-0.39269908,0.39269908,0,0,0.29359722,0.29842932,0.29322007,0,0.30883473,0.31653199,0,0,0.30147272,0,0.30817641,0,0,0.28086646,1.3255463
-0.22298127,0.27389735,-0.29711177,-0.3102152,0.00033290178,-0.059786483,-0.15009387,0.071248915,0,0.39269908,0.39269908,0,0,-0.39269908,0,0.39269908,0.29680486,0.27901612,0,0,0.28750725,0.28045679,0.28503763,0.29927193,0,0,0.30945345,0,0.29191092,0,0,0,2.0481713
0.23218066,-0.22597436,0.23441758,0.2990082,0.13926681,0.17069436,-0.042314501,0.076759043,0.39269908,0,0.39269908,0.39269908,0,0,0.39269908,0.39269908,0.30858238,0,0.32455396,0.29574803,0.30984456,0.29651946,0.27424071,0.27417361,0.30076732,0.28075242,0.2785156,0.289905,0,0.27281775,0.27637026,0,2.1636628
0.26234985,-0.22546871,-0.0635966,-0.098238289,0.13017455,0.03852308,0.28931686,-0.0087204771,-0.39269908,0,-0.39269908,0.39269908,0.39269908,0.39269908,0,-0.39269908,0,0,0,0.28524881,0,0.29753672,0.30498974,0.29459182,0.32281736,0,0,0.29578093,0,0,0.30447169,0.30144177,1.4405712
-0.17226522,0.030277004,-0.07239562,0.29981389,-0.14252641,-0.29118336,0.054292661,0.17825024,0,0,0.39269908,-0.39269908,-0.39269908,0.39269908,0,0,0,0.28961841,0.32531246,0.28251094,0.28801584,0.3169983,0.28850879,0.30247508,0,0,0.28571801,0,0,0,0.299028,0,2.5202583
-0.14491215,-0.17580123,0.29070546,0.081690614,0.098161234,-0.1686077,-0.07305607,-0.11895704,0,-0.39269908,0.39269908,-0.39269908,-0.39269908,0,0.39269908,0,0,0,0.29385877,0.29806954,0.3049238,0.30421767,0.27758162,0.3076974,0.31279321,0,0.29050435,0.3121679,0,0.28965462,0.32788175,0,2.0930951
0.25074912,0.20804153,-0.038683309,0.15931143,0.2819938,0.063158289,0.27137209,-0.013485514,0.39269908,-0.39269908,0.39269908,0,-0.39269908,-0.39269908,0.39269908,0.39269908,0.30416925,0.29833977,0.2710862,0.29070264,0.2764618,0.29289855,0.31320604,0,0.29820589,0,0,0.2944099,0,0.3013099,0.28702388,0.30571959,2.5277428
-0.1430976,0.1620322,0.14273489,0.025178606,-0.30985967,-0.30749319,-0.11814485,-0.1739858,0,0,0,0,-0.39269908,-0.39269908,0,0,0.28987474,0,0.30261201,0,0.32413782,0.30004144,0.30784741,0.29189172,0.26617444,0,0,0.30071023,0.31075574,0.32066441,0.31543219,0.31129431,2.0217785
-0.072394459,-0.3089971,-0.26165211,0.014376202,-0.28181167,-0.14368081,-0.21527642,-0.29274531,0.39269908,0.39269908,-0.39269908,-0.39269908,0.39269908,0.39269908,-0.39269908,0.39269908,0.30249354,0,0,0.31967961,0,0.30349377,0.31249123,0.29625098,0.29818092,0.30170398,0.30546947,0,0,0,0.29683422,0.30049831,2.0369756
0.19073153,-0.0563806,-0.084408281,0.093266934,-0.11737716,0.16222845,0.29939587,-0.25667595,0,0,-0.39269908,0,0,-0.39269908,0.39269908,-0.39269908,0.28372292,0,0.30060649,0.30465937,0.30761069,0.30404982,0.31000825,0.30395991,0,0,0.31256906,0,0,0,0.291415,0.31243703,2.0722811
-0.0063934475,-0.012203375,-0.27028529,0.058072583,0.24722714,0.076169513,0.29615742,-0.021579023,-0.39269908,0,0.39269908,-0.39269908,-0.39269908,0.39269908,0.39269908,-0.39269908,0,0.29918585,0,0.28825472,0.29962732,0.2961987,0.32511119,0.29929153,0,0,0,0.31455375,0,0.31053395,0.31832385,0.31537961,2.1177767
-0.27126815,-0.12449087,-0.017287789,-0.27271477,0.066594372,0.21630388,-0.03175605,-0.28150569,0,0,0,-0.39269908,0.39269908,-0.39269908,0,-0.39269908,0.32230719,0.28440334,0.28691969,0.30927371,0.29533652,0.30782799,0,0.29459636,0,0,0,0.32176879,0.31541043,0,0.29490337,0,1.9560011
-0.050478378,-0.16007638,0.056280451,0.28614927,0.16079073,0.011721991,-0.28051356,0.31085048,0,-0.39269908,-0.39269908,0.39269908,0.39269908,-0.39269908,0,0.39269908,0.30183157,0,0.30877295,0.29425231,0,0,0.3044319,0.28827804,0,0,0,0,0.29850769,0,0,0,1.5389926
-0.051119877,-0.26033897,0.093193599,-0.093284901,-0.18459378,0.16921316,0.19595453,-0.23799995,-0.39269908,0,0.39269908,0.39269908,-0.39269908,-0.39269908,-0.39269908,0,0.32329977,0.30078229,0,0,0,0.2779382,0.31667005,0.29201456,0.28897734,0.29721028,0,0,0,0,0.30328525,0.31562206,1.3563084
-0.26442099,-0.026603457,0.2384947,-0.29174292,0.074589601,0.13194935,-0.29169912,0.18239409,0,-0.39269908,0.39269908,0,0,-0.39269908,0.39269908,0,0,0.31952538,0.30541264,0,0.31317946,0.2829128,0,0,0,0,0,0,0,0.30243022,0.30620698,0.29895859,1.4905203
-0.028042475,-0.070973329,-0.3001723,-0.22638818,0.19082857,-0.31038428,0.30014923,-0.1613333,0.39269908,0,-0.39269908,-0.39269908,0.39269908,-0.39269908,0.39269908,-0.39269908,0,0,0,0.29882511,0.29812502,0.30517228,0,0.29799245,0,0.2793986,0.28986852,0,0.29564295,0.2894441,0,0,1.4257447
0.048732734,-0.27629956,0.13559213,-0.014366423,-0.18215083,-0.24116862,-0.038134666,-0.044436002,0.39269908,0,-0.39269908,0,-0.39269908,0,0,0.39269908,0.29212388,0.28955459,0.28969577,0,0.30623602,0.2854194,0,0.29278452,0.28087027,0,0.28515221,0.29118804,0,0,0,0,1.6704577
-0.1670115,-0.26332833,0.11648511,-0.075302388,-0.17371718,0.13155972,0.071291789,-0.0023421124,0.39269908,-0.39269908,-0.39269908,-0.39269908,0.39269908,-0.39269908,0.39269908,-0.39269908,0.27014344,0,0.32578203,0.29197337,0.32955604,0.31998266,0.28682753,0.28759008,0,0,0,0,0,0.29419293,0.30387463,0,2.3054232
-0.30453675,-0.066429626,0.039302002,0.18597391,-0.22116233,0.057129793,0.10971165,-0.19118442,0,0.39269908,0,0.39269908,-0.39269908,0,0,0,0.29270103,0.31256278,0.32265836,0.28875831,0.32324438,0.31106707,0,0,0.28022467,0,0.30071661,0.26111069,0,0.29061825,0.29880688,0,1.9600873
0.054620757,0.037687221,0.064042009,0.044396976,-0.26244427,-0.10479068,-0.0400749,0.018624304,0.39269908,0.39269908,0,0.39269908,0,0,0.39269908,0,0.29682274,0.29447242,0.33752451,0.30515267,0.31124577,0,0.29176491,0,0,0.29388402,0,0,0.27822492,0.29787206,0,0,1.3624265
-0.10833116,0.1453624,0.20332901,-0.07376805,-0.14716253,-0.29896315,-0.010312353,0.096190649,0,-0.39269908,0.39269908,0,0.39269908,-0.39269908,-0.39269908,0,0.2892791,0.2969995,0.29290643,0.31764685,0,0.26977946,0.2887308,0,0.3024937,0.3042591,0.32282009,0,0.29258629,0.29357702,0.29221155,0.31381996,2.7751925
-0.11353424,0.033463075,0.06881227,-0.20659276,-0.1163275,0.21104535,0.18116864,0.069659603,0.39269908,0,0.39269908,0,-0.39269908,0.39269908,0,-0.39269908,0,0.29144616,0.29523761,0.27891458,0.29996,0,0.28343327,0.30736033,0,0.30918202,0,0.28918404,0,0,0.31381871,0.28646656,1.9710139
-0.31228966,-0.30765562,0.29343535,0.095708709,0.080825849,0.015385165,-0.28876768,-0.18613129,0,-0.39269908,0.39269908,0.39269908,0.39269908,0.39269908,-0.39269908,0.39269908,0,0.31288682,0,0.29627731,0.29304909,0.2929392,0.2942859,0.3331025,0.30679707,0,0.30982092,0.28753829,0.31744322,0.30778335,0.29664342,0.28394758,2.6723846
0.05146326,-0.25161059,-0.23548642,-0.041771852,-0.22772241,-0.242429,0.14153793,0.014076963,-0.39269908,0,-0.39269908,0.39269908,0.39269908,0.39269908,0,0,0.31227323,0.29415489,0.2831711,0,0.30343184,0.29846433,0.29974696,0.29963753,0,0,0,0.2862695,0,0,0.30359129,0.31019828,1.8796886
0.03231567,0.26226108,0.16752185,0.04447531,-0.20251693,-0.10062308,0.26134662,-0.1222634,-0.39269908,-0.39269908,0.39269908,0,0,0.39269908,-0.39269908,0,0.29668238,0,0,0.29398252,0.27376525,0,0.27999083,0,0,0,0.311518,0.31623489,0.29409298,0.32362279,0,0.30371719,1.4121899
0.17569525,-0.18701847,0.25813531,-0.059381411,-0.25355145,-0.18296913,-0.17126352,-0.098862958,0.39269908,0.39269908,-0.39269908,0,-0.39269908,0,-0.39269908,-0.39269908,0.29526763,0,0.31152505,0.30842499,0,0.2832932,0,0,0.30166205,0.30949615,0.28556844,0.29046796,0.31101547,0,0.28471655,0.25652738,2.3073654
-0.12545848,0.056343136,0.083061728,-0.10530449,0.12071284,-0.019878109,0.17407424,0.21462149,0,0.39269908,-0.39269908,0.39269908,-0.39269908,-0.39269908,0,0.39269908,0,0.28260963,0.30986877,0.28002822,0.27584607,0,0.33035218,0,0.28658736,0,0,0.26838314,0.30772089,0,0.29620925,0,1.7946109
0.23756441,-0.21926351,-0.073569247,0.052531077,0.10228017,-0.05662039,0.28367379,0.024371422,0,0,-0.39269908,0.39269908,0.39269908,-0.39269908,0.39269908,0,0.28798428,0.30010313,0.3015419,0.30776395,0.32220176,0,0.27320783,0.28460626,0.30664212,0.3009593,0.30481018,0,0.29581011,0.29733032,0,0.30141294,2.4225132
-0.29286584,0.051163161,-0.26881995,0.18157155,-0.069980598,0.048384686,0.15724122,0.045387022,0,0.39269908,-0.39269908,0,0,-0.39269908,-0.39269908,0,0.31035886,0,0.30225226,0.30090605,0.30661537,0,0.27964014,0,0,0,0.28969811,0,0.28394015,0,0.3093446,0.29315264,1.8376571
0.039703185,0.017153546,-0.098565185,0.29089913,0.19515669,0.1757482,0.074535096,-0.15578966,-0.39269908,0,0.39269908,0,0,0.39269908,0.39269908,-0.39269908,0.30137437,0.28888814,0.30457049,0.28782644,0.28757138,0,0.2893641,0.30104791,0,0.29048953,0,0.30337849,0,0.29908046,0.30340131,0.28688201,2.6544853
0.055330003,0.019929285,0.057723825,0.04051473,-0.16622177,-0.18515334,0.18953469,-0.065426748,0,0.39269908,0.39269908,-0.39269908,0.39269908,-0.39269908,0,0.39269908,0,0,0.26826914,0,0.3293403,0,0.30673875,0,0.31131364,0,0,0.3193169,0,0.30814482,0.31493517,0.30849593,1.6109837
0.15129451,0.0017339548,0.23992615,-0.10947956,-0.30622666,-0.19443292,0.050532299,-0.19029871,-0.39269908,-0.39269908,-0.39269908,0.39269908,-0.39269908,-0.39269908,0.39269908,0,0,0.28921211,0,0.28450291,0.29050524,0.29716559,0,0.30510949,0,0.30939505,0.28792266,0,0,0.32940296,0,0.27595413,1.5110684
-0.25519062,-0.086407938,-0.21408398,0.27072972,-0.12832835,0.20286844,-0.27473931,-0.030667377,-0.39269908,0.39269908,0.39269908,0,0.39269908,0.39269908,-0.39269908,0.39269908,0.30818487,0.2819606,0.29726012,0.31928298,0,0.3098542,0.2838302,0,0,0,0.30557404,0,0.31414327,0.29631706,0,0,1.9036625
-0.079308098,-0.26759108,0.10069141,0.25877646,0.035049082,-0.29286273,0.10352912,0.19984657,-0.39269908,0,-0.39269908,0,0,0.39269908,0,0.39269908,0.29772114,0.28159114,0,0.3093054,0.30984615,0.30815968,0,0.30642018,0.30988818,0,0,0.30272678,0,0,0,0.3083084,1.7154785
-0.28177372,-0.13410244,-0.081183372,0.25891865,-0.088362634,0.23422516,0.20667734,0.28122278,0.39269908,0.39269908,0,0.39269908,0.39269908,0.39269908,0.39269908,-0.39269908,0.30062627,0.30386165,0,0.28833475,0.32179367,0.28938953,0.31441444,0.29984349,0,0,0,0,0.3124093,0.30344449,0.2917878,0.30875124,2.8336944
-0.24301865,0.28438354,0.015160019,-0.30288071,0.1206036,0.029205477,0.13967393,0.10166386,0.39269908,0,-0.39269908,0,-0.39269908,0.39269908,-0.39269908,0.39269908,0,0.27746101,0.29566214,0,0.29187124,0.31711369,0.28807593,0.32570806,0,0.31429918,0.30258628,0.3083533,0,0,0,0,1.4427147
-0.031594491,-0.079450869,-0.1538815,-0.12735204,0.27544814,0.0060053383,-0.22756333,-0.081946324,0,-0.39269908,0.39269908,0.39269908,-0.39269908,0,0,0,0,0,0.29468842,0.306122,0.30364174,0.30733403,0,0.29011077,0,0.28430501,0,0,0.29530624,0.31933359,0.30482077,0.31458738,2.0667194
-0.27822563,-0.19166629,0.053701663,0.29844115,0.033563852,-0.12237587,-0.28466257,-0.30659689,-0.39269908,-0.39269908,0.39269908,0.39269908,0.39269908,0,-0.39269908,0.39269908,0.32105426,0,0,0.30436467,0.27651672,0.29950373,0,0,0,0,0,0,0,0.29019095,0,0.31435354,1.2428533
0.25499888,0.0055445747,0.19652367,-0.09711754,0.11704956,-0.013335259,0.18401472,0.15164916,0.39269908,0,0.39269908,0.39269908,-0.39269908,-0.39269908,-0.39269908,-0.39269908,0.29870236,0.28702951,0.30896745,0,0.29785589,0.28412028,0.300839,0.32058236,0.30823676,0,0.28270556,0,0,0.31573427,0.29630765,0,2.262295
0.17108987,-0.30640068,0.02244073,0.17023364,-0.24574448,-0.28985619,-0.25949037,-0.095744189,0,0,0.39269908,-0.39269908,0.39269908,0,-0.39269908,0.39269908,0.29969529,0.28348819,0,0.32711764,0.30918475,0.30863055,0.30033161,0.32854075,0.27345051,0,0,0.30585047,0.29098354,0,0,0.29639266,2.1632544
0.30654217,-0.15762975,-0.29220043,-0.075063119,0.077766214,0.11421041,0.021267992,-0.062105033,-0.39269908,0.39269908,-0.39269908,-0.39269908,0.39269908,0,-0.39269908,0,0.3081017,0.30174813,0,0,0,0.2966235,0.2926282,0.3157171,0.32498342,0,0.30254124,0.26067386,0,0,0.29480334,0,1.1983659
0.029264421,-0.12628817,-0.065257053,0.26887215,0.067388417,-0.26117938,-0.20855256,0.24625569,0,0.39269908,-0.39269908,0.39269908,0,0,-0.39269908,-0.39269908,0.30017851,0,0.30270908,0.31631996,0,0.30088624,0.29606618,0,0.28363487,0.30894008,0.31292546,0,0.2902311,0.32055154,0,0.29580393,1.9028113
-0.085256818,0.28322263,-0.018375874,0.28940941,0.29016065,-0.2784471,-0.14394727,-0.29543493,0.39269908,-0.39269908,-0.39269908,-0.39269908,-0.39269908,0.39269908,0.39269908,-0.39269908,0.26504081,0.29519754,0.30599176,0.29748911,0.2874906,0.30183389,0.3230711,0,0.30931585,0,0.28358099,0.31378244,0,0,0.32969998,0,2.4076986
-0.084231193,-0.072017722,-0.26036687,0.25250515,0.19066359,0.058433748,0.03413578,0.065242016,0.39269908,-0.39269908,-0.39269908,0,0,0,-0.39269908,0.39269908,0,0.28819373,0,0.33481157,0,0.31645862,0.30038786,0.3006923,0,0,0,0,0.28133633,0.2885713,0.28988987,0,1.4210808
0.20132621,0.19434186,0.30397428,0.037788075,-0.12585776,0.25717612,0.15587216,0.28336835,0,-0.39269908,-0.39269908,0.39269908,-0.39269908,0,-0.39269908,0,0.2904265,0.27876834,0.30663493,0.32392433,0,0.27920203,0,0.28917216,0.31899649,0,0.30337145,0,0.2836653,0.275881,0,0.29166139,1.7059495
-0.31365705,-0.041526797,0.12100361,-0.1593978,0.15135922,-0.16735432,0.25799881,0.15985671,0,0,0.39269908,0,0,-0.39269908,0.39269908,0,0.28439979,0,0.31872568,0,0,0.28812852,0.30416293,0,0.29795112,0.3182702,0.32056777,0,0,0.29849434,0.294884,0,1.6148154
-0.058895224,-0.25034622,0.28020898,0.22502166,0.089737902,0.26044072,-0.2679722,-0.021479322,0.39269908,-0.39269908,0,0.39269908,0.39269908,-0.39269908,0,0.39269908,0.27451657,0.28744037,0.2995544,0,0,0.2884614,0,0,0.32165157,0.28083161,0,0.28760648,0.30879547,0.29985612,0,0,1.8521912
0.0048040956,-0.31065648,0.12352997,0.20377917,-0.047720425,-0.30273899,-0.010818641,-0.24484851,-0.39269908,0,0.39269908,-0.39269908,-0.39269908,-0.39269908,0.39269908,-0.39269908,0.29912387,0,0.31837641,0,0.31751446,0.31804674,0.31422178,0.29996469,0.29599015,0.31045877,0.30517822,0.30873438,0.30322897,0,0.31925833,0,2.6669791
-0.047344525,-0.26816776,-0.1667859,-0.24173586,-0.14691103,0.15816321,-0.16666937,-0.16810932,0.39269908,-0.39269908,0.39269908,-0.39269908,0,0.39269908,-0.39269908,0,0,0.28723555,0.2875157,0.32200605,0.29530225,0.30284461,0,0.30154512,0,0,0.30424667,0,0,0,0,0.29908004,1.6541553
0.22055099,-0.27889364,-0.10915617,0.10236769,0.15763137,-0.30880656,-0.20084704,-0.3090129,0,0,0.39269908,-0.39269908,0.39269908,0,-0.39269908,-0.39269908,0.27944189,0.31288326,0.2892791,0,0.28908689,0.31646003,0.30642678,0,0,0,0,0,0.29488608,0,0.28680587,0,1.743809
-0.007410323,-0.13823004,0.28964534,-0.14280721,0.015942794,0.28684789,-0.03554451,0.13434959,-0.39269908,-0.39269908,0.39269908,-0.39269908,0,0,-0.39269908,-0.39269908,0,0.29878437,0,0,0.31745035,0.31725774,0.3048616,0.29906408,0.29155906,0,0,0.31123115,0,0,0.29067008,0,1.3668119
-0.069849252,-0.25735635,-0.043332099,-0.061408813,0.22942739,-0.0046177467,0.30102888,0.17150999,-0.39269908,0,0.39269908,0,0.39269908,0,0,0,0.27728158,0.28745051,0.303193,0,0.30715198,0.29763637,0.29739702,0.31579748,0,0.29131785,0.29568931,0.27105316,0,0.28022943,0.28584369,0.29405592,2.6181829
0.050151228,-0.31177117,0.2384659,-0.1475132,0.090625435,0.097559688,-0.22568605,0.05349293,0,0.39269908,0,0,0,-0.39269908,0.39269908,0.39269908,0.3170904,0.29954438,0.29924356,0,0,0.29764715,0,0.31202011,0,0,0,0,0.31232657,0,0,0.31183334,1.0649697
0.076293929,-0.12604856,0.19192567,-0.092609441,-0.14187114,0.040656838,-0.29108905,-0.2456597,-0.39269908,0.39269908,0,0,0,0.39269908,0.39269908,0,0.3219066,0,0.31737613,0.3018434,0,0.28185704,0,0,0.32747595,0,0.28974201,0.29298818,0,0.28367187,0,0,1.3343506
-0.27443777,0.010799782,-0.072125587,-0.1882942,0.17987767,-0.26480224,-0.15116407,0.30554043,0,-0.39269908,0.39269908,0,0.39269908,0,0.39269908,-0.39269908,0.30000958,0.29712738,0.27785318,0,0.30267132,0.28222696,0.29098034,0.29488967,0.30303803,0,0.30625844,0.32997137,0,0.30124173,0,0,2.1050532
0.15148354,0.037140384,0.29813013,-0.16722878,-0.14529465,0.30696899,0.10436301,-0.23615389,0,0,0,0,-0.39269908,0,0.39269908,0,0.294185,0.30536066,0.29973515,0.2868413,0.29292682,0.29061686,0.29325676,0,0,0.30050084,0,0.2753687,0,0.29663349,0.31645279,0,2.2506725
-0.082276881,0.10153997,0.069101052,0.24873298,0.2519451,0.20265003,-0.17564765,-0.26967687,0.39269908,0.39269908,0,-0.39269908,0.39269908,0,0,0.39269908,0.28515637,0.29710364,0,0,0.31698293,0.30568773,0,0.28117628,0.29401032,0,0,0.30166765,0,0,0.29937595,0,1.4067587
-0.15516174,-0.28142205,0.12149929,0.003305008,0.25523867,0.26576628,0.017476297,0.29937796,0,0,-0.39269908,0,-0.39269908,0,0.39269908,0,0.31230633,0.29496616,0,0.30111284,0,0.30129658,0.28464788,0,0,0,0,0.28614954,0,0,0.30565143,0.31446852,1.3909083
0.034305173,-0.22937657,0.23053945,-0.16380092,0.28977033,0.07294354,0.11262093,-0.30376538,-0.39269908,0.39269908,-0.39269908,0,0.39269908,0,0,0,0.2823987,0.30408786,0,0.27826941,0.30877066,0,0,0.31197524,0.328855,0,0.31101502,0,0,0.28499232,0,0.30894285,1.5378998
-0.043697834,0.074862103,0.31366309,0.14313121,-0.22544359,-0.2696387,0.24386935,0.19038811,-0.39269908,-0.39269908,-0.39269908,-0.39269908,0.39269908,-0.39269908,0,-0.39269908,0.31280129,0,0.31989466,0,0,0.29311929,0.28175106,0.29707218,0.29725157,0,0.27358672,0.30875731,0.33113181,0,0.30867798,0,1.5098781
-0.03954459,0.13508256,0.21769488,0.098973237,0.28403624,-0.16707331,-0.045690043,-0.10731013,-0.39269908,0.39269908,0,-0.39269908,0,0.39269908,-0.39269908,0.39269908,0.30207592,0,0,0.26303038,0,0.29542433,0,0.28413175,0.2928319,0.29384279,0.30635841,0.30498928,0.3104681,0,0,0,1.6786602
0.091683441,0.28655351,0.043249558,-0.069221662,0.23744415,0.27287849,0.17186435,0.14383454,0.39269908,0.39269908,-0.39269908,0,0.39269908,0,-0.39269908,0.39269908,0.29698374,0.32565824,0.27533429,0,0.29130122,0.31368509,0.26276689,0.3109324,0,0,0.31393872,0,0,0.28937558,0.29747683,0,1.6265367
0.20046952,0.24729241,-0.08354118,0.21530886,0.20964936,-0.033516324,0.29287296,0.068517806,-0.39269908,-0.39269908,-0.39269908,0.39269908,-0.39269908,0,0,-0.39269908,0,0,0.2971917,0.30828791,0,0.29746741,0,0.29532997,0.31956356,0.30542539,0,0,0,0,0.29451109,0.29648194,1.1831605
-0.28641902,-0.29623124,0.037621413,0.2146505,-0.17411422,-0.25833682,-0.18585765,0.29025005,0,0,-0.39269908,0.39269908,0.39269908,0,-0.39269908,-0.39269908,0.29765659,0.30960414,0.30006293,0.29832056,0.30488846,0.31766727,0,0.29914453,0,0,0.30494344,0,0,0,0.28944343,0,1.9191443
0.29369391,0.043154999,0.22648694,0.21227305,0.080579343,0.27058219,-0.094689658,0.081762077,0,-0.39269908,-0.39269908,-0.39269908,0,0.39269908,0,-0.39269908,0.31797749,0,0.30445326,0.31645305,0.30541905,0.28491396,0.30627508,0.29817698,0.29918753,0.29730601,0.29368612,0.31904415,0,0.30316627,0.29895775,0.30658114,2.1659846
0.1500788,0.30374212,-0.094324152,-0.058364121,-0.12056167,0.047215828,-0.0098821999,-0.21404174,-0.39269908,0,0,0.39269908,0,0.39269908,0,-0.39269908,0.29604893,0.28144894,0,0.3160535,0.30579871,0.29325218,0.28801408,0,0,0.29402713,0,0,0,0,0,0.29213703,1.5007595
0.11044069,0.12369383,-0.1838727,-0.27790808,0.11886913,-0.21943194,0.23709498,0.059281644,-0.39269908,-0.39269908,-0.39269908,0.39269908,-0.39269908,0.39269908,-0.39269908,0,0.29798318,0.3099516,0.28660558,0.29415586,0,0,0.28548191,0.29763501,0.31054158,0.28617808,0,0.30450486,0.28233389,0.2856463,0.28646344,0,1.805683
0.30748036,-0.097426444,-0.04816038,-0.1572462,-0.1290624,-0.19617692,0.27009623,-0.094083859,0.39269908,0,0,-0.39269908,0.39269908,0,-0.39269908,0.39269908,0.28781798,0,0,0,0.33948625,0.31614386,0.2835393,0.30301496,0.28881775,0,0.32303132,0.31360266,0.29155929,0,0.29299688,0,1.7847699
-0.20607223,-0.16430886,-0.079150786,-0.13692293,0.26710911,-0.033041062,0.11244575,-0.1064386,0,-0.39269908,-0.39269908,0,0.39269908,-0.39269908,0,0.39269908,0.29699143,0,0.3199388,0.30993382,0,0.31645438,0.28053421,0.29415312,0.29024667,0.2990232,0.29671897,0.28973537,0,0,0,0.29909766,1.7750841
-0.27691489,-0.15317201,-0.14095965,0.28037258,-0.16696249,-0.068062025,0.24958421,0.1072693,0.39269908,0,0,0,0,-0.39269908,0,0.39269908,0.3064588,0,0,0.28488658,0,0.3104896,0.31208203,0,0.30044342,0.30081251,0.31859117,0.32513946,0.29223365,0.29924823,0,0.30292051,1.8701563
-0.30769637,0.23698382,0.075846114,-0.1126533,-0.24022784,0.065534,-0.012447548,0.024138252,-0.39269908,0.39269908,-0.39269908,0.39269908,0,0.39269908,0,0,0.28427443,0.30154537,0.31589621,0.2908795,0.30635865,0.26949049,0.35459095,0.30047621,0,0.26062581,0,0,0.28732067,0,0.289948,0,2.0103612
0.098099465,0.049881305,0.17818096,0.12131498,0.047271185,0.29218626,-0.16311371,-0.098355404,0,0.39269908,-0.39269908,0,0.39269908,0.39269908,-0.39269908,0,0.31944959,0.28102215,0.30127207,0.29835686,0,0.30060522,0.30543625,0.307614,0,0,0,0,0.30966827,0.2986472,0,0.3029365,2.0081718
-0.062526804,0.28891413,0.13411607,0.31018423,0.10755193,-0.047197529,-0.31088408,0.068198852,0.39269908,0.39269908,-0.39269908,0,0.39269908,0,0.39269908,-0.39269908,0.32231761,0.2922086,0.30478151,0.27179178,0.31264648,0.31954689,0,0,0.31751767,0.29882638,0,0.320466,0,0.27791736,0.31344057,0.29773849,2.1729219
0.1927816,-0.15826669,0.31246942,0.18725256,-0.093744918,0.25203764,-0.12688081,0.027396118,-0.39269908,-0.39269908,0.39269908,0.39269908,0.39269908,0,0.39269908,0,0.28999671,0.30714265,0.2957595,0.29369425,0.29890342,0.28553412,0.30260662,0,0.30808351,0.2949629,0.28418878,0.2808447,0,0.30208806,0.30074256,0,1.9394063
0.24435489,0.18279461,-0.24863937,0.064629023,-0.14274997,-0.27856512,-0.24252496,-0.21466594,0,0,0.39269908,0,-0.39269908,0.39269908,0.39269908,0.39269908,0,0.30178959,0.29592389,0,0,0.26851412,0.29986037,0.28258156,0.30731105,0,0,0,0,0.2896559,0.30682068,0,1.0685906
-0.018020981,-0.029102311,-0.29071598,-0.25858614,0.021940048,-0.07659695,0.05973843,-0.029220219,0.39269908,0,0,0,-0.39269908,0.39269908,-0.39269908,-0.39269908,0,0.29637285,0.30072433,0.27783676,0.29120659,0.29611859,0.30389012,0,0,0,0.30783503,0,0,0,0.31140279,0.30209243,1.5645986
0.26426947,-0.0067335543,-0.073511627,-0.23567758,-0.11299209,-0.27946165,-0.23089986,-0.2386212,0,-0.39269908,0.39269908,0,0,-0.39269908,-0.39269908,-0.39269908,0,0.28547683,0.28695027,0.2887167,0.31098297,0.28535447,0.32268619,0,0.29664825,0.31584331,0,0.2987311,0.29460142,0.29756205,0,0,2.3042764
0.027446112,0.10100274,-0.16365988,0.14694451,-0.22381203,0.13420585,-0.065762443,-0.057085174,0,-0.39269908,0.39269908,-0.39269908,-0.39269908,-0.39269908,0.39269908,-0.39269908,0.30217072,0,0.28305036,0.29493986,0.30789147,0.28045736,0.30713466,0,0.29978651,0.29080136,0,0,0.29611176,0.30586203,0,0.28501703,1.628639
-0.1536054,0.11484145,-0.054224098,-0.28254124,0.16079496,0.082877534,-0.0594746,0.065185578,-0.39269908,0,0,0,0.39269908,0,0,-0.39269908,0.30264103,0,0.31370619,0.28351843,0.31497866,0.30811822,0.28948261,0.28168646,0.30166616,0,0.26574352,0.30471756,0,0.29666563,0.29499422,0.3014021,2.5484864
-0.012674805,-0.025459116,-0.0064398401,-0.163606,-0.20416328,-0.12482961,-0.05575939,0.30318191,0,0.39269908,-0.39269908,-0.39269908,-0.39269908,-0.39269908,0,0,0,0,0.29473204,0,0.29238005,0.30077669,0,0.29507214,0.2975138,0,0.31063489,0.31187668,0,0.29326815,0.32001234,0.27235505,1.4499107
0.10862425,-0.24580801,-0.1008424,-0.28314403,0.082763341,-0.093746757,0.22113637,0.13483856,-0.39269908,-0.39269908,-0.39269908,-0.39269908,-0.39269908,0.39269908,0.39269908,-0.39269908,0.30080637,0.30296052,0,0.3318885,0.3019031,0.30573785,0,0.30017482,0.28790254,0,0,0,0,0,0,0,1.67586
-0.023308786,-0.3083163,-0.1292007,-0.0073532505,0.19266945,-0.15827895,0.10636422,0.097205439,0,0,0,-0.39269908,0,0.39269908,0,0.39269908,0.30069681,0,0.31972646,0.29041735,0.27227558,0.30554397,0.29522732,0.28968685,0,0,0.29994997,0,0.3013079,0,0.30853726,0,1.762552
0.05619158,0.049134623,0.1950595,-0.20102046,-0.08216665,0.069244565,0.14748914,0.13334078,-0.39269908,0.39269908,0,-0.39269908,0,-0.39269908,0.39269908,0,0.32761043,0.29164787,0.30962992,0.30941058,0.29889453,0,0.29107052,0.3305049,0.30630004,0,0,0.31506695,0.30477013,0,0.28179956,0.27611035,1.8393222
-0.31188539,0.20372659,-0.30326487,-0.052693888,0.30295651,-0.10329583,-0.048920166,0.26772767,0.39269908,0.39269908,0,0,0,0,-0.39269908,-0.39269908,0,0.31013939,0,0.31170711,0,0,0.29871068,0.27449537,0.2978843,0,0.28736895,0,0.31323875,0.29103592,0,0.31377758,1.4255825
0.20630496,0.30575933,-0.12012658,-0.17994111,-0.17315511,0.15349386,-0.10450248,-0.22285342,0,-0.39269908,0,0,-0.39269908,-0.39269908,-0.39269908,0.39269908,0.29169224,0.30889972,0.29420102,0.28900924,0.31093178,0.28871188,0.30095013,0.32370087,0,0.2587851,0,0.28562504,0.29549458,0,0,0,2.0284049
-0.1659743,0.20425477,-0.2224729,0.021571228,0.0078440133,-0.11256018,0.068202975,0.23439885,0,-0.39269908,0.39269908,0,0.39269908,0.39269908,0.39269908,0,0,0,0,0.29870594,0.27317098,0.32904266,0.30873504,0.3071036,0,0.31022952,0.28778282,0,0.30159913,0.29619731,0.29370982,0.30437051,2.034404
0.041245949,0.185321,0.11507852,0.16032923,-0.20488185,-0.26368763,-0.26747689,0.13496357,0,-0.39269908,-0.39269908,0.39269908,-0.39269908,-0.39269908,0.39269908,0.39269908,0.3060718,0,0,0,0.32351326,0.29647627,0,0.30975961,0.30018698,0.29692708,0,0,0,0.28995255,0,0.29429893,1.2713438
-0.23630378,0.043839587,-0.20570409,-0.26007472,0.13617125,0.29403394,0.10314537,0.033463013,0,0,0,0,0.39269908,0,0.39269908,-0.39269908,0,0,0.29628485,0.31421408,0,0.31664557,0.27129329,0,0,0.29186495,0,0,0.29934486,0,0,0,1.3460413
0.079121284,0.26940977,0.30672398,-0.2435713,-0.20760583,-0.17838793,0.17001957,-0.073727006,0,0,-0.39269908,-0.39269908,-0.39269908,-0.39269908,-0.39269908,-0.39269908,0,0.28451306,0.2921378,0,0.28479245,0.30340285,0,0,0,0.3175942,0.3142122,0.29770995,0,0.28801725,0,0.30326937,1.2994579
-0.29558863,0.15649656,0.096387768,0.18404792,0.081235322,-0.014113927,0.29163093,-0.071749741,-0.39269908,-0.39269908,0,-0.39269908,0.39269908,-0.39269908,0,-0.39269908,0.30259434,0.29430769,0,0.29853023,0,0,0,0,0.32175476,0,0,0,0,0.30939474,0.31641109,0,0.82809677
-0.018347741,0.13390888,-0.030364897,-0.14817507,0.27629388,-0.23094154,-0.31092168,0.064531262,0,-0.39269908,0.39269908,0.39269908,-0.39269908,-0.39269908,0.39269908,0.39269908,0,0,0.29852862,0.29002984,0.30363284,0.30423837,0.31978286,0.29159207,0,0.30067707,0.3025733,0.29572966,0.31148496,0,0.3029646,0,1.8245064
-0.2347256,0.17896585,0.11815039,0.26699942,0.008238526,0.2348299,-0.31090851,0.28587073,-0.39269908,0.39269908,-0.39269908,-0.39269908,0.39269908,0.39269908,-0.39269908,0,0.29552687,0.30871571,0.28234569,0,0.29951186,0,0.30648989,0.32025905,0.29184133,0.26469763,0.28712178,0,0,0.30051283,0.30317536,0,2.1021273
-0.067450253,-0.14976641,-0.07998498,0.29409614,-0.10798712,0.27264811,0.069763337,0.070032557,0.39269908,0,-0.39269908,0.39269908,0.39269908,-0.39269908,0.39269908,0.39269908,0,0,0.31019948,0.3067021,0.29836818,0.29356933,0.32265689,0.29507589,0,0.27086111,0.29756152,0,0.30229534,0,0,0.30052227,1.9140181
-0.13766521,-0.27033305,-0.11621587,0.20222095,0.15265637,0.2710674,-0.10792348,0.085748822,-0.39269908,-0.39269908,-0.39269908,-0.39269908,-0.39269908,0.39269908,0,0,0,0.28058006,0.29669767,0.29267818,0.31605461,0.31685223,0,0,0,0,0.3007236,0,0,0.27952134,0.31769137,0.28853232,1.4184335
0.2666525,-0.16750869,0.1768199,-0.13454956,-0.056010808,-0.15249871,-0.1345819,0.028796413,0.39269908,0,-0.39269908,0,0,0,0.39269908,-0.39269908,0.30767369,0.30470225,0.29780795,0.31017539,0,0.32066654,0.30132232,0,0.28575431,0.30447286,0,0,0.30165917,0,0.29376456,0.29315208,2.0821483
-0.02975233,0.094143732,0.16763899,0.12820721,0.27429499,0.10290488,-0.2385655,-0.26979494,0.39269908,0,-0.39269908,0,0.39269908,0.39269908,0.39269908,0.39269908,0.31962578,0,0,0,0.28404024,0.31083407,0.29426649,0.30040395,0,0.29125278,0,0,0,0.32610379,0.32448966,0,1.2069322
0.12983629,0.0082144511,-0.16979779,0.031299162,0.14240582,0.14935176,0.022464827,-0.053093307,-0.39269908,-0.39269908,0,0.39269908,0,0.39269908,0,0,0,0,0.3023202,0.29550549,0.28621268,0.31313128,0,0,0.31956501,0,0.29963555,0.29678592,0.29798644,0.28900124,0,0,1.2994805
-0.12860847,-0.10675808,0.19461517,-0.12902883,-0.26030134,0.097338182,-0.1786358,-0.22598776,0,-0.39269908,0.39269908,0.39269908,0,0,-0.39269908,0.39269908,0.30856727,0.28976015,0.2913002,0.31399169,0.29615876,0.29380548,0.31363058,0.29772725,0,0,0.26210966,0,0.29835538,0.29201069,0.30942381,0,1.9265405
0.24528006,0.02414667,-0.060683854,-0.15255727,0.13792041,0.16132206,0.14542083,-0.071120607,-0.39269908,-0.39269908,0,0.39269908,0,0.39269908,-0.39269908,-0.39269908,0.29939871,0.30165311,0.30932487,0,0.29866836,0.27919787,0,0.27896829,0,0.28616905,0,0,0.26985689,0.28752498,0.31017106,0.2918331,2.2111595
-0.27218496,0.17455527,0.1311517,0.12514702,-0.26439393,-0.20008711,-0.10319967,0.3106079,-0.39269908,0,0,-0.39269908,-0.39269908,0.39269908,0,-0.39269908,0.27820731,0.29925148,0.29683188,0,0,0.30027395,0.31120615,0.30296921,0,0.31247765,0.29976485,0,0,0,0,0.31451951,1.7521859
-0.28964233,0.1932947,0.29725569,0.21570827,0.010980056,-0.18384443,0.1972113,0.15000395,0.39269908,-0.39269908,-0.39269908,0.39269908,0,0,0.39269908,0,0.26836204,0.31424568,0.30703724,0.29006377,0.27780576,0.30796246,0.31106426,0.30416022,0.3357004,0,0.29157247,0,0.30220866,0,0,0,2.2979625
0.17007725,0.2672926,-0.090756438,0.2139446,-0.10009079,-0.21722742,0.21769585,0.11536802,0,0,0,0,-0.39269908,0.39269908,0.39269908,0.39269908,0.30235265,0.29994111,0.30127724,0,0,0.30281245,0,0.30133204,0.30491886,0.27501738,0,0.27970005,0.30240681,0,0.3067425,0.29153097,2.4592492
0.19248071,-0.18888594,0.28747498,-0.17755498,-0.28190851,0.11370608,-0.28693241,-0.12833286,0.39269908,0,0,0,0.39269908,0.39269908,0,0.39269908,0,0.32327524,0.29407925,0.32539522,0.30337755,0.28519795,0.30418187,0.33172048,0,0,0,0.28629849,0,0.30594428,0.3093101,0,1.6865399
-0.069355629,-0.12918881,0.19256579,-0.015444125,-0.073849376,-0.25736099,-0.12142617,-0.031006679,-0.39269908,0.39269908,-0.39269908,0,-0.39269908,0,0.39269908,0,0.31686939,0.31430896,0,0.29110102,0.30943622,0,0.31192681,0,0.29403656,0.30283517,0,0,0.26342501,0.27871792,0.27782799,0.30749943,1.9817669
0.30883534,0.056115736,0.031059726,-0.11188544,0.098794266,-0.21065619,0.076271392,0.12348841,0.39269908,0,0,0,-0.39269908,0,0.39269908,0.39269908,0.28192998,0.29659743,0.31060225,0,0.29113311,0.29690716,0.29969558,0.29716839,0.32066985,0,0,0,0,0,0,0.31038371,2.2022333
0.17413913,0.048660717,-0.23005417,0.15177188,-0.14330727,-0.22033494,0.14000012,-0.070833097,0.39269908,0.39269908,-0.39269908,0.39269908,0,0.39269908,0.39269908,0.39269908,0.30274117,0,0.31074212,0.30104128,0.31064119,0,0.31751087,0.29590408,0.31478942,0,0.29469457,0,0.30994387,0,0,0.30257724,2.0403029
0.29235943,0.23405089,-0.2090949,-0.072359048,0.28616221,-0.25002887,-0.040824556,-0.014483063,-0.39269908,0.39269908,0.39269908,0.39269908,-0.39269908,-0.39269908,0,0.39269908,0.2816387,0.31457265,0,0,0.28785719,0.27300943,0.28292348,0,0.29720884,0.28467574,0,0.28368572,0.29772471,0.29833273,0.2983181,0.27138611,2.2304907
-0.022454076,0.23378019,0.26794401,0.17602586,-0.28533566,-0.30937507,0.29743698,0.12112675,0,0,-0.39269908,0,-0.39269908,0,0,0,0,0.31938838,0.2959706,0,0.29813278,0,0.3100441,0.32382032,0.30099852,0,0,0.28997549,0.32334976,0.32624982,0.30533976,0,1.5568867
-0.0037343715,0.068270836,0.11831088,-0.17723759,0.0260305,0.1849211,0.30541766,-0.2077137,-0.39269908,0.39269908,0.39269908,0.39269908,-0.39269908,-0.39269908,-0.39269908,0,0.30708801,0.31919527,0,0.29789326,0.32218659,0,0.28890853,0,0,0,0,0.30944583,0.2847562,0.29500527,0.27485309,0,1.6479605
0.1478618,0.11354957,0.22431472,0.14631913,-0.053157396,0.052594357,-0.090815106,-0.1437796,0,0.39269908,0.39269908,0.39269908,-0.39269908,-0.39269908,-0.39269908,0.39269908,0.30119306,0.30545037,0.28433475,0.30743405,0.29506358,0.27532046,0.277541,0.29295735,0,0,0,0,0.28020952,0.30473068,0.27719027,0,2.2161608
0.24545143,-0.23724468,-0.062007511,0.22020078,0.11829732,0.22328978,-0.11531613,0.2443977,0.39269908,0.39269908,0,0.39269908,0.39269908,0.39269908,0,-0.39269908,0,0.27920224,0.27885451,0.29269635,0.32760864,0,0.29152987,0,0,0,0.27654934,0.29344948,0,0.3009256,0.29759954,0.3053851,1.9851712
0.25299515,0.25802682,0.0023203588,0.042521402,0.25903983,0.063279288,-0.2082845,-0.27497636,-0.39269908,-0.39269908,-0.39269908,0,0,-0.39269908,0,-0.39269908,0,0.31234231,0,0.31785546,0.27164854,0.28780135,0.28604937,0.28736695,0.33049773,0.29660555,0.30639052,0,0,0.29684454,0.29476792,0.32262783,1.868251
0.2620177,-0.15315502,0.14462634,-0.229455,0.16899427,0.28697664,0.24335126,0.27924334,-0.39269908,0,-0.39269908,0.39269908,0.39269908,0.39269908,0,0.39269908,0.30349846,0.28822181,0.28794695,0,0.27268521,0.30865438,0.31437467,0,0.30422803,0.28867768,0.30669165,0.30684521,0.29101161,0.28784419,0.30136602,0,2.5254133
-0.15029842,-0.22509231,-0.02064603,-0.16599529,-0.14853313,-0.08675419,0.2496352,-0.29234425,0,-0.39269908,0.39269908,0,-0.39269908,-0.39269908,-0.39269908,-0.39269908,0.30939266,0.29195045,0,0,0.29934755,0.27451927,0.32257214,0.28676936,0,0,0,0.33378972,0.29349186,0.27326505,0.2914567,0,2.1286681
-0.024425832,-0.23295112,-0.15664588,-0.092706194,0.11694673,0.14335695,-0.20135305,-0.017061941,-0.39269908,0.39269908,0,0,0.39269908,-0.39269908,0.39269908,0,0,0.2984959,0.30275229,0.31635523,0.31468938,0.29595757,0.31561739,0,0.30821936,0.3096847,0.30902518,0,0.3120416,0,0.2929402,0.29451384,2.2479197
0.28580209,-0.019406783,-0.0724878,0.0071730164,-0.080271998,-0.13158719,0.09537627,0.1483942,0.39269908,0.39269908,0.39269908,0.39269908,0.39269908,0.39269908,0.39269908,0.39269908,0.31428246,0,0.28141323,0.29805763,0.33389204,0,0.31204534,0.30268229,0.29089733,0.2863063,0,0,0.28706445,0,0,0.29056904,1.7066263
0.057806093,0.16656214,0.25081354,0.034060386,0.054725244,-0.09115745,-0.24268669,0.20867189,-0.39269908,-0.39269908,0.39269908,-0.39269908,0,0.39269908,-0.39269908,0,0.30219504,0.29216882,0.28259698,0.28597099,0.28689571,0.32611629,0.30701689,0,0,0.31186408,0,0,0.29571189,0,0,0.27498225,2.2254743
-0.25865496,0.12198729,0.036934516,-0.020300299,-0.010168676,-0.0022944979,-0.23619611,-0.031576959,0.39269908,0.39269908,-0.39269908,-0.39269908,0.39269908,-0.39269908,-0.39269908,-0.39269908,0.27313322,0.31993093,0.29102335,0.27270817,0.29432549,0,0.30100012,0.27453083,0.31713218,0,0.30208678,0.31399459,0.30292425,0.29485385,0.31540682,0,2.4631436
0.22669688,-0.029154273,0.092591293,-0.16314371,0.025702926,-0.29407643,-0.18896885,0.15074686,0.39269908,0,0.39269908,0.39269908,0.39269908,0,0,-0.39269908,0.27359665,0.3047067,0.30993168,0.31848136,0.28431996,0.31351432,0.29695078,0.2980277,0,0.32618682,0,0.33612929,0.28909251,0,0,0.3264432,2.1874242
0.0059630772,-0.3095266,0.26384426,-0.24165574,-0.056972476,0.021035184,-0.2049914,-0.21992965,0,-0.39269908,0,0.39269908,-0.39269908,0,0.39269908,0,0.2945948,0.30317358,0.28861333,0.32884085,0.30687567,0.28241111,0,0.3080087,0.30916129,0,0.29351307,0,0,0,0,0,2.0523812
-0.063506313,0.16257683,-0.12847016,-0.29552275,0.0071764495,-0.022570607,0.16020775,0.26681338,0,0,0.39269908,0.39269908,0.39269908,0,0,0.39269908,0.32028726,0.29595813,0.30658773,0.29938751,0.296056,0.31216413,0.26993029,0.28248903,0.31925505,0,0,0,0,0.29195136,0.30654909,0,2.3436276
0.12938294,-0.071325226,0.068679381,0.073213625,0.25370668,0.2785906,0.042487065,0.31024609,-0.39269908,-0.39269908,0.39269908,0,-0.39269908,-0.39269908,0.39269908,-0.39269908,0.31695179,0.29840915,0.28299407,0.29860331,0,0.30306117,0,0.3411323,0,0,0,0.27699365,0,0.26880997,0,0,1.2715374
0.29461011,-0.26621779,-0.066060609,-0.041814763,0.30772102,0.17728208,0.093438187,0.24759287,0,0.39269908,0,0.39269908,-0.39269908,0.39269908,-0.39269908,0.39269908,0,0,0.30025111,0.28768251,0.30531425,0.31253789,0.28628106,0.27808445,0.32734761,0,0,0.28274206,0,0.29289925,0,0,1.794357
-0.071442873,-0.023653142,0.18727781,-0.29772661,0.037664439,0.30946307,-0.074904231,0.23492469,0,0,-0.39269908,0,0.39269908,0.39269908,-0.39269908,0.39269908,0,0.28857791,0.27572111,0,0.32099326,0.30235554,0.30954246,0,0,0.28664845,0.30276849,0.31360734,0,0,0,0,1.641569
-0.19566305,0.11033624,0.25317285,0.10298522,-0.14493394,0.086230987,-0.24664852,0.22392035,-0.39269908,0.39269908,0.39269908,-0.39269908,0.39269908,0,0,-0.39269908,0.27490813,0,0.30446054,0.28701259,0.27549374,0,0.29720928,0.29687345,0,0,0,0,0,0.30397364,0,0.29867214,1.4864488
0.14106923,0.30480264,0.13705319,0.037278728,0.11000965,-0.20924302,-0.04870278,0.1514151,0.39269908,-0.39269908,-0.39269908,0.39269908,0.39269908,0.39269908,-0.39269908,0.39269908,0.30038589,0.30827722,0,0.28809205,0.320688,0.30924645,0.26365458,0.31556433,0.2858719,0.31393363,0,0,0,0,0,0,1.8389867
0.01774373,-0.23242661,-0.13773022,-0.10639826,-0.041047298,0.011815536,0.035057399,-0.15308413,0,0.39269908,0,0,0.39269908,0.39269908,-0.39269908,0.39269908,0,0.33078439,0.28786378,0,0.30108109,0,0.33170754,0.29198459,0.30736413,0,0.32487282,0,0.26929302,0.33058695,0.30071643,0.29732372,2.1642588
-0.10536911,0.29123209,0.13640533,-0.16993846,0.18029147,-0.22158696,-0.16812468,-0.12300851,-0.39269908,-0.39269908,0,0,0,0.39269908,0,0,0.28910198,0,0.28069804,0.30085828,0.29165692,0.29937368,0.29578627,0.292293,0,0.32373069,0.30529191,0,0.29101602,0.28495737,0.3006956,0.30884929,1.7851876
-0.11176943,0.16367265,0.067682639,0.28557656,-0.040025602,0.21885724,0.15688986,-0.20498746,-0.39269908,0.39269908,-0.39269908,-0.39269908,-0.39269908,0,-0.39269908,0.39269908,0,0.28218886,0,0,0.2834452,0.29784715,0.31023289,0,0.30230196,0,0.31877938,0,0,0.3078081,0.32171814,0,1.2922068
0.19617145,0.26629544,0.11455979,0.23836115,-0.023118821,-0.25716419,0.044612396,0.21653607,0,0.39269908,0.39269908,-0.39269908,0.39269908,0.39269908,0,0.39269908,0.27087947,0,0,0.28409296,0.31998433,0.30128402,0.3246229,0,0,0.29780859,0,0.31118235,0.34006129,0,0.29849668,0,1.7214281
0.21218609,-0.12429484,0.13582279,0.092420922,0.11502599,-0.0942809,0.040249648,-0.223224,0,0,0,-0.39269908,0.39269908,-0.39269908,-0.39269908,0,0.29778446,0,0.30424301,0,0.31718645,0,0.28651409,0.29953129,0.29360118,0.30399257,0.31312166,0.29690172,0,0,0,0.30762962,1.7754999
0.2864099,0.14289031,0.12395216,-0.24026202,0.11941044,0.081927454,0.30881502,-0.28539153,0,-0.39269908,-0.39269908,0,0,0,0.39269908,0.39269908,0.2984904,0,0.29628453,0.31407971,0.29821221,0,0,0.29540272,0,0.2935819,0.31602566,0,0.30188377,0.32290729,0,0,1.5130128
0.068454037,0.055766563,-0.18262072,0.029597121,-0.18946032,0.05874227,0.19292845,-0.20353516,-0.39269908,-0.39269908,0.39269908,0.39269908,-0.39269908,0,0.39269908,-0.39269908,0,0.30711583,0,0,0,0,0.28565937,0,0,0.30287984,0.29697869,0,0,0.31776001,0.30856544,0.27461183,1.2130933
0.12682444,0.28189366,0.26494354,0.012621357,-0.24452297,0.13399677,0.19009761,-0.029256577,0.39269908,-0.39269908,-0.39269908,0,0.39269908,0.39269908,-0.39269908,-0.39269908,0,0,0.30355651,0.29683266,0.28314373,0.29128801,0,0,0.29295387,0.29458486,0.29214334,0.27115232,0.27100711,0,0.2825769,0,2.0047373
0.26858869,-0.29855278,-0.024773875,0.20067325,-0.098478347,-0.1345663,0.29094091,0.26900125,-0.39269908,0,0.39269908,-0.39269908,0,0,0,0,0.30609774,0,0.30163209,0,0.29458837,0.29759576,0.28629807,0,0,0.28941644,0.28908789,0.31666339,0,0,0.2893989,0.31405429,1.6300143
-0.29139983,0.18599686,0.16456267,-0.053390212,-0.09042478,0.13324665,0.1491469,-0.27895121,0.39269908,0.39269908,-0.39269908,0.39269908,-0.39269908,0,-0.39269908,0.39269908,0,0,0.31366266,0.26650731,0.30215343,0,0.29588406,0.31050092,0,0,0.29842932,0,0,0.28984238,0.27967903,0.28600599,1.5615107
-0.18368929,0.29131819,-0.30150125,0.057413139,-0.15463267,-0.1857597,0.051421633,0.3054057,0.39269908,-0.39269908,0,0.39269908,0.39269908,0,0.39269908,0.39269908,0.29616179,0.29387601,0.28679248,0.31642347,0.30691904,0,0.29100517,0,0,0,0.29742989,0.28403232,0,0,0,0.28985649,1.6305644
-0.054520615,-0.23955607,0.046336081,0.28384734,-0.20040458,0.21588656,-0.1341037,-0.10237759,0.39269908,0.39269908,-0.39269908,0,-0.39269908,-0.39269908,0.39269908,0.39269908,0.30397898,0.31134191,0,0.29094208,0,0.2953019,0.28981185,0.29089784,0,0,0.30392831,0,0.29962589,0.30783185,0.27911136,0,1.3850461
0.16079617,0.1032112,-0.11680617,-0.29420805,0.11214978,-0.054272538,0.15995249,-0.25344323,-0.39269908,0,0,0.39269908,0,-0.39269908,0.39269908,0,0,0,0.31237753,0,0.2745455,0.30719499,0.27409442,0,0.3026575,0,0.29870125,0,0,0.30942327,0.29565046,0,1.1243274
0.059144095,0.03488222,0.044281989,-0.31007223,-0.1100869,0.16749059,0.14736892,-0.0021620564,0.39269908,0,0,0,0,0.39269908,-0.39269908,0,0.29989229,0,0.28282845,0.28874048,0.30626607,0,0.32672489,0,0.31022747,0,0,0,0.31933814,0.29967527,0.3014925,0.28294151,1.9077505
-0.00018038994,0.10977891,0.31088669,-0.024349925,-0.21382388,0.24397297,0.047012363,-0.28792559,0.39269908,-0.39269908,0,-0.39269908,0.39269908,0,0.39269908,-0.39269908,0.32418846,0,0,0.27096957,0.30736228,0,0.31120484,0.306544,0.29997274,0.31205472,0,0,0.29888219,0,0,0.2923996,1.5232351
-0.04486701,-0.09759675,0.23110591,-0.068045971,-0.10890385,-0.055144132,-0.037601842,0.11427792,0,0,0.39269908,0.39269908,0.39269908,0,-0.39269908,0,0.31441931,0.30884122,0.305293,0,0.28466998,0.29645228,0.28766785,0.30112583,0,0,0,0.30848968,0,0,0.28023852,0.29438733,1.7568563
0.23794882,-0.04166816,0.25839564,-0.082086182,0.16503489,-0.28496877,0.2020424,0.29321607,0.39269908,-0.39269908,0.39269908,0.39269908,0,0,0,0.39269908,0.30268247,0.31211651,0,0.30577905,0.28553306,0.32528313,0.32161005,0.2853455,0.2991369,0,0,0.29456172,0,0,0,0.29048132,1.9785838
-0.2633704,0.037732932,0.2039968,-0.15993676,-0.11044911,-0.26519353,0.18396455,-0.063360719,0,0,0,0.39269908,0,-0.39269908,-0.39269908,0.39269908,0.29925275,0,0,0,0.29081949,0,0,0.28009405,0,0.28069641,0,0.28065867,0.31216073,0.28700079,0,0,1.315568
-0.23218147,0.21240219,-0.26224912,0.033567544,-0.060327448,0.18268753,-0.16336825,0.021798529,0,0.39269908,0,0.39269908,-0.39269908,-0.39269908,0.39269908,0,0.30985813,0.30679043,0.29326093,0,0,0,0,0.29375097,0,0.31014485,0.29344596,0.29297342,0.29567574,0,0.31953582,0,1.3993902
0.26307351,-0.0010027565,0.1112724,0.27924411,-0.28367301,-0.011315584,0.1994894,0.11061863,0,0,0,0,0,-0.39269908,-0.39269908,0.39269908,0,0.29208998,0.27318763,0.29688597,0.29743241,0,0.29703757,0.28412285,0.30282782,0,0.29594568,0,0,0.31597574,0,0.29585379,1.97774
-0.067508864,0.12179175,-0.10784098,0.21558267,-0.21503834,-0.061177598,-0.28277538,-0.0045199091,0,0.39269908,0,0,0.39269908,0,-0.39269908,-0.39269908,0.29363729,0.2947954,0.28737544,0.32469565,0.31942695,0.29666661,0,0.29488663,0,0.29913216,0.30949088,0,0.31200216,0.30950029,0.30512115,0,2.1345856
0.058389085,-0.088189947,-0.0050179862,-0.1426105,0.18046186,0.12901427,0.01561872,-0.13331723,0,0,-0.39269908,0.39269908,0,-0.39269908,-0.39269908,-0.39269908,0.31065115,0,0.29225168,0,0.31198737,0.30475858,0,0,0.31913286,0,0,0,0.32070588,0.3025313,0.3103369,0,1.3158521
0.12987341,0.0038075836,-0.094433345,-0.0086215967,0.23840539,0.09203726,-0.049990511,-0.12863514,0,-0.39269908,0,0,0,-0.39269908,-0.39269908,0.39269908,0,0.31169561,0,0,0.28043134,0,0.32262083,0.29722948,0.31597855,0,0.29646641,0,0,0.31538609,0.29760747,0,1.1539758
-0.18398569,-0.29204818,-0.029471816,-0.21780153,-0.0065029642,0.032105364,-0.13076219,0.13815461,-0.39269908,-0.39269908,0,-0.39269908,-0.39269908,0.39269908,0.39269908,0.39269908,0.32024338,0,0,0,0.30796849,0.30424744,0.29548962,0.30455432,0,0,0,0,0.26603345,0.31192819,0,0.31304881,1.2843638
0.080389807,0.2266489,-0.20725867,0.0015145273,-0.30639871,0.05558928,-0.020630756,0.090705585,0.39269908,0,0,0,0,0.39269908,0.39269908,0.39269908,0.30606939,0.31134971,0.32327852,0,0.31080857,0.30390505,0.2872942,0.29860022,0,0.29624734,0,0,0,0,0.28291538,0.31932943,2.1772338
0.19936011,-0.17738426,0.074205187,-0.045700089,-0.27615088,0.12119051,-0.15977568,0.083595181,0,0,0,-0.39269908,-0.39269908,-0.39269908,0.39269908,-0.39269908,0,0,0,0.28513672,0.29810271,0.30775854,0,0.28246811,0,0.29120558,0.30007373,0.30472298,0,0,0,0.31365249,1.3618523
-0.12564643,0.039087025,-0.28554666,-0.085729249,-0.11710216,-0.24238621,0.23230836,0.035336592,0.39269908,0.39269908,0.39269908,0.39269908,-0.39269908,0.39269908,0,0,0.31403604,0.29675978,0.31456441,0.29441352,0,0.30804036,0,0.3019926,0.28457257,0.32035005,0,0.29379082,0,0.30199356,0,0.32548874,2.2176354
0.24815704,-0.0030123869,0.26461388,0.12692026,0.0074530408,0.22786946,0.2005339,0.072593321,-0.39269908,-0.39269908,-0.39269908,0.39269908,0,0,-0.39269908,0.39269908,0.30517342,0,0,0.31645487,0,0.30752278,0.31966532,0.28697794,0.27842844,0,0.27584245,0,0.30179447,0,0,0.29979358,1.08127
-0.23353201,0.13336926,-0.30341452,-0.05461821,0.0051142886,-0.12379008,-0.17714536,-0.30885544,0.39269908,0,0.39269908,-0.39269908,0.39269908,-0.39269908,-0.39269908,0,0,0.27528593,0.3127893,0.31647397,0.29970939,0,0.28569389,0.29073566,0.29027795,0,0,0,0,0,0,0.3005092,1.7362807
-0.24498996,-0.17492733,-0.10122562,0.18766694,-0.040684894,-0.18046025,-0.10187485,-0.042603265,0.39269908,0.39269908,0.39269908,0,0.39269908,-0.39269908,0.39269908,0,0.28172157,0,0,0.31001472,0.29978375,0.29980763,0.30619366,0.32429606,0.28324609,0,0.27986198,0,0,0,0,0,1.9241796
-0.088003928,-0.020197394,-0.16560201,0.17803645,0.20580998,0.15475023,0.276676,-0.091899025,-0.39269908,0,0.39269908,0.39269908,-0.39269908,0,0,-0.39269908,0.31334249,0,0.29320196,0.29689851,0.30725559,0.27090039,0.29426406,0.32228173,0,0,0.28667393,0,0.29297098,0.3196606,0,0,2.398063
-0.15135669,0.20985095,0.21296685,-0.19680535,-0.23876818,0.09357046,-0.042564755,0.26896841,-0.39269908,-0.39269908,0.39269908,0.39269908,-0.39269908,0.39269908,0.39269908,0.39269908,0.28310345,0.29740767,0.31321379,0,0.27190245,0.30837458,0.30336388,0.30688294,0.28153619,0.31375948,0.28475287,0,0.31029884,0,0,0.2637318,2.263527
0.074895316,0.24355414,-0.080827366,-0.040872323,-0.18897805,-0.0038627736,-0.20482725,0.025600368,-0.39269908,-0.39269908,0.39269908,0,0,0,0.39269908,-0.39269908,0.2982684,0,0.30273223,0.29300495,0.30963505,0,0,0.27553993,0.29488553,0,0.31570397,0,0,0.31390647,0.29043263,0,1.6262241
-0.24214293,-0.077029814,-0.30391283,-0.26163219,-0.27909821,0.22248183,0.12850943,-0.30108396,0.39269908,0,-0.39269908,-0.39269908,0,-0.39269908,0,0.39269908,0.32806639,0.2850811,0.30887228,0,0.29615985,0,0.29870708,0,0,0,0,0.30343284,0,0,0.28198991,0.30121207,1.4760186
-0.16965778,-0.128782,0.11827854,-0.092376274,0.0070587803,-0.11528177,0.19358975,0.22958982,0.39269908,0.39269908,0,0,0,0.39269908,0,0,0.30854942,0.28081554,0.31203635,0,0.30615142,0.29646955,0.31353793,0.29047229,0.348267,0.30996035,0.27919457,0.29470018,0.28717351,0,0,0.30135754,2.9428696
0.24787269,0.24446015,0.066828746,-0.24280025,0.18513453,0.12271948,-0.22347104,0.21037465,0.39269908,-0.39269908,0,0,0,0,0.39269908,0.39269908,0.2928698,0.2913056,0.29451211,0,0.29074681,0.27637025,0,0.27921096,0.30049006,0,0.29543241,0,0,0.30534803,0,0,1.6135064
0.1892787,0.030356289,0.0034986878,-0.25949576,-0.18637776,-0.28317317,0.22142159,-0.098014387,0.39269908,-0.39269908,0,-0.39269908,0.39269908,0,0,0.39269908,0,0.31082582,0.29167411,0.28158306,0.29389758,0.29198658,0,0,0,0.28230959,0,0,0,0,0,0.30498772,1.3921733
0.096535533,0.15424975,0.033331882,-0.25118848,-0.05264006,-0.048997083,0.23162047,-0.21633846,0,-0.39269908,0.39269908,0,0.39269908,-0.39269908,0,0.39269908,0,0,0,0.2827166,0.31034139,0,0.3119768,0,0.31664055,0,0.31761857,0.30615778,0,0.29880257,0.31613641,0,1.1870392
-0.11173147,0.17322643,-0.21146246,-0.27992655,0.12365928,-0.13616274,-0.15110325,0.071118878,0.39269908,0,0.39269908,0,0.39269908,0.39269908,0.39269908,0.39269908,0.29763509,0,0.31485381,0,0,0,0.29972635,0.29873677,0,0.30847134,0.29419039,0.29513239,0,0,0.28834262,0,1.3756446
-0.16473902,0.23111602,0.10184711,0.20465384,0.20138357,-0.098292497,-0.15257816,-0.21319555,0.39269908,-0.39269908,0.39269908,0,0.39269908,0,0,0,0,0.2717607,0.30119929,0.31049392,0,0.31226205,0.29625994,0.3086122,0.31459569,0.30811161,0.2995159,0,0.28932182,0,0,0.28958603,1.8013171
0.25656623,-0.041456868,0.039677116,0.20733195,-0.026550939,-0.13547924,0.026701823,0.15810113,0,0,-0.39269908,0.39269908,0,0.39269908,-0.39269908,0,0.28867684,0.30152545,0.29285904,0,0.29480581,0.29531993,0,0.29084949,0.29298604,0,0,0,0.32160347,0.30147518,0.29513018,0,1.904453
-0.21702584,-0.1642231,0.1056356,-0.21068019,0.30132929,0.19395153,0.026805433,0.014533601,-0.39269908,0,-0.39269908,0,0,0,0,0.39269908,0.30006007,0,0.30503961,0.28109452,0.30820777,0.2923626,0.31624145,0.28930673,0.29656599,0.2862354,0.31751078,0,0,0.29222256,0.29391197,0,2.106375
0.16067167,-0.10421431,0.22223909,-0.18123594,0.055737104,-0.049425762,-0.061681709,0.041084924,0,-0.39269908,0.39269908,-0.39269908,0,0,0,0,0,0,0,0,0.29218488,0,0.31893977,0,0,0.28832936,0,0.32318052,0,0.30768669,0,0.27095592,0.93499607
0.12127585,0.017826307,-0.10119129,0.13627873,0.21561775,-0.25383787,0.029712427,-0.13647725,0.39269908,-0.39269908,0,0,0.39269908,0.39269908,0,0.39269908,0.29908771,0.30244814,0,0.31303955,0,0.30757525,0.28868737,0,0,0.29101749,0,0.30347905,0.29965107,0.27587538,0.31068832,0.31213462,2.2241063
0.19997983,0.18512692,-0.005158883,0.0026101152,-0.11409136,0.094732231,0.0054530364,-0.085323393,-0.39269908,0,-0.39269908,-0.39269908,0.39269908,0,0,0,0.27731083,0,0.31880574,0.2942757,0.29291658,0.29723365,0.29470588,0,0.29411955,0,0,0,0.31503269,0,0.30613109,0,2.0662309
-0.10251757,-0.16335197,0.29548428,-0.025301351,0.13184053,-0.23563767,-0.070584807,-0.053462156,0,0,0,0,0,0,0,0,0.30747193,0,0,0.27869792,0.30528985,0,0,0.31253896,0,0,0,0.29960724,0.29797173,0,0,0,1.0088871
0.069168831,0.1312632,0.11429663,0.21378953,-0.19307651,0.22838145,0.0091104278,-0.19076114,0.39269908,0,0.39269908,0.39269908,0,0.39269908,0.39269908,-0.39269908,0.30626754,0,0,0,0.29843543,0.31992204,0,0.30436045,0.29776066,0,0,0.27789894,0,0,0,0.30650978,1.583601
-0.037977704,0.080355797,0.28335779,-0.26005725,-0.19845241,-0.2749733,-0.19350385,-0.042482395,-0.39269908,0.39269908,0,0.39269908,0.39269908,-0.39269908,0,-0.39269908,0.32788645,0,0.29435202,0,0.29658432,0.30140278,0.30004363,0.32189228,0,0,0.31589485,0,0.32954068,0.27411957,0.30798959,0.28572552,2.2732732
-0.26403353,0.20226617,0.28427117,0.011385905,-0.27425109,0.0066354677,0.30992558,0.15857631,-0.39269908,0.39269908,0,0,-0.39269908,-0.39269908,0.39269908,-0.39269908,0,0,0.29211293,0.31419945,0.29085009,0.3002922,0.29111876,0.28232709,0,0.29651868,0,0,0,0.30845398,0,0,1.9223053
0.26814505,-0.21488711,-0.032817049,0.10752332,0.1003023,0.0021133869,-0.29446257,0.23258401,0.39269908,0.39269908,0.39269908,0.39269908,-0.39269908,0,-0.39269908,0,0,0.28833465,0,0.30914644,0,0.3013364,0.29386581,0.29268367,0.2959472,0,0.32692813,0.31039387,0,0.28991072,0.30533865,0.30199732,2.2866323
-0.012042921,-0.086813528,-0.11934504,-0.23940071,0.14421466,-0.23709743,-0.10033254,0.1179323,-0.39269908,-0.39269908,0,0.39269908,0,0.39269908,0.39269908,0.39269908,0,0.31411746,0.29693841,0,0.31683041,0,0.28066561,0.27375696,0.28744214,0.2797176,0,0,0.29203341,0.30509317,0.30673191,0.3166564,1.7724607
0.17058863,0.065591656,-0.30006119,-0.2438673,-0.15593152,-0.024384118,-0.1601884,0.058525299,-0.39269908,0,0,-0.39269908,0,0.39269908,-0.39269908,0,0.30524243,0,0.29490529,0.29715687,0.32747298,0.2847155,0.31924161,0.31915864,0,0,0.31144948,0.30746847,0.30614295,0.2942546,0.31732406,0,2.0248407
-0.2661129,-0.18820771,-0.2514887,-0.07184591,0.11400533,-0.28401317,-0.073405711,0.28781312,-0.39269908,0.39269908,0,0.39269908,-0.39269908,0,-0.39269908,-0.39269908,0,0.31296065,0.29796067,0.3203515,0,0,0.28694474,0.30772078,0,0.32305968,0,0.29625169,0.30683956,0.28063409,0.30510229,0.29816426,2.6627675
-0.29369525,-0.065642511,0.073657572,0.17531252,0.29198007,0.14123243,-0.094031517,-0.1666039,0.39269908,0,0,-0.39269908,0,-0.39269908,0,-0.39269908,0,0.32699086,0,0,0.30585671,0.29494951,0.29895008,0.28393397,0,0.28883164,0,0.2987675,0.29202449,0.27707226,0.28239942,0,1.4423373
-0.0030590704,0.10832331,-0.27729274,-0.22049348,-0.011173811,0.069006385,-0.085701332,-0.27620718,-0.39269908,-0.39269908,-0.39269908,-0.39269908,0,0,0.39269908,-0.39269908,0,0.29479312,0,0.30883533,0.30302611,0.29798171,0.30712712,0.28703287,0,0.31462528,0,0,0,0,0,0,1.610373
-0.17381744,-0.29688645,-0.29314186,-0.18969279,-0.07845952,0.17144544,0.014681852,-0.17129856,0,-0.39269908,-0.39269908,0.39269908,0,0.39269908,0,-0.39269908,0,0,0.28018034,0,0,0.27361456,0,0.30357893,0.29687879,0,0.29288257,0,0,0.31301808,0.3099092,0.311586,1.6879174
0.16696969,0.18899203,0.238799,-0.20397794,-0.15134375,-0.20102274,-0.12038509,-0.12659569,-0.39269908,-0.39269908,0,-0.39269908,0.39269908,-0.39269908,-0.39269908,0.39269908,0,0.2943437,0.28870453,0.29598199,0,0.30104467,0.29264323,0.3121111,0.28073061,0,0.31246,0.30331421,0,0,0,0,2.158173
-0.23267088,0.15510498,-0.044122332,-0.1481746,0.28423065,-0.041195589,0.032762287,0.22871901,0,0,0.39269908,0,0.39269908,0.39269908,0.39269908,-0.39269908,0,0.30857681,0,0.27590093,0.31992754,0,0.33445765,0.30032639,0,0,0.2832652,0.3054146,0.28697701,0.29215922,0,0.27833396,1.5400811
0.21883482,-0.21990505,-0.17450061,0.15910013,-0.12781765,-0.010196735,0.15443539,0.011725363,-0.39269908,0.39269908,-0.39269908,0.39269908,0,-0.39269908,0.39269908,-0.39269908,0.28000222,0,0.29415945,0.28105481,0.31297223,0,0,0.29150429,0.30793465,0,0.3140995,0.30234028,0,0.28048031,0,0.3151169,1.8039853
0.093098073,0.18617643,0.041027188,0.27851663,0.055888783,-0.013423491,-0.042265127,0.27827543,-0.39269908,-0.39269908,0,0.39269908,0,0,-0.39269908,-0.39269908,0.29899489,0.3133975,0.32002952,0.29914633,0.31663629,0,0.30127538,0,0,0,0.27075115,0.29890629,0,0,0.30044814,0,1.3689834
0.24505863,0.072504963,0.28127493,-0.080843386,-0.31012745,0.21843011,-0.11031048,0.17972036,0.39269908,-0.39269908,-0.39269908,0,0,-0.39269908,0.39269908,-0.39269908,0.29005825,0.3003938,0.3166031,0,0,0,0,0,0,0,0,0.27177142,0,0,0.30609278,0,0.61121325
0.22038247,0.030369118,0.21912408,0.24345581,0.15151494,-0.063491201,-0.21174542,-0.0091944619,0,0.39269908,0.39269908,0,0.39269908,-0.39269908,0,0.39269908,0.27117604,0.2790175,0.30500797,0.27153169,0,0.28680327,0.29847356,0.32731925,0,0,0.30941207,0.32639148,0.28306521,0.28743881,0.30145335,0,2.7830294
0.22351985,-0.018407952,-0.24974012,-0.21443695,-0.0067153319,0.23275225,-0.044050888,-0.20405327,-0.39269908,0,-0.39269908,0,0,-0.39269908,-0.39269908,-0.39269908,0.29512831,0.31192856,0.28091788,0.30005766,0,0,0.2813253,0.28737996,0.31248804,0.29718749,0,0.2969102,0,0,0,0,1.4354411
-0.15384749,-0.18393309,-0.036189026,-0.016616862,-0.3061733,0.074123098,-0.1687331,-0.29567159,0,0,-0.39269908,-0.39269908,0,-0.39269908,0.39269908,-0.39269908,0.29299599,0,0.29401608,0.30438625,0.2864135,0,0,0,0,0,0,0,0.27967752,0.29984152,0.29416947,0,1.3644067
-0.0079875402,0.21357781,0.018521551,0.27403477,0.12749304,0.20928236,0.081545618,0.17448834,0.39269908,-0.39269908,0,0,-0.39269908,0.39269908,0,0,0.28126983,0,0.28808452,0.28490176,0,0.30617638,0.2720233,0,0,0,0,0.30600164,0.33770605,0.27801676,0,0.29873722,1.1922666
0.21285676,-0.16209056,0.13309161,0.05679554,0.14678688,0.26849799,0.062012104,-0.1430066,-0.39269908,0,0,0,-0.39269908,0.39269908,0,0.39269908,0.3023007,0.31911906,0.30673553,0.26751861,0.27992777,0.28995232,0.27533681,0,0.30792274,0.2996309,0,0.29680336,0.31035498,0.29954359,0,0,2.0859865
0.024865841,0.088363128,-0.22590975,0.063750798,0.17656999,0.063462407,-0.27218603,0.15668033,0,-0.39269908,0.39269908,0,0,0.39269908,-0.39269908,-0.39269908,0.3038484,0,0,0.30828782,0.30485312,0.31439515,0.32502014,0.3211512,0.30721367,0.32098309,0,0,0.31643622,0.32276652,0,0,2.0066207
-0.22224198,0.13266134,-0.26325267,0.13150135,-0.28138218,0.16326238,0.083880021,-0.17526368,0,0,0.39269908,-0.39269908,0.39269908,-0.39269908,0,0,0.29428018,0,0.2978615,0.29601606,0.29970716,0.29888171,0.2827754,0.28718242,0,0.29299632,0.29531301,0.25918302,0,0,0,0,2.4907043
0.17273362,0.3023148,-0.2071875,-0.059060316,0.11654416,0.28888826,-0.30068019,0.033918964,0.39269908,-0.39269908,-0.39269908,0,-0.39269908,-0.39269908,0,-0.39269908,0.32759122,0,0.28293177,0.29369051,0.31954192,0.31030442,0.29435266,0.29060885,0.3014,0.30305084,0,0.29184583,0.28927324,0.29331121,0,0,2.3234272
0.1271974,0.26710841,-0.044823279,0.0090619722,0.25148181,-0.043999444,0.032259012,-0.061675293,0.39269908,-0.39269908,0,-0.39269908,0.39269908,-0.39269908,-0.39269908,0.39269908,0.30327284,0.27794445,0.33387037,0.29910466,0.30154178,0.2898309,0.3260598,0.31624804,0,0.27645882,0.3030412,0.30598701,0,0,0.31925446,0.3216547,2.6823896
-0.057004143,0.11713288,0.13031171,-0.16942948,-0.061767013,-0.13597614,-0.15650677,-0.26783968,-0.39269908,0,-0.39269908,0,0,0,0,-0.39269908,0.28565066,0.28168354,0.31958842,0,0.31124578,0.30059285,0.28029567,0.27556203,0.30850483,0.31213676,0,0.31065965,0.29850882,0,0.30118669,0,2.161665
0.035760212,-0.27894735,0.24479883,0.10415458,0.030598322,0.30143726,0.12369831,-0.10855207,0.39269908,-0.39269908,-0.39269908,-0.39269908,0,0.39269908,-0.39269908,0.39269908,0.31516333,0.29646419,0.31752456,0,0,0.29468692,0.30616169,0.27760284,0.29811434,0.2935332,0,0,0.30085335,0,0,0.32786041,1.5857143
0.29985488,-0.082003233,0.30251537,0.022335377,0.28451774,-0.24273911,-0.044064686,0.1923631,-0.39269908,0.39269908,0,0.39269908,0.39269908,0,0,-0.39269908,0.27801665,0,0.30212758,0,0.32670957,0,0.30206058,0,0.3011012,0,0.29823802,0,0.30040425,0.26714616,0.29275156,0.31518247,1.814599
-0.017879189,-0.15927552,-0.30678351,-0.12862004,-0.30127777,0.043639293,0.19786641,-0.14925766,0.39269908,0.39269908,-0.39269908,0,-0.39269908,-0.39269908,0.39269908,0.39269908,0.29574507,0.28368995,0,0,0.30479868,0.26877271,0.29002752,0.30846779,0,0.32422581,0,0,0,0,0.30910774,0.31575366,2.0419741
-0.24506603,-0.19683784,-0.15651312,0.25365211,-0.010274504,0.10400365,0.0072240701,0.14947057,0.39269908,0,0.39269908,-0.39269908,0,0,-0.39269908,-0.39269908,0,0,0.29341323,0.30702727,0.3031176,0,0.29834019,0,0,0,0,0,0.3336094,0.31581002,0,0,1.3309145
-0.0060726875,-0.27605677,-0.1821844,-0.17696061,0.28299602,-0.057090919,-0.08467281,0.04555378,-0.39269908,0,0,-0.39269908,0,0.39269908,-0.39269908,0,0.29034855,0,0.30535553,0,0,0.30115423,0.31783933,0.29065819,0.32948967,0.30959255,0,0,0.31548464,0,0,0,1.6989652
-0.093897127,0.20713478,-0.19869698,0.012860855,0.01081571,0.19558055,-0.24032744,0.27647555,0.39269908,-0.39269908,-0.39269908,0,0,0.39269908,-0.39269908,0,0.33382441,0.31478771,0,0.28943082,0.27905038,0,0.30159692,0.3098322,0.32154906,0,0.28755029,0.33198762,0,0,0.30154309,0.29736393,1.9810851
0.12038249,0.082795939,-0.17420203,0.15079775,-0.17922244,-0.032512055,0.2070115,0.24261823,0,0.39269908,0,0.39269908,0.39269908,0.39269908,0.39269908,0.39269908,0.29328964,0.30676449,0.32049547,0.30507046,0.2987859,0.284983,0.31146766,0.3121119,0,0,0,0,0,0.29349889,0.3054685,0.29502873,2.8271037
-0.2275438,0.24621497,0.029210572,0.22531629,0.015030238,0.02915394,-0.098192272,0.275273,0.39269908,0,0.39269908,0.39269908,0,-0.39269908,0,0,0,0.28655053,0.28598566,0.29546602,0.29521742,0.26921392,0,0.27582001,0,0.28790567,0.28591995,0.30519336,0,0,0,0,1.9474239
-0.30890893,-0.036404925,0.12466654,-0.17182193,-0.059137163,0.081622073,0.20282104,0.18522122,-0.39269908,0,0.39269908,-0.39269908,0.39269908,-0.39269908,-0.39269908,0,0.29643831,0.3081935,0.29609419,0,0.28880833,0.29751259,0.28392379,0,0.30033272,0.32107942,0,0.30833153,0,0.31036362,0.29340835,0.30095747,2.0877985
-0.16868131,-0.053596049,0.21996982,0.0065531867,0.18366672,-0.042395897,-0.034629439,-0.19402424,0,-0.39269908,-0.39269908,0,0.39269908,-0.39269908,-0.39269908,0.39269908,0.28579785,0,0.30432221,0.2775921,0.30438351,0.30226563,0,0.29488653,0,0,0.30237917,0.31785928,0.28649361,0,0,0.29826938,1.8880843
-0.044734827,0.23904466,0.15498622,-0.15522477,-0.084210862,0.26968624,-0.073239484,-0.060002464,0,0,0,0,0,-0.39269908,-0.39269908,-0.39269908,0.33293989,0.29456098,0.29630478,0.26712241,0.28728937,0.27018535,0,0.30505018,0.2919048,0.27136888,0.29754305,0,0,0.32986324,0,0.29178409,2.0998414
-0.24533562,0.29878412,0.14295496,-0.046090099,0.08045226,0.019651977,-0.20477383,0.29508579,0.39269908,0.39269908,0.39269908,0,0.39269908,0,0,0.39269908,0,0,0.30409313,0.30300228,0.31481125,0.31270756,0,0.30425712,0,0.31138708,0.28772177,0.28725408,0.29810907,0.32953904,0,0,1.9307634
-0.14879571,-0.10169744,-0.2024443,-0.13652706,0.0088992895,0.030548889,0.098942298,-0.23594014,-0.39269908,0.39269908,-0.39269908,0.39269908,0.39269908,0.39269908,-0.39269908,-0.39269908,0.3295383,0,0,0.29907722,0.27453066,0,0,0,0.29715628,0,0.2973615,0,0.30733669,0.28674589,0.30184796,0,1.2638735
0.066241119,-0.065950448,-0.075285436,0.11120004,-0.30861196,-0.071733627,0.11618619,-0.072778014,0.39269908,0.39269908,0,-0.39269908,0,-0.39269908,-0.39269908,-0.39269908,0,0.31046352,0.31251005,0,0.29893578,0.3046418,0.31948579,0.2735189,0.31391646,0.30950725,0.31248408,0.30286219,0.29190733,0,0,0,2.0041713
-0.24251151,0.01142379,-0.26582833,0.19640997,-0.12314313,0.014680205,-0.19898382,0.21853012,0.39269908,0.39269908,0,0.39269908,0.39269908,0,0,0.39269908,0.30784317,0.29054465,0.31451065,0.32571433,0.2751979,0.28717099,0.28658542,0.28506248,0.31787207,0.29147159,0.28892858,0.31133909,0.29335688,0.30237796,0.32726086,0.30771256,3.3835375
-0.29389137,-0.22031192,-0.10139847,-0.20417205,-0.27211224,0.1400921,0.21835573,-0.10383254,-0.39269908,-0.39269908,-0.39269908,0,0.39269908,0,-0.39269908,0.39269908,0,0.30095478,0.31379692,0.29131003,0.32104511,0.29363689,0.30486282,0.27973405,0.29985975,0.29122097,0,0.2982915,0,0.29526125,0,0.31130862,2.3477179
-0.072195672,-0.10957887,-0.090446343,-0.22915979,0.10396416,-0.028274192,-0.19553727,-0.28891016,0,0,0,0.39269908,-0.39269908,0,-0.39269908,0,0,0.29690736,0.3122434,0.29347764,0.2904106,0.25527264,0,0.3075862,0,0.3146622,0,0.29660127,0,0,0.30731855,0.29736397,2.2454091
0.26364284,0.14295798,0.0047268585,0.27617516,0.28693841,0.22905705,0.054208204,0.015420287,0.39269908,-0.39269908,-0.39269908,0.39269908,0.39269908,-0.39269908,-0.39269908,0,0.29929827,0.30849043,0,0,0,0.29960272,0,0,0,0.3122478,0,0,0,0.31752715,0,0.31536381,0.94599946
0.2187833,0.17088659,0.046928202,0.18252962,-0.30414177,0.28882346,-0.13314092,-0.25709732,0,-0.39269908,-0.39269908,-0.39269908,0.39269908,-0.39269908,0,0.39269908,0.28209697,0.29574185,0.3015007,0.29777466,0.3078063,0.31647249,0.29045298,0.3111295,0,0.28014293,0,0.27937475,0.33384969,0,0.29465192,0,2.0841622
0.023499026,-0.26422279,0.16293561,0.24670435,0.086070127,0.19137282,0.040400435,-0.20221996,-0.39269908,-0.39269908,-0.39269908,-0.39269908,0,-0.39269908,0,0,0.30048579,0,0.29723382,0.27824681,0.30629672,0.31531773,0,0.30413098,0.30384203,0,0.3146609,0,0,0,0.26692177,0,1.3427081
0.0068889074,0.17125744,-0.0034790701,-0.039107555,-0.059486421,-0.13349427,0.087299873,0.12520078,0,-0.39269908,0,0.39269908,0,0,0,0,0.30248303,0.3203847,0.31844074,0.29259495,0.31591389,0,0.28071284,0,0,0,0.30636958,0,0,0,0.27397671,0.30326975,1.8727904
-0.26141972,0.15018144,0.14384865,-0.10548826,0.17376647,0.06848635,-0.029468477,-0.16168356,0,0,0,0,0.39269908,0.39269908,0.39269908,0,0.29831029,0.29167569,0.3173172,0.29425047,0.30142508,0,0,0,0.30584776,0,0,0,0.31703889,0.30661173,0.28890881,0.33631742,2.3276363
0.28567043,0.28097422,-0.10828105,-0.26918054,-0.22388463,0.17065075,-0.1468538,-0.13664467,0,0.39269908,0,0.39269908,-0.39269908,0.39269908,0.39269908,0.39269908,0.31570042,0.32246679,0.29057172,0,0.31322761,0,0.29740478,0.30926068,0.3097002,0.31792315,0,0.30327883,0,0.30585826,0.30891784,0,1.617927
0.068037658,-0.030810819,-0.10296388,-0.12476459,-0.21955157,0.11152048,0.050542322,-0.021841533,-0.39269908,-0.39269908,-0.39269908,0.39269908,0.39269908,0.39269908,0.39269908,-0.39269908,0.28440448,0.29636416,0.28830034,0,0,0.29840539,0,0.27592624,0.29818439,0.31224048,0,0,0,0,0,0,1.3503573
0.2143099,-0.2436297,0.067453554,0.20524511,0.085844573,0.17038519,-0.21195999,0.1545912,0.39269908,-0.39269908,-0.39269908,-0.39269908,-0.39269908,0.39269908,-0.39269908,0.39269908,0,0,0.30614666,0.27473752,0,0.31203484,0.31457457,0,0.32276835,0,0,0.31337104,0,0,0.32380804,0,1.0641948
0.22964342,-0.14383582,-0.30715571,-0.10097566,-0.0095336398,-0.010658439,-0.065600834,0.14581053,0.39269908,0.39269908,0,0.39269908,-0.39269908,-0.39269908,0.39269908,0,0.30185111,0.26848117,0,0,0.30514268,0.30728041,0,0.30311485,0.30403373,0.30182844,0.28786744,0.27456861,0.29325681,0.29763265,0.29017861,0.28905878,2.0365482
-0.019815131,-0.024081102,-0.09394711,-0.0046099072,-0.19553142,-0.19071846,0.27597437,0.053914299,0,-0.39269908,0,0.39269908,0.39269908,0.39269908,0.39269908,0,0,0.30939389,0.31573037,0,0,0.27687169,0.29998783,0.29914941,0.31117976,0,0,0,0.30550272,0,0,0.31986039,1.6210398
-0.14876074,-0.14228692,-0.036002042,-0.015573593,0.26344203,-0.090434934,-0.037408636,0.21989574,0,0.39269908,0.39269908,0,-0.39269908,0.39269908,0,0.39269908,0.31197091,0,0,0,0.27817567,0.31970077,0.28267887,0,0,0,0.32700753,0,0,0.29269801,0,0,1.3454909
0.11646367,0.19260619,0.035155635,0.2413431,-0.17090549,0.26383598,0.24740053,-0.15132092,0.39269908,-0.39269908,-0.39269908,0,0.39269908,0.39269908,-0.39269908,0.39269908,0.28935518,0,0.30637927,0,0.3014865,0,0.30373808,0.29424361,0.31495305,0,0,0,0.2818312,0.30395764,0.31434719,0,1.2916565
0.099440309,-0.034025559,-0.097709529,0.22058997,-0.25198125,-0.1819664,-0.28294161,-0.28503269,-0.39269908,0,0,0.39269908,0.39269908,0.39269908,-0.39269908,0.39269908,0.27300852,0.27309612,0.29681015,0.28045514,0.31767139,0.28188402,0.27403288,0,0.319752,0,0,0,0.29050122,0.30549563,0,0.31227877,2.3737992
-0.1929414,-0.014140809,-0.16016988,-0.25858731,0.0023243283,0.10923648,-0.0091442789,0.25014513,0.39269908,-0.39269908,0.39269908,0,0,0,0,-0.39269908,0.26634905,0.31109158,0,0.30521581,0.32460466,0,0,0.29675137,0.28264437,0.30605319,0,0.27687721,0,0,0,0,1.613955
0.2753463,0.17925953,0.027495423,0.30146187,-0.090939503,0.27876078,-0.23893307,-0.16445972,0,-0.39269908,-0.39269908,-0.39269908,-0.39269908,-0.39269908,0.39269908,-0.39269908,0.29763552,0.31881259,0.30364359,0.30206953,0.3167969,0,0.29234433,0,0,0,0.29088489,0,0.29796508,0.31319069,0,0,1.9807225
-0.17060027,-0.26136529,-0.19154877,0.14390985,0.29475715,-0.30815714,0.032560508,-0.020990009,-0.39269908,0,0,0.39269908,0,0.39269908,0,-0.39269908,0,0,0.29693147,0.29071328,0.32983848,0.31672631,0.30577678,0,0,0,0,0,0,0,0.2926587,0,1.6511547
-0.3028831,0.080506694,0.30621571,0.010367747,0.20648266,0.15083083,-0.25144098,0.10185245,0.39269908,-0.39269908,0,-0.39269908,0,0,0,0,0.29057913,0,0.33053121,0,0.31352643,0.29670823,0.29494476,0,0.31592596,0.31587313,0.28124139,0,0,0.30323811,0.29341849,0,1.7526759
0.075894339,0.069537501,0.044309422,0.15099798,0.044537185,0.20909763,0.11825855,0.19997696,0.39269908,0,0,0.39269908,-0.39269908,0.39269908,0.39269908,0,0.28939039,0.30051176,0.25814237,0,0.31160297,0,0,0.28865032,0.30300448,0,0.32148614,0,0.29988627,0,0.29820074,0.29094602,1.7829129
0.070793956,-0.2012718,0.091872732,-0.30194764,0.09479082,-0.26647393,0.027145683,0.078236652,-0.39269908,0.39269908,-0.39269908,-0.39269908,0.39269908,-0.39269908,-0.39269908,-0.39269908,0,0.28212301,0.29381067,0.30090541,0.32501429,0.30910035,0.28779821,0.27061597,0,0,0,0.28625307,0,0,0.30592553,0.28505509,2.2988983
0.26276092,-0.22815785,-0.021025477,-0.2601808,0.23827481,-0.21761717,-0.049657762,-0.19099099,0,0,-0.39269908,-0.39269908,0.39269908,-0.39269908,0.39269908,0,0.29785622,0.29212119,0.28149548,0.3074839,0.31059717,0.3068774,0,0,0.31235998,0,0.27765014,0.29523444,0.28490343,0.31443692,0.27676981,0,1.9854456
0.099587743,-0.069370612,0.24732172,-0.21930796,-0.19246259,-0.13498816,0.1121367,-0.27414169,0,0,0.39269908,-0.39269908,0,0,-0.39269908,0,0.29662083,0,0.32485812,0.29234661,0.28946273,0.30867078,0.26565085,0,0,0.30228148,0,0.28798971,0.29065724,0.30509293,0.28984115,0.32690383,2.2712695
-0.20548925,0.20910514,0.24453382,0.048465318,0.25577548,-0.13694621,-0.1241972,-0.10811978,0,-0.39269908,0,0,0,0.39269908,0,0.39269908,0.32494964,0,0.28273198,0,0.30122719,0.29655872,0.28809019,0.34008733,0,0,0,0.29104908,0,0,0.28822185,0.30745037,1.7023292
-0.21179554,-0.22311758,-0.13222276,0.094795364,-0.1901108,-0.19256972,-0.050538258,0.090159705,-0.39269908,0,0.39269908,0.39269908,-0.39269908,0.39269908,0.39269908,-0.39269908,0.29215914,0.29145441,0.31908096,0.28445657,0,0.29689959,0.29609002,0,0,0,0,0,0,0,0,0.30312105,1.7243402
0.18817783,-0.25072584,0.18320577,-0.249691,-0.017154489,0.082711317,0.28851802,-0.24011838,0,0.39269908,0.39269908,-0.39269908,0.39269908,-0.39269908,-0.39269908,0.39269908,0.30332748,0,0.29691684,0.2963061,0,0.27698361,0.286718,0,0,0,0,0.29787169,0,0,0,0,1.3819387
-0.3018322,0.14995723,0.14561407,0.035067638,0.019016885,-0.19734913,0.046756491,-0.19014606,-0.39269908,-0.39269908,-0.39269908,-0.39269908,0.39269908,0,0,0,0,0.31388988,0,0.29130688,0.29121893,0.29326598,0.2702905,0,0.28551434,0,0.28329504,0,0.31382813,0.31456514,0.29905632,0,1.5453106
0.1242783,0.2146449,-0.26812609,-0.094618197,0.026168614,-0.0070841684,-0.31141544,-0.066011407,0.39269908,-0.39269908,0.39269908,-0.39269908,-0.39269908,0.39269908,-0.39269908,0,0,0.30568751,0.30034135,0,0.30156518,0,0.28906145,0.31747694,0.28961307,0,0,0,0.29363438,0,0,0.29355858,1.3800123
-0.0068180639,-0.23722672,0.2398405,-0.29247599,-0.30802164,-0.20330844,-0.20872569,-0.15035323,0.39269908,0,0.39269908,-0.39269908,0,-0.39269908,0,-0.39269908,0.29306277,0,0.29281681,0,0,0,0.29716071,0,0,0,0,0,0.31308562,0,0,0.2866399,0.85238343
0.27480833,-0.065932726,0.2225696,-0.28126932,0.17517488,-0.13636201,0.26970783,0.28968329,-0.39269908,0,-0.39269908,0,0,0,0,-0.39269908,0.26593183,0.31581348,0,0.28344498,0.29132776,0.29165966,0,0.29066864,0.28879605,0.30299596,0.26868413,0.31943841,0,0.31007919,0.28242725,0,1.8098569
-0.25970727,0.028824787,0.024613829,0.25102352,-0.20656539,-0.28470683,0.20627051,-0.27310846,-0.39269908,0,-0.39269908,0.39269908,-0.39269908,-0.39269908,0,-0.39269908,0,0.31293843,0,0.30375036,0.29905838,0.31267798,0,0.30404063,0,0,0.27171561,0,0.30363761,0.27962301,0.26915029,0.29565129,2.1207421
-0.09754667,-0.18384025,0.26745711,0.16087614,0.19064185,-0.30688382,0.0704016,0.11589337,0,0.39269908,0,0,0.39269908,0,0.39269908,0,0.29577269,0.30616253,0.28826655,0.30727478,0.30027593,0.29615059,0.30645154,0.27141043,0,0,0.29899168,0,0.30160181,0,0,0,2.973477
0.044593501,-0.10103795,0.20018263,-0.17625675,0.17473729,0.048775295,-0.18930573,0.14364369,0.39269908,-0.39269908,0,-0.39269908,0.39269908,-0.39269908,0.39269908,-0.39269908,0,0.31298417,0.2990305,0.2949974,0.30556596,0.30766244,0.29271485,0.30632813,0,0.28520322,0.29863584,0,0,0.28003518,0.30652234,0.3168319,2.5190908
0.16152348,-0.23923714,-0.24833008,0.23636934,-0.19852956,0.31340242,0.16020058,0.14620302,-0.39269908,0.39269908,0,0,-0.39269908,0.39269908,-0.39269908,0,0.27889184,0,0,0.31075133,0.2983271,0.31860778,0.29625112,0.31083382,0,0,0.28941348,0.29965432,0.32512321,0.28510892,0,0,1.9910771
-0.14768037,-0.20578547,0.25714546,0.26883671,0.10006572,-0.20412944,-0.18434146,0.011780019,0,0.39269908,0.39269908,0,0.39269908,-0.39269908,-0.39269908,-0.39269908,0.2905951,0.30690035,0.30605835,0.31761056,0,0.32044306,0,0.30054939,0.28855632,0,0,0,0,0.28625532,0.33023441,0.27225034,1.6416278
-0.046384295,0.16244759,0.2126126,0.13255427,-0.1779127,-0.010899387,0.28301304,0.22890322,0,0.39269908,0,0.39269908,0.39269908,-0.39269908,0,-0.39269908,0,0.31794584,0.26992014,0.30025235,0.28441387,0.28962898,0,0,0.31789728,0.30275948,0,0,0,0,0,0.31173805,1.1236504
-0.30847907,0.27679819,0.07674253,-0.12623555,0.1908529,0.098526509,-0.31260394,0.065217705,-0.39269908,0.39269908,0.39269908,-0.39269908,0.39269908,-0.39269908,-0.39269908,-0.39269908,0,0,0,0.28111081,0,0.30053436,0,0.31715365,0,0.31440429,0,0,0,0.28744344,0.30109255,0,0.78854713
-0.00095609435,0.267204,0.30504691,-0.15574759,-0.074782323,-0.22944846,0.27895344,-0.14249122,0.39269908,0.39269908,-0.39269908,0,-0.39269908,0.39269908,0,0,0,0.30332637,0.28568673,0.27945653,0.30928945,0.31041701,0,0.28673302,0,0.29814944,0,0.33366256,0.29624284,0,0.30877856,0,1.8938548
-0.20132706,-0.2086664,0.21779596,-0.086987649,0.095802584,-0.226365,-0.047870341,-0.30910869,-0.39269908,-0.39269908,-0.39269908,-0.39269908,0.39269908,-0.39269908,0.39269908,0.39269908,0.29746171,0.31125358,0,0.3015473,0,0.30433984,0.29620521,0.30898662,0.29360729,0.29743357,0,0,0,0,0,0.28495294,1.6451399
0.17219948,0.12147233,0.17857861,-0.10693772,-0.31123988,-0.25688157,-0.23191737,0.2529752,0,0,0.39269908,-0.39269908,0,0.39269908,0,0,0,0.28787747,0.28548515,0.29199716,0.28409019,0.28167149,0,0,0.28161214,0,0,0,0,0,0.32550467,0.29692528,1.0574489
-0.190878,0.10784998,-0.064331655,0.11405983,0.0036864996,-0.2445361,-0.08678211,-0.21961274,-0.39269908,0.39269908,0,0,-0.39269908,0.39269908,0,0,0.27348704,0,0,0,0,0.28487949,0,0.26252821,0.30725132,0.30808997,0.30666647,0.28019893,0.27039585,0.30219814,0.31903795,0,2.0428239
0.13545473,0.18961776,0.074060059,0.028404327,-0.13056202,-0.26756974,-0.16881534,0.20712078,0.39269908,0,-0.39269908,0,0.39269908,-0.39269908,-0.39269908,-0.39269908,0.29140953,0,0.28629866,0.31509284,0.3062472,0.28707603,0.28575957,0,0,0.2989693,0.30137883,0,0.29746693,0,0,0,1.8321034
0.1700469,-0.24267676,-0.25277288,-0.29219335,0.044057258,0.31111114,-0.021930599,0.23539625,-0.39269908,-0.39269908,-0.39269908,-0.39269908,0,0.39269908,0,0,0.32003626,0,0.30721387,0.30609508,0,0.28334403,0.2831983,0.27535446,0,0,0,0,0,0.29925456,0,0,1.4140634
0.30479743,0.049493028,-0.064418193,-0.083743053,-0.03598358,0.29471768,0.28507619,-0.28155026,-0.39269908,0,0.39269908,-0.39269908,-0.39269908,-0.39269908,-0.39269908,0.39269908,0.28763064,0.29394713,0,0.28617232,0.30656856,0.29858956,0,0,0,0.29504537,0.30508803,0.32554463,0,0,0.31275283,0.3035123,1.3823155
0.28357505,0.24981454,0.20848517,-0.12216211,0.16637189,0.19481773,0.13374095,0.28872785,0.39269908,0,0.39269908,0,-0.39269908,-0.39269908,-0.39269908,-0.39269908,0.29419012,0.27121882,0.30113997,0.28106039,0,0.32609718,0.30878201,0,0,0,0.28975987,0.31248091,0.29518796,0.30301616,0,0,1.8408757
-0.018953177,0.011443162,0.059761144,-0.27577722,0.11812356,-0.18394084,-0.16659004,-0.091428224,0.39269908,-0.39269908,-0.39269908,0.39269908,-0.39269908,0,0.39269908,0.39269908,0.3125153,0.31384867,0,0,0.29583017,0.30550097,0.31724345,0,0,0.2832888,0,0,0.29305949,0,0.28444599,0,1.2561681
-0.013893022,0.2344704,-0.069792584,0.066742306,0.18936275,0.18640508,0.11394312,-0.072910174,-0.39269908,0,0,-0.39269908,0.39269908,0,-0.39269908,0,0.28376597,0,0.28415804,0,0.32573463,0.31277327,0.31540808,0.30498551,0,0,0,0,0.31368326,0.27804505,0,0,1.6424501
-0.29225855,0.2048793,0.22076811,0.22863744,-0.086741454,-0.16462169,-0.31027918,0.18157712,0,0.39269908,0.39269908,-0.39269908,0.39269908,0.39269908,-0.39269908,0.39269908,0,0.29594228,0,0.29897252,0,0.28944104,0.27691305,0.28460153,0,0.29966114,0.27872434,0.32123603,0.29694106,0,0,0,1.358697
