JohndKim/Relevance-Aware-Algorithmic-Recourse/datasets/kinematics8fh.test.csv
"theta1","theta2","theta3","theta4","theta5","theta6","theta7","theta8","y"
-0.12642429,0.24021231,-0.18634428,-0.14665035,-0.14306471,0.072891363,-0.11435914,0.01947787,0.90031755
-0.29889614,-0.03662221,0.089387826,0.13880496,-0.15131227,0.15786191,-0.16893047,-0.040374363,0.75484391
-0.14077895,0.24268055,0.031580101,-0.051790754,-0.30018892,-0.20409438,0.15708819,0.012100565,0.87922823
-0.13407233,-0.21132422,0.045087421,-0.25256656,-0.228829,0.048598873,-0.23671761,-0.03715729,0.92990319
-0.27541793,0.30196501,0.15243462,-0.21703679,-0.2340882,0.24818016,0.030805763,-0.080286156,0.83933906
-0.12657719,0.19709443,0.31394273,0.28007451,0.21029067,-0.24281772,0.017990299,0.2587758,0.92606495
-0.27941255,-0.18892527,-0.13002057,0.058512168,0.16285207,-0.18611315,-0.18742936,-0.27280347,1.0531597
0.1176364,-0.23957564,-0.15867309,-0.30190519,-0.11936463,-0.01914542,0.19599182,-0.044973571,0.91169458
-0.11707935,-0.14157492,0.28737758,-0.29520684,0.19647196,-0.11477952,0.11318742,0.24411147,0.97705769
-0.17718749,0.092309578,0.12447546,0.14869344,0.30751487,-0.23666621,0.16961526,0.31296775,0.96237479
0.20351204,-0.024457856,-0.096419287,-0.26130304,-0.2701468,0.23461807,-0.26663068,-0.18676458,0.84626508
-0.13923333,-0.14287239,-0.085461994,0.22628636,-0.12753999,-0.10113483,-0.094100633,0.12714822,0.93564793
0.18645796,0.1194991,-0.14857029,-0.28135448,-0.16387599,-0.044833332,0.18466582,-0.11506336,0.85201889
-0.1399194,-0.30211106,0.20744517,-0.2506267,-0.14821669,-0.21798343,-0.1746929,-0.24025768,0.97279223
-0.28714314,-0.026824409,-0.20177214,0.23232423,-0.15209237,-0.23310804,-0.077416659,-0.050975221,0.96210693
-0.162681,0.14039158,0.17221138,-0.10418073,-0.18907929,0.086856479,-0.21308571,-0.15949358,0.85943579
0.12134244,-0.24519045,-0.30278537,0.30064367,-0.23614664,0.22869558,0.23082554,0.12766484,0.81379647
-0.11963291,0.22529438,-0.16201473,-0.019509998,0.17155727,0.26213133,0.24630884,-0.044860665,0.92519926
-0.051040871,0.27522333,0.1508813,0.077737956,0.0092996691,-0.12835388,-0.2781278,0.0090332972,0.87785244
-0.03908527,-0.079170515,0.27171859,0.041637742,0.23402512,0.29284904,0.27897506,0.21506141,0.8301657
0.22818719,-0.18816564,-0.16285672,-0.12283633,-0.27482118,-0.13124277,-0.28874917,0.17836805,0.87353691
-0.019418214,0.00083441761,0.15524443,0.20653845,-0.2520215,-0.075106289,-0.16487864,0.27102491,0.86939942
-0.26461268,0.20104902,-0.21368926,-0.16807256,-0.2301271,-0.019475586,-0.2306008,-0.19375678,0.90319817
-0.021390131,-0.29586092,0.062772927,0.17544024,-0.14818621,-0.085915182,-0.15762135,0.26820765,0.93631884
0.22724863,0.00016867314,-0.15821092,-0.23981354,-0.13341237,0.0064996352,0.29083849,0.2911906,0.86388341
0.18490739,0.14899209,0.1250195,0.1713129,-0.093003774,-0.02666905,-0.22615502,-0.095456834,0.90500654
0.10389676,-0.30816078,0.27219056,-0.16371658,-0.072096715,-0.01008362,-0.1506059,0.23151245,0.83696418
0.095588269,-0.02866178,-0.080489312,-0.17775407,0.29695513,0.1706064,0.26195444,-0.14696055,1.0074339
-0.062782634,0.24631708,0.31362759,0.1925349,0.10020611,0.092783903,-0.25217845,-0.16585618,0.85990395
-0.24091677,-0.13960807,0.17472667,0.093630726,0.27050553,-0.067532908,0.27367009,0.3045634,0.95558908
-0.2035095,-0.25148556,-0.12963481,-0.28629996,-0.12637115,-0.28231469,0.2815848,-0.11392862,1.0070391
-0.1041611,-0.064534742,0.070322339,0.013831925,-0.13505407,0.13128284,-0.2019282,0.20511082,0.92819979
0.12269775,-0.059924507,0.12443669,-0.28751499,-0.17378338,0.14889928,0.29806063,-0.13324983,0.74926989
0.074547973,-0.10107763,-0.17384513,-0.17344286,0.21172347,-0.18793088,-0.30691302,0.010754616,1.076206
0.020020281,-0.086498381,0.27166948,-0.31320429,-0.075806979,0.26631652,-0.030122237,0.0024552159,0.82127551
0.066488949,0.29518965,-0.30305121,0.033198225,0.30301487,0.12764317,-0.12343325,-0.28493613,0.96721281
0.24281975,0.29472871,-0.19225999,-0.1984799,-0.30559998,0.27912973,0.13780373,0.16671351,0.85757981
0.14263337,-0.15785437,0.12862742,-0.10855112,0.2851038,0.30728028,0.085148289,0.28170657,0.93567673
-0.29463642,0.045634253,0.14353459,-0.23609856,-0.07485914,-0.26151637,0.20332192,-0.020783328,0.96876316
-0.010282498,-0.13180921,0.098768662,-0.2373774,-0.17569094,-0.20625793,-0.044963002,0.14853473,0.92001236
-0.25806501,0.035408345,0.10982545,0.21822282,-0.22010391,-0.16975811,0.075127492,0.24001645,0.78201796
-0.015749093,0.090400997,-0.16357049,0.17566897,0.25301296,0.069924924,-0.25249481,0.15152735,1.0329009
0.24377874,0.039139037,-0.23383005,0.060814889,0.15127089,-0.1290788,-0.069210205,-0.17152213,0.91461496
0.17563051,-0.0039419938,0.17894668,0.22922293,0.089332383,0.065777404,-0.30716495,0.30996063,0.95061187
-0.18373936,-0.071022025,0.070406983,-0.09654307,-0.031932308,-0.25430422,-0.28041124,0.0021376017,0.96673043
-0.24167152,0.25823765,0.21793688,0.25257796,0.14130876,0.09373506,-0.0041195432,-0.18812407,0.78779294
0.021004438,0.26896942,-0.063886441,0.28976687,-0.026865831,0.064014556,0.057499922,0.061149401,0.92287841
-0.29956043,-0.28567407,-0.28964735,-0.22584504,-0.12463329,0.24242973,-0.21033233,0.12346533,1.0025696
-0.0080493256,-0.21464653,-0.25835537,-0.024644148,-0.20219789,0.016000534,-0.052228649,-0.11144207,0.90020355
-0.14324936,0.24039242,-0.21307949,-0.16423685,0.2473307,-0.27177815,-0.087276162,-0.22069299,1.0721787
0.065669448,0.30134841,-0.1416503,-0.15551949,0.2555511,0.038347832,0.073356253,-0.13361519,0.98064668
-0.24925081,-0.11289836,-0.017634709,-0.010993186,-0.13821977,-0.14280099,0.13759246,-0.060122873,0.87876694
0.21318042,0.13185817,0.10815462,-0.21060611,-0.24030589,0.051174228,-0.28269062,0.058432897,0.8505486
0.22420841,-0.28435431,-0.00063986179,-0.040729632,0.13612679,0.19234318,-0.15895411,0.068171666,0.92345551
-0.13626363,-0.29771238,-0.27923038,0.027151466,-0.15498139,-0.12991918,0.2211627,0.029036228,0.92507953
0.076850959,0.28676075,-0.19841033,-0.22006337,-0.10265226,0.24123252,-0.090619383,-0.18685208,0.87065941
-0.096084346,-0.069675196,0.14036411,-0.0096530955,-0.26899349,0.20330111,0.17285069,0.15723487,0.85168086
0.31379741,0.29128601,0.2026491,0.28068509,-0.011348542,0.00041522808,0.1937829,-0.05593573,0.77474616
0.15499525,-0.02510181,0.093677174,-0.15990537,0.22932697,0.29489034,-0.077519697,0.10773811,0.96121865
0.15016089,0.21323972,-0.25559798,-0.037412694,-0.29801065,0.23938684,-0.27091969,-0.15829934,0.83404535
-0.1912963,0.22935733,-0.055153229,-0.16879768,0.13394685,-0.28997114,-0.19446367,-0.051163113,0.98348165
-0.16217706,0.061601929,-0.1234122,0.15529597,0.28266327,0.29232695,0.14608611,0.26059821,0.95152019
-0.10231556,-0.19924971,-0.077153699,-0.08071181,-0.13803351,-0.26507635,-0.18461806,-0.25116082,0.90725839
-0.24747736,0.20452245,0.07314849,-0.20093813,0.095458357,-0.053502951,-0.022682213,0.035204722,1.0140983
0.11676272,-0.12183812,-0.21269322,0.044898672,0.27140262,-0.10027195,0.16939604,-0.1902929,0.93161164
-0.17690135,0.17442037,0.16339632,-0.038805039,-0.3092385,-0.27023832,0.22695447,0.079408762,0.85023478
-0.25152805,0.060675234,0.22166509,0.31061628,-0.20975264,-0.23344943,-0.0068413301,0.046146374,0.8112962
0.13233537,0.062357759,0.26416775,-0.310656,-0.29915865,-0.025629902,-0.1261104,-0.18976894,0.76452545
-0.087003691,0.011541473,0.16862039,0.13157001,-0.15453218,0.26475692,-0.21910863,-0.10173708,0.794823
0.22042168,0.23669068,-0.30454411,0.2583279,0.2236497,0.23934014,-0.14273887,0.17029496,0.91136467
0.28210567,-0.30418157,0.0049969681,-0.11302595,-0.12703089,0.21919362,0.1007085,0.27589597,0.8457651
0.035643092,-0.065348826,-0.21580029,0.12206339,0.11890736,-0.14299421,0.20001286,-0.029337036,0.93108949
-0.071826135,0.30735612,0.30980806,-0.094394881,0.28268797,-0.11689931,0.23579,-0.30578486,0.82305735
-0.18194749,-0.30067212,0.068323867,0.0095180571,-0.20803533,0.025419039,0.11753333,-0.30891627,0.88578414
0.26735767,0.12091242,-0.28408275,-0.044436845,0.028537634,0.18623317,-0.15521138,0.24167286,0.9658799
0.019663522,0.29613906,-0.23385629,0.1347423,-0.17610978,-0.27470358,-0.2780753,-0.0092355582,0.91845085
0.071432918,0.29942043,-0.19894115,-0.14217271,0.22800663,0.13843736,-0.059879083,-0.03936993,0.94946785
0.044299972,-0.013487255,-0.22977544,-0.11323368,0.016862621,0.1206659,-0.24348311,0.15979786,1.0070591
-0.0078357446,0.14268685,-0.19016493,0.058304326,0.038407267,-0.18046162,0.017936402,0.28915758,0.98377648
-0.039895206,0.1333327,-0.25384928,-0.27988658,0.087137105,-0.042238867,0.18990624,0.042727879,0.93314287
-0.27381999,0.15048904,0.19369181,0.051077912,-0.10334493,0.096531757,-0.23797063,0.28233024,0.8934519
0.15469871,0.27850741,0.088889737,0.27187997,-0.064221568,0.16910785,0.19473338,-0.011010664,0.75012678
-0.31315424,0.25454843,-0.18992493,0.27202,0.25329712,-0.016816859,-0.1414511,0.13580178,1.0436839
0.24095041,-0.025351659,-0.21023244,0.19442996,0.30670297,0.10238841,0.18874664,-0.26073579,0.93393775
-0.21610006,-0.096161332,-0.19504397,0.12734318,0.014269931,0.14275191,-0.23070552,0.0090324502,1.0569305
-0.31098188,-0.25930516,-0.049090898,-0.21169489,0.24194343,-0.060545217,-0.30807711,-0.22312878,1.0423521
-0.26713696,0.094442623,-0.11778308,0.044012491,0.28971378,0.0099305508,-0.088386202,0.093064605,1.0499414
-0.20278537,0.061754259,-0.047486326,0.2960082,-0.13318581,-0.28482846,0.10810923,0.16441697,0.93355702
-0.11785316,0.049684264,-0.16320053,-0.30339433,-0.045250971,0.011815092,0.12018685,-0.23290055,0.93120989
-0.13971914,0.19810838,0.15268193,0.11408922,0.016475257,-0.044805223,-0.26987085,0.23249401,0.95335468
-0.23879679,-0.2683865,0.24564313,-0.23000857,-0.024976718,0.077473683,0.057758532,0.26702785,0.93878071
0.24114897,-0.073142789,-0.15698125,0.28986787,-0.066915627,0.2242008,-0.0044906282,-0.14217735,0.74886539
-0.036101876,-0.0058211891,-0.28056164,0.2828339,0.16560315,0.014304242,0.24827603,0.28219235,0.92947211
0.19147333,0.18096631,0.13113316,-0.26862167,-0.1589174,-0.23460738,0.11195517,0.25849504,0.87264938
-0.0087615537,0.2701771,-0.18056151,0.22809529,-0.28450259,-0.12868025,0.082266544,0.27553033,0.80657874
0.22752738,-0.075415234,-0.0058774608,-0.076323241,-0.12325003,0.30713532,0.021772163,0.065832751,0.82349825
0.099907671,-0.29442212,0.27062989,-0.097822118,-0.24061525,0.25748062,-0.2634525,-0.30687287,0.8141716
0.24067484,0.033049263,-0.22637385,0.20118341,-0.14184434,0.08442034,-0.15396963,0.16018135,0.93746889
0.19726461,0.040145193,0.055488169,-0.052840987,0.31220318,0.064970524,0.049920985,0.096042305,0.89466308
0.0011756772,0.29822584,-0.19958176,0.27457047,0.059200665,-0.0071389745,0.06306249,0.31070862,0.93286163
0.28173203,0.18480509,0.22204463,-0.29373858,-0.27098009,0.024094187,-0.082087842,0.12439242,0.86612616
-0.14034396,0.23864673,0.11301969,-0.29321578,-0.23675387,-0.11715505,0.17939159,-0.15478857,0.83982296
-0.17143536,-0.1601268,-0.15165134,0.25918772,-0.053865357,-0.24719403,0.14759811,0.13591597,1.0096683
-0.14051412,0.09662071,0.098705944,0.12931766,-0.26421768,0.067261909,0.20109793,-0.10139841,0.80127683
0.037470977,0.29246428,0.21075944,-0.030724489,0.159088,-0.1875204,-0.087994902,0.15313491,0.94827941
0.014295787,-0.21806336,-0.14390958,-0.278383,-0.010266045,-0.056153185,-0.030198114,-0.16785648,0.92772115
-0.21202229,0.20822704,-0.062941318,0.23971071,-0.062523681,-0.00070508541,-0.26213476,0.033448126,0.91280205
-0.070423251,0.23104173,0.1689872,-0.11781533,-0.19956971,0.19580512,-0.13712197,0.090883119,0.86287579
0.29444783,-0.0033433759,0.29140919,-0.072987089,0.29201481,-0.054764198,0.30107107,-0.27639382,0.85682512
-0.0015409605,-0.20843866,0.25788758,0.096470231,-0.22312915,0.23580249,-0.27115149,-0.09132169,0.77902998
0.16436493,0.28642717,0.048625989,0.0016184709,-0.2224585,-0.14671217,-0.30875522,0.24125182,0.90242533
0.23718044,0.056212797,-0.029024056,0.043689162,0.26739735,-0.027055759,0.31024026,-0.30737089,0.88174043
0.31049014,0.17535869,0.13533244,-0.21263109,0.12555664,0.16008129,-0.13809292,0.13516499,0.8765127
-0.2004879,0.19113367,0.25030714,0.10574873,-0.20762488,0.11602971,-0.22323654,-0.079818156,0.88177934
0.093572837,-0.00058579263,-0.12396421,0.12309529,0.026520497,-0.26762992,-0.11443125,0.2603972,0.93286403
-0.0041242427,0.12080008,-0.29632684,0.13358126,0.14913458,-0.28823463,0.12094907,-0.050618662,0.9363427
0.14881049,-0.23917073,-0.29028933,0.16805753,-0.058413397,0.30152901,-0.22464036,0.070216845,0.93130636
-0.27818646,0.23942632,0.00055449203,0.25104589,0.30789273,-0.21913916,0.035594756,0.15230634,0.99874156
-0.16160673,0.28630342,-0.10543034,0.16928536,-0.078237836,0.13140245,0.081820811,0.042924723,0.79268895
-0.072268423,0.10851355,-0.16500228,0.070508371,-0.31348405,0.083725693,-0.037418945,0.15623119,0.86650932
0.080124681,-0.2043204,0.28730085,-0.30100105,-0.08691788,-0.018026036,0.031240061,-0.10351977,0.87316037
0.24071635,-0.11082259,0.059411882,-0.10554602,-0.037208951,0.13238977,0.14026063,0.28311001,0.8631753
0.28715939,0.010188287,0.18482026,-0.083841642,0.15957012,-0.30224727,0.079712888,0.28987379,0.86303511
-0.075960204,-0.30197133,-0.28516518,-0.044773544,0.18789635,0.16088778,-0.26777516,0.086045119,1.0743157
0.080102248,-0.30336058,0.042568632,0.21664158,0.044972155,-0.24208007,0.1484932,-0.22893663,0.97517008
0.25446776,-0.17194881,-0.046625701,0.25679727,0.059486662,-0.040550434,-0.26510785,0.18052898,0.92559481
0.0052836103,-0.22059153,-0.24869722,-0.24540992,-0.29730205,-0.125322,0.12319264,0.17521403,0.94470042
0.13478457,0.038742073,-0.17170605,0.26200518,-0.12904137,-0.2568785,-0.24187058,-0.23108137,0.93440718
0.23603378,0.20002077,0.0034742749,0.2647998,0.15731417,-0.18034804,0.10203834,-0.14777203,0.84130426
-0.2758377,-0.10602655,-0.037960322,-0.073486393,-0.11310409,-0.26841417,-0.028513501,-0.28280644,0.94428344
-0.1978584,-0.062329049,-0.15942593,0.15715873,0.201458,0.25945945,0.23035489,-0.049735634,0.79645296
-0.15692854,-0.016978856,-0.048182233,-0.18659246,0.13496118,-0.21357809,0.010812547,0.2587204,0.99554795
-0.31110466,0.085609834,-0.13001422,-0.24269685,0.25573463,-0.28242481,0.064149369,-0.051381897,1.0482403
0.27863574,-0.15038236,-0.12660344,-0.025660662,-0.30912467,-0.31401032,-0.27838903,-0.16067913,0.83977155
-0.060167068,-0.075064535,0.093226109,0.12143177,-0.13463906,0.25866911,-0.073917827,0.027213069,0.79914381
-0.24927577,0.26094086,0.069298593,0.14329917,-0.24722062,-0.28297138,-0.11390922,0.052483735,0.85037025
-0.12895447,0.11810963,0.25268938,0.25839143,-0.13790928,-0.21523035,-0.15517499,-0.13933463,0.84920775
0.18845473,-0.1430741,0.044305104,0.18997337,-0.021843811,0.30276576,-0.29432373,-0.24626691,0.94792102
0.27272951,0.1465037,0.074530496,0.089870628,0.076952897,0.25462083,0.21474529,-0.13491455,0.68444512
0.16935867,-0.19167272,-0.18626674,0.31249999,0.22685236,-0.050650531,0.11488878,-0.061592005,0.93057672
0.31341036,-0.22478217,-0.12309073,0.30821612,0.22688871,-0.22832943,-0.1716102,0.0378893,0.96327299
0.29366516,0.16531065,0.26707748,-0.29801119,0.053307262,0.23679089,-0.27065654,-0.30951727,0.85804109
0.25395042,0.28928753,-0.16441877,-0.064223486,0.075493167,0.15471509,-0.0021979632,0.060184384,1.0003276
-0.2588232,0.16760151,-0.23288271,-0.09596463,-0.26121189,0.028434963,-0.044439655,-0.29315302,0.85448125
-0.010096969,-0.1036308,0.016132991,-0.039044885,0.1379776,-0.20119492,-0.038973744,-0.12257503,0.94451324
-0.053757301,-0.023843523,-0.28641898,-0.26282967,-0.13411525,0.12731607,0.30450587,0.13797781,0.91434749
0.2875893,-0.037880739,-0.14754463,0.013150474,-0.13048823,0.29637302,-0.20295019,0.18180601,0.9362627
0.19952328,-0.19677676,-0.054126487,0.23358042,-0.12473036,-0.30098079,-0.08448293,0.12573095,0.89045806
-0.088395648,-0.17657756,0.24278551,0.28000146,0.094826578,-0.0067480659,0.25078998,0.28750962,0.86578776
0.069248065,0.13348461,-0.12933967,0.050522265,0.15038721,-0.14970746,-0.12174544,0.076549408,0.91268147
0.20630679,-0.24962007,0.17031272,0.26938069,-0.16763271,0.28238621,0.25776345,-0.23044698,0.53477465
-0.1917178,0.086886286,-0.2180798,-0.28691563,0.051232852,-0.31103358,-0.18410919,-0.15271048,1.0114614
0.1066351,0.18243315,-0.057362914,-0.30659402,0.018680549,-0.2945983,-0.18762723,-0.055553518,0.94850842
0.036695896,-0.014402846,0.045464129,-0.30028801,0.16145962,0.17947672,0.14236062,0.20412118,0.91979047
0.29143964,-0.26744079,-0.10278556,-0.0064198116,-0.29327764,0.1468007,0.065696997,-0.20456779,0.7451732
0.21013911,-0.061044932,0.30962275,-0.082072183,0.10944632,-0.18340357,0.22165286,0.030246433,0.79506599
-0.22058371,0.19077126,-0.038997663,0.065011876,0.089766422,-0.043355765,0.23408769,0.30680726,1.0143292
-0.27103495,-0.016948376,-0.097490986,0.0086746942,0.11146074,0.16915171,-0.21890604,-0.10061769,0.95943698
0.04133496,-0.1338964,-0.2535117,0.071232711,0.15684091,0.20698953,0.20898687,0.31131321,0.95945691
0.081517149,-0.075013255,0.18191937,0.26031178,-0.011971193,-0.3081042,-0.099989382,0.21624853,0.90612428
-0.18965783,0.029681715,0.30664518,-0.1478131,0.23009111,-0.22334964,0.14385758,-0.042005026,0.8959772
-0.11916702,-0.024333912,-0.3112928,0.076759938,-0.15930624,-0.26243193,0.044621909,0.2515531,0.96214892
-0.073168451,0.21449568,-0.16899058,-0.28765135,0.29418963,-0.22285203,-0.049546608,-0.041092714,0.99635792
-0.12278524,-0.26286109,-0.22485938,-0.27340163,0.206561,-0.067298516,-0.20778658,-0.12318247,1.105425
-0.18180611,0.20806224,0.088228401,0.046774498,0.20886024,0.27206285,-0.094509558,-0.18785359,0.86154417
-0.10225313,0.30938876,0.023000281,0.11251332,-0.10152694,0.28635599,-0.032902319,0.045336036,0.7906219
0.10350333,0.28923262,-0.050088224,-0.27635788,-0.044275795,0.060780417,0.031249547,0.26075483,0.88365915
-0.23865738,0.18552226,-0.26819455,0.27973994,-0.18934633,-0.0088338675,0.28538275,-0.172187,0.74588772
0.28811003,0.08644808,-0.12567742,0.02077173,-0.17069537,-0.13357345,-0.2201221,-0.013568635,0.94936955
0.28350099,0.19221466,-0.079324181,0.15100052,0.10827413,-0.17963643,-0.014505712,0.21739616,0.96239381
-0.25181279,0.21390002,-0.29118171,-0.1754776,-0.18482964,-0.19347164,-0.10471146,0.12603173,1.0058153
0.089153418,0.30802014,-0.30306016,-0.095762803,0.27378835,-0.18198778,-0.14845688,-0.17807475,1.0394941
0.14721117,-0.17660688,-0.072761262,0.11746548,-0.21175334,-0.18027394,-0.20063941,-0.21129215,0.92463817
-0.31406343,-0.28954812,0.26902576,-0.11125646,0.21543876,0.097831296,0.061603855,-0.29536204,0.91041976
-0.021625549,-0.093209489,0.067189471,0.098224291,-0.10633579,-0.20975016,-0.088455212,-0.073235472,0.93166154
0.16839677,-0.24626702,-0.10113471,-0.14056084,-0.20274546,0.0022426767,-0.29114628,-0.14984993,0.89945289
-0.089392562,0.12472075,0.18265942,0.147051,-0.2282222,-0.13477278,-0.30315349,0.26951174,0.89242616
-0.022657848,0.27581507,-0.2018898,0.23656885,-0.11881577,-0.18737081,0.0057642216,-0.16271829,0.85230367
-0.25359315,-0.20216484,-0.17966567,0.22324491,0.060210175,-0.21923908,0.11744619,-0.27618547,1.0130007
-0.2554368,0.16214338,0.057959364,-0.24107424,-0.26873555,-0.29140832,-0.25862693,0.16813334,0.94012701
-0.17895547,0.17060482,0.21289318,0.17632079,0.15007589,0.26605934,-0.10296866,0.13234757,0.88147209
0.056158563,-0.29064421,-0.17838783,0.27332543,0.25484788,-0.083603666,-0.20499775,0.11805409,1.0748
0.15195282,0.25832055,0.010328402,0.11124077,-0.31324112,0.27471079,-0.021833187,0.089689868,0.74043219
-0.24380448,-0.087537978,0.17353164,-0.25229812,0.037403945,0.17971129,-0.012357344,0.081456105,0.84611743
0.060994455,0.12111163,0.0059600024,-0.27174963,0.15450598,0.23416044,0.042246328,0.27491587,0.89276041
-0.21009095,0.17736608,0.056112358,0.12847678,-0.24666892,-0.033595167,0.037675605,-0.18911238,0.74673331
-0.2143481,-0.20022834,0.022773456,0.038096873,-0.25168194,0.065274067,0.082176163,-0.14494427,0.84544213
-0.18074655,-0.12062399,0.13649358,0.29398842,-0.11822181,0.096758767,0.26165253,-0.15210605,0.75850412
-0.26106582,0.21268618,-0.11136299,-0.19990639,0.15439229,0.26259021,0.15699167,0.09915411,0.94077183
-0.032156943,0.04772956,-0.14082164,0.075133914,0.29516884,0.27145283,-0.0041463374,-0.1824137,0.81541767
0.15489555,-0.23438529,-0.29500522,0.14300452,-0.2607062,0.06243779,0.18820274,-0.15099549,0.75679629
-0.10233993,0.022640459,0.053885544,0.042248083,0.15581883,0.25998438,0.08645542,0.2702994,0.91117025
0.20316945,0.25026906,-0.27758489,0.17762072,-0.20657883,-0.29676265,0.215388,0.06563165,0.87422614
-0.24230059,0.30783235,-0.10409565,0.13002149,0.11777276,-0.097346133,0.28305052,-0.25620326,0.91373236
-0.28358473,-0.0040227317,0.30306191,-0.15547724,0.15943998,0.013280473,-0.032966204,-0.14811441,0.97269656
-0.073634906,0.049990437,-0.1852274,0.15892026,-0.14448459,-0.21099785,0.2961741,0.0023375759,0.83067771
-0.22857665,-0.24867836,-0.14923156,-0.24984507,-0.18113092,-0.2011913,0.189385,-0.15493206,0.90725474
-0.11623247,-0.022991071,-0.29536027,-0.034004019,-0.18652933,0.18346143,-0.029634984,0.040676459,0.84102186
0.14470178,0.12041597,-0.30655358,0.04678055,-0.15629675,0.24850775,0.25783934,-0.1767193,0.79143248
-0.21815635,0.017191371,-0.033993557,0.21421608,0.12034482,0.23640109,-0.007151424,-0.05959397,0.95127464
0.31315944,-0.091155413,-0.1881669,0.064524969,0.077982582,-0.29328971,-0.18514343,-0.056120576,0.95391122
-0.15366562,-0.2084563,-0.19397992,-0.0066373019,-0.019195228,-0.1612125,-0.27227889,-0.11241407,1.0082661
-0.10022549,0.16781064,-0.27358364,0.20447451,0.063399957,-0.21799144,0.16803498,0.26859813,0.93885589
0.032144847,-0.12838963,-0.085301414,-0.29925407,-0.065149767,-0.05683878,-0.1278291,-0.13984199,0.9421257
-0.095485209,-0.19868009,0.162023,0.12671419,0.187058,-0.24520887,-0.202656,0.21531438,0.96072057
-0.094388245,0.29671098,-0.011884578,0.31389893,-0.22212071,-0.084170759,0.075297195,0.30231876,0.79089104
0.1210508,-0.14265424,0.061198483,-0.29142499,0.28593094,-0.31293523,0.086432393,-0.14057077,1.0265071
0.089586707,0.10317076,-0.12548585,0.015429188,0.05574565,-0.031352093,-0.17513386,0.18477648,0.86925054
-0.071168129,0.18795234,0.18682687,0.043018649,-0.27487226,0.23638864,0.18371212,0.028126655,0.77000285
-0.087351557,0.016519505,-0.089926302,0.14115446,0.1780356,-0.014616338,0.091169107,-0.24563732,0.91835614
0.22545258,-0.28180903,-0.15991483,0.27576185,-0.034445686,-0.30798847,0.24909284,-0.30716928,0.81517973
-0.19338981,0.075982441,-0.30404018,0.29740079,0.048129123,0.27517988,-0.14349952,0.038352847,0.96360404
-0.25072267,-0.074576599,0.30090618,0.083218562,-0.3029218,-0.13315426,0.20383995,0.082589651,0.84455327
-0.11800082,0.28015082,-0.11620142,0.028313707,0.29113621,0.15001935,-0.14417383,0.16522636,0.99004899
-0.26512804,-0.2920776,0.00030486789,0.18585189,-0.29324603,-0.048476007,-0.20133455,0.19340291,0.90533795
-0.073220662,0.21636054,-0.19387498,-0.070457427,0.17624687,-0.1299497,-0.0055379848,-0.25735076,0.95896965
-0.11955087,-0.31269362,0.27930226,0.30546616,0.2782109,-0.18914261,-0.13812344,-0.1912822,0.87543819
-0.063745682,0.14203326,-0.049761297,-0.15526867,0.28241152,-0.17254737,0.032733695,0.1155403,1.0769333
0.14744147,0.27493207,0.21122638,-0.0041045849,0.15860006,0.13465007,0.21157186,-0.16558351,0.79124563
-0.026686499,-0.0053673064,0.27152638,-0.029124626,-0.081428794,0.24884035,0.023566206,0.18151492,0.83741884
-0.028591774,0.13656204,-0.12222009,0.20915686,-0.138964,0.15322202,-0.3020215,-0.25298335,0.87792438
0.31389872,-0.29757536,0.1347615,0.21207052,-0.065901992,-0.18110646,-0.28560763,-0.17520433,0.86709541
-0.15246309,0.30049808,-0.26032218,-0.23062732,-0.2860809,-0.28404228,0.13008663,-0.048301482,0.82776326
-0.16423497,0.046819925,-0.2529074,-0.056361621,-0.2682584,0.065616428,-0.18253935,-0.015467793,0.94354011
-0.11466457,0.28747998,-0.00017454471,0.072807577,-0.11926763,0.23525372,-0.03024524,-0.28777442,0.75685126
0.079379253,0.19610769,0.0076429077,-0.0084306139,-0.20242216,-0.037676832,-0.13275101,0.19665158,0.91370453
0.20557024,0.023154148,0.21021804,-0.12574203,0.076243052,0.018899807,0.26961977,-0.064130471,0.81598979
0.072153944,0.10915908,0.025598546,-0.02153884,-0.27557106,-0.062777506,0.26840071,0.071436294,0.83862698
-0.041677825,-0.28747875,-0.1417411,0.084070664,0.042569539,-0.13564551,0.30055341,-0.042366427,0.92170276
0.01161697,0.11811573,-0.29895869,-0.13604647,-0.037263686,-0.20384002,0.17380849,-0.010787232,1.0174238
-0.16065308,0.31276698,0.064649298,-0.081892594,0.14280152,0.28165515,0.14639764,0.28304006,0.88122376
-0.20698948,-0.017164956,-0.12646166,-0.17443403,-0.097460184,-0.20985412,-0.1708198,0.0041333871,0.97492084
0.055189039,-0.31154481,-0.20972793,0.11650733,0.2122334,-0.16170589,0.031210002,0.11225726,0.9416986
-0.23093306,0.066953751,0.071109736,0.24364573,0.071765213,0.16701734,0.20917131,-0.097460508,0.80182925
-0.16844832,-0.026793784,0.079493369,0.20200319,-0.2136411,-0.26680342,0.099968886,0.0076584565,0.95418183
0.092388312,0.1812597,0.23985742,0.26262543,0.17451472,0.14427704,0.053311539,-0.089621028,0.6847356
-0.28761127,0.083357252,-0.27892232,0.26711433,0.15988805,-0.2881675,-0.22346762,0.15278277,1.0337503
0.059471566,-0.20611432,0.05780846,-0.15029308,0.12248356,0.2321452,-0.11723053,-0.06934329,0.93445002
-0.11616973,-0.24326266,0.20634433,-0.13527504,0.20961975,-0.19365111,0.11343416,0.078194932,0.93528357
-0.023295784,-0.11046192,-0.062036813,-0.083553682,-0.28151626,0.0696405,0.19528895,0.074564347,0.89211989
0.12700705,-0.27116735,-0.036524736,-0.090780874,0.22847492,-0.0738311,0.074183978,-0.010618179,0.97684138
0.15778965,0.021259588,0.045934332,-0.15337725,0.063613641,-0.23619725,-0.15176085,-0.011728769,1.0045194
-0.23453284,-0.011252349,0.050185256,0.13049245,-0.13705432,0.29785705,0.111562,0.082858465,0.89578091
0.30355391,-0.26675473,0.20543363,-0.23992844,0.21575301,0.13995046,0.2355533,0.2589483,0.9178801
0.20058832,0.15009806,-0.26620955,0.080806615,-0.29753759,-0.025190874,-0.2302142,0.10916617,0.82039837
-0.22881621,0.082387238,0.037555441,0.0043310917,0.068198947,-0.24218326,0.093216286,-0.038669234,0.98079252
-0.2039293,-0.10895352,0.14589071,0.16034187,-0.17534989,0.10999586,0.017322891,-0.30984318,0.79461185
0.23269583,-0.22317596,-0.052056998,-0.074666137,-0.19989839,0.14330043,0.086366196,-0.28314121,0.8377838
-0.18745835,-0.14608928,-0.17606521,-0.20792121,0.29560055,-0.19878833,0.0096413231,-0.063795652,1.0878663
0.080361281,-0.079994364,0.017316861,0.20173728,0.0072011187,0.23136898,-0.20950116,-0.14987864,0.90323717
-0.15688335,0.093511933,0.22378212,-0.30588756,0.18057093,0.077778928,-0.10559974,0.072463031,0.96459034
-0.31388333,0.23040471,-0.0086083599,-0.15005054,0.077093316,-0.30042021,0.18494141,0.20484871,0.99346792
-0.074690038,0.084877991,-0.16744266,0.1710773,0.11454498,0.0052984981,0.018498214,-0.29328274,0.89496917
0.27357954,0.15199361,0.16387745,-0.10581519,-0.15298812,0.2408522,0.30527082,-0.060327558,0.69303279
0.1725746,0.30812269,0.056981878,-0.17308806,0.03854644,-0.31118498,0.29456286,-0.30050096,0.89119201
0.030998927,-0.0041709502,-0.1630071,-0.10898308,0.15515386,0.1718312,0.31004225,-0.2393182,0.93258822
0.18813697,0.23565634,0.00048846001,0.17220666,-0.27203756,-0.052120713,0.10913464,0.0089898474,0.81193983
0.058564164,-0.21114993,-0.23798322,-0.087991477,-0.17457753,0.21708718,0.044192973,-0.011102079,0.87374103
-0.28723292,-0.05383854,0.091733577,0.18906481,0.12292409,-0.061396211,0.078787676,0.017966482,0.95160662
-0.12980706,0.15923066,-0.10693928,0.15614829,-0.24078632,0.022078678,-0.26011423,0.063687814,0.91210254
-0.31388821,-0.11776736,0.23644729,0.18648713,-0.27511991,-0.13929079,0.19816758,0.059134484,0.78261156
-0.049303096,0.082130861,-0.061272867,0.28014922,0.21688587,-0.25165813,0.28690137,0.28195784,0.93107476
-0.22617535,-0.18741014,0.2954753,0.15011295,0.054510682,0.29626871,0.0030463465,0.051617377,0.85749074
0.075656652,-0.093037851,0.25422444,-0.20160171,-0.30149024,0.23074476,-0.28851537,0.24528945,0.7958596
-0.21542565,-0.21642549,-0.15796113,0.2531442,0.15767431,0.040695706,-0.18665258,0.021105723,1.0206133
-0.2510193,-0.041862735,0.12575878,-0.051944549,0.12300726,0.063064845,0.056500028,-0.20435116,1.0093075
0.073305737,0.20248675,-0.21345196,0.28897328,-0.073116407,0.16573711,-0.2604176,0.027813833,0.92830828
-0.27365326,0.3067075,0.010856561,0.17437672,0.090243364,-0.19188969,-0.17048925,0.22143834,1.0142489
0.069171266,-0.14576199,-0.22931014,-0.27954147,0.20101735,-0.22707197,-0.19280993,-0.055218641,1.0245893
-0.26445483,0.088492326,0.05478724,0.091683075,0.29199872,-0.18817035,-0.29959558,-0.046582229,1.0388416
-0.19972617,0.16410588,-0.0017320279,-0.079252489,0.27346346,0.22341551,-0.19609959,-0.028962916,1.0377426
-0.0028188098,0.22209735,-0.17303833,0.17281088,-0.20802674,-0.18557734,-0.060797633,0.16268926,0.88518185
-0.095383098,0.19566521,-0.18630234,0.17262858,0.28435027,-0.24520665,0.28654268,0.076083584,0.99783275
-0.15397126,0.016487655,0.19954933,0.26276517,0.11072987,-0.030020431,0.18387204,-0.28855961,0.69868694
0.28504134,0.099159874,-0.24998795,0.012585375,0.036257263,-0.054793732,0.09272517,0.053235715,0.88977295
-0.23904297,0.27926708,0.018543022,-0.22095279,-0.093162015,0.19670732,0.20197467,0.0070772736,0.93029303
-0.27185896,0.31007472,-0.053702872,-0.31380873,0.16815462,-0.16143743,0.24565191,0.099507248,1.0241085
0.28678065,0.076826756,0.060647629,-0.17546816,0.21695553,0.13717033,-0.16211481,0.19554621,0.95705759
0.0025950778,-0.040461145,0.082447136,0.17698129,0.22362181,0.1228969,-0.010937664,-0.15705086,0.92815311
-0.28860342,-0.26229721,-0.21857125,-0.13981759,0.24333828,-0.22167871,0.26321881,0.19476979,1.0668769
-0.25974924,-0.058929364,0.25831246,0.064044901,-0.1086096,0.066215011,0.016667727,-0.13687032,0.80216295
0.23382318,0.15022551,-0.27233562,0.11184713,0.14917151,-0.16964253,-0.12013804,-0.27034194,0.92609322
0.27026992,0.075222865,0.15250739,0.17783879,-0.067806225,-0.27466342,-0.23357131,-0.17875292,0.92734119
0.19642588,-0.22273528,-0.048699157,0.31024767,-0.26626021,-0.096321229,-0.062291737,-0.051906999,0.85632062
-0.089355321,0.27358581,-0.15582476,-0.0086376142,-0.19214492,-0.26886204,-0.1801829,-0.12116197,0.93865042
-0.11359421,0.12169056,-0.11503493,-0.03080057,0.17760767,0.10255875,0.16133584,0.011139918,0.98737472
-0.10138968,0.077576924,-0.14080565,-0.093473265,0.15786148,-0.15274322,-0.24140214,0.036204945,1.0027981
-0.056446847,0.074417614,-0.27299253,-0.20884251,-0.21129353,0.15414232,-0.19307371,0.28418039,0.8667365
0.22773252,-0.0043227583,0.26322365,-0.08026259,-0.20713645,0.26617641,0.15876275,0.077418506,0.79185689
-0.19143327,0.10693388,0.13485458,-0.15747309,-0.080532944,0.19347746,0.047526886,-0.082478883,0.79842236
0.2001876,0.24665405,0.1559809,-0.17259163,-0.11908121,0.22722209,0.19152511,-0.15190632,0.76164004
-0.092664966,-0.13098541,0.22614146,0.1991203,-0.20343535,0.001691127,0.086734274,-0.23133622,0.77668522
-0.24347325,-0.19694973,-0.25355715,-0.12515763,-0.25923834,-0.25924105,-0.19600936,-0.25258258,1.0254949
0.18365948,-0.15203575,-0.27876603,0.08610184,-0.25812921,-0.30362056,-0.05528594,-0.23548451,0.86892601
-0.013829517,0.17241391,0.15205829,0.13441002,-0.27687472,-0.020164331,-0.015644825,0.17064205,0.78557836
-0.1037855,-0.23313128,0.11508957,-0.085242001,-0.20331989,-0.27925721,-0.046211612,0.15994312,0.94053407
-0.095772271,-0.2744203,-0.29748907,-0.26330235,-0.26148073,0.0064432198,0.29664563,0.063176036,0.93916964
0.10752409,0.30443564,0.26001684,-0.07512427,-0.24675453,0.2204075,0.015522207,-0.058678338,0.85268334
-0.26546268,0.093255553,-0.1393322,0.064968223,-0.24767255,-0.10140276,-0.20409345,0.0004585723,0.95769387
-0.065535448,0.047134199,0.00042822055,0.055577408,0.20136009,-0.13754961,-0.023397799,0.21175115,0.99724924
-0.30163916,-0.10554354,-0.20701326,-0.15971881,0.2875836,-0.24220838,0.071688258,0.12072202,1.1158784
-0.054183532,0.080373634,0.10340277,-0.13384636,-0.18744229,-0.28997109,-0.11794726,0.28812463,0.84331984
-0.22907952,-0.045178062,-0.03875559,-0.17540758,0.04650218,-0.3055595,0.0054331571,0.05965867,1.0142038
0.1963811,-0.2989008,0.20111636,-0.0045917975,-0.06611226,-0.29112006,0.20888372,-0.1131103,0.93286619
-0.12266835,0.15146963,-0.01594924,0.12280588,-0.30802415,-0.16167392,0.20828719,-0.18481093,0.83413377
-0.0087560213,0.080416015,0.12409242,0.031287829,-0.10698994,-0.28526556,0.089497186,0.046750689,0.92591366
0.26709654,0.022602328,-0.058769471,0.076326237,-0.25434667,-0.06154026,0.17485898,-0.23931876,0.69225984
-0.26473578,-0.22665446,-0.21966898,0.064490189,0.042993772,0.039504807,-0.015839557,-0.28744896,0.96546918
0.30116871,-0.045636284,-0.20752658,-0.20926193,0.06914585,-0.0174645,0.026172244,-0.23474122,0.83617046
-0.31371528,0.02070588,-0.088613906,0.053579677,-0.28504359,-0.15441898,-0.070172006,-0.22078561,0.89517961
0.089653036,0.098255972,-0.29372462,0.24004478,-0.084691334,0.032815619,-0.1946105,-0.18087151,0.89007407
0.090736168,0.16702647,0.068949003,-0.00074732746,-0.26577016,-0.13155983,0.20764907,-0.10241156,0.77761722
-0.14789875,-0.056201673,-0.24158521,0.038993767,-0.080030635,-0.25961688,0.11474158,0.23176076,0.99314579
0.14762055,0.18444363,-0.19405034,-0.30852645,-0.28894264,0.18728538,-0.18548438,-0.13515401,0.82532994
-0.079297243,-0.0034736052,0.26997007,0.29605181,-0.07175628,0.31041723,0.25960438,0.016443056,0.72302188
-0.085163419,0.052740629,0.29884853,0.088264611,-0.26454268,0.25356087,0.12695769,-0.10170642,0.74013221
0.036679001,-0.12182711,-0.072809763,-0.075805594,-0.074875393,0.26813278,-0.25360854,-0.085760198,0.9373173
0.15916725,-0.17271054,0.078870084,0.24748288,0.10317051,0.10213461,0.27391839,-0.023508327,0.73923054
0.28148811,-0.15539928,0.08939004,-0.19852939,-0.21926482,-0.081211775,-0.21899275,0.01567238,0.88644656
-0.12865721,-0.26860334,-0.18274711,0.29680077,-0.069057974,0.11412492,0.16039898,-0.11144472,0.83990358
-0.29754586,-0.049486059,0.12264701,0.13720833,0.29623995,-0.19504939,-0.24109045,0.30503353,1.0482228
0.19590742,-0.27752453,0.081971749,0.080451005,0.28376987,-0.022797188,0.14459271,-0.002148267,0.86676653
0.15020979,0.2283411,-0.2601145,0.17728128,0.10147761,-0.02098411,-0.2586466,0.29615138,0.96538213
-0.0078506848,-0.040776301,0.095932559,0.080082385,0.27777482,-0.19323543,0.26257726,-0.12318343,0.93337299
-0.2721836,-0.17413599,0.054649017,-0.20106623,-0.25436548,0.26599281,-0.17350851,-0.10879992,0.89612386
0.19753452,0.0041920659,-0.11565946,-0.22299675,-0.041303645,0.054770199,-0.13126344,-0.19336639,0.85221047
-0.14663108,0.28667846,-0.044282902,-0.2959738,0.17924779,-0.1697537,-0.017899634,-0.1189912,1.0024909
0.26428791,0.091822568,-0.14008772,0.28674577,0.25155913,-0.013206014,0.26718186,-0.23055533,0.87397094
0.22688681,-0.12628665,0.070872596,0.14829213,0.25678037,0.1995109,0.26753919,-0.14982523,0.88172964
0.02147659,-0.039750225,-0.13620572,-0.19371759,-0.21222531,-0.15629662,0.28367803,0.18799327,0.8361281
0.17457652,-0.24972244,0.13573088,0.20035788,0.30982338,0.077995107,0.11837814,0.2301277,0.84110563
-0.11493698,0.098086922,-0.19957005,-0.21150231,-0.14403038,0.021611079,0.25247754,-0.034104954,0.84680137
-0.039557918,0.18733598,-0.26624995,0.096826534,0.14104274,-0.25172207,-0.1488835,-0.012271916,0.99016648
0.29233877,0.12656615,-0.11809032,-0.059949804,0.18943647,0.15947488,-0.23008044,-0.20989235,0.98066363
0.037325183,0.027016086,-0.1959471,0.12753168,-0.1667733,0.11824787,0.11405614,0.28204852,0.87160041
0.17982391,-0.016517253,0.21125691,0.15524608,0.017317598,0.166589,0.24150861,-0.2415072,0.75409103
-0.29546875,-0.093465293,0.28274819,-0.27883653,0.025051848,0.26140781,-0.054340532,0.26030235,0.94780755
-0.099693389,-0.057109744,0.26019436,-0.11748449,0.21510473,-0.19863513,-0.29528082,0.039422983,0.92817171
0.28778791,0.090591055,-0.19324892,0.29249811,0.28962941,0.15569258,0.26017337,0.26242386,0.83240162
0.055284687,0.14806768,-0.15603219,0.051501882,0.21779535,-0.22141962,0.26514042,-0.23830984,0.91889784
-0.014993378,0.028265625,0.28117092,0.23975717,-0.097784092,-0.29783056,0.066228159,-0.073365533,0.83833285
0.19757681,-0.31080662,-0.27401548,0.17576636,-0.16565461,-0.24835921,-0.24211391,0.26911626,0.98511804
-0.29010568,0.19725369,0.088248085,0.26339444,0.18710234,-0.2344866,-0.28522838,0.080215344,1.0262022
0.0092931009,-0.017905003,0.0023580951,-0.30269453,0.17124493,-0.098361152,-0.028872865,0.28369902,0.99262806
-0.013601458,-0.2422803,-0.15734729,0.28521736,0.079140735,-0.30295655,0.22572891,0.11953878,0.95188458
0.10823767,0.12741169,0.056726376,0.20616514,-0.032001411,0.10263689,0.038433103,-0.27443384,0.7986109
-0.013105503,0.0022633939,0.3027469,-0.009632062,-0.091768883,0.067926304,0.20675361,-0.15786834,0.81628176
0.10281132,0.26859225,-0.062213695,-0.18014057,-0.061683227,-0.21711862,0.23037394,0.1568509,0.9101751
-0.1536762,0.065577019,0.19903037,-0.22938771,0.22509831,0.26138161,0.18029082,0.17847771,0.94542714
0.12595894,0.030956066,0.11302473,-0.31141652,0.29845956,0.28955579,0.271251,-0.19067304,0.88309076
0.18670102,0.030855954,0.1997735,-0.084038789,-0.28536822,0.23713735,-0.16377514,-0.21724289,0.75647278
-0.24830092,0.016625736,-0.0040936467,0.24008314,0.23300429,0.086065706,0.19321885,-0.30733207,0.80751167
0.21701077,-0.27980181,-0.20311962,-0.044602289,0.17095247,-0.296365,-0.2226867,-0.14550124,1.0118867
-0.15781238,0.02952575,-0.19457542,0.26653881,0.020520567,-0.30690221,0.18921041,-0.18453641,0.90536174
-0.036522003,0.30593092,-0.15580695,0.24267509,0.22922906,-0.26793674,0.13073025,0.27929566,1.005342
0.041893542,0.25035592,0.18414782,0.22466964,-0.19649752,-0.053822239,-0.04660064,-0.045639621,0.82051687
-0.24030931,-0.11728886,-0.12475435,-0.17179428,-0.091703644,0.1883064,0.29624662,0.11182057,0.91725145
0.21266142,-0.29038765,0.29641318,0.17191132,-0.10650842,0.19761963,-0.060134226,0.067081135,0.76028592
-0.30356153,0.23309841,-0.12125668,0.30492455,-0.0075667894,0.10138089,0.28857581,0.22919649,0.71289645
-0.29461276,-0.1449432,0.30885685,0.0098553097,0.21383603,0.20570556,0.021278456,-0.17268583,0.89611061
-0.096336403,-0.28497749,0.31317814,0.17190273,-0.044492551,-0.31176648,0.064461197,0.13603295,0.94231063
0.25777687,0.27715383,-0.22975372,-0.23032929,0.13159283,0.081136829,0.23924646,0.048396273,0.85602527
0.19957504,-0.22913133,0.17494611,-0.073835051,-0.00051368715,0.21547952,-0.22338725,-0.27633635,0.87421476
0.19374739,-0.17236028,0.27834842,0.15047839,-0.26822778,0.16550494,-0.03466479,0.019336235,0.71929193
0.24095456,-0.25479086,0.22252998,0.14448646,0.14518711,-0.050282973,-0.13724834,-0.10991619,0.88989031
0.17375346,-0.14795751,-0.16149699,-0.29616204,0.065320547,-0.20308979,0.1136646,-0.064692885,1.0052342
-0.026284765,0.078413941,-0.094299723,-0.17695824,-0.2946467,0.23591356,-0.21162419,-0.067214942,0.79823748
-0.06012017,-0.30916771,-0.27610485,-0.30551573,0.27957442,0.30921315,0.1434162,0.035183849,1.0274929
-0.10350337,0.012563961,0.26653483,-0.18376306,0.24125352,0.12283727,0.16614704,0.087219466,0.82133193
0.22759818,-0.23154078,0.207462,-0.15236882,0.058438912,-0.29235267,-0.26439211,0.23353178,0.90508943
0.039448867,0.29902377,0.27432584,0.16357553,0.12092882,-0.12040363,-0.1694858,-0.13723929,0.90253571
0.1410595,-0.22742356,-0.0069764315,-0.30790583,-0.15972069,0.19013336,0.24844232,-0.023461454,0.94251913
-0.088775244,0.1867214,0.24983819,0.095488812,-0.21556016,-0.026758193,-0.044921232,0.23954294,0.81405881
0.28560121,0.25219494,-0.11079689,0.080528409,0.11310641,0.0024821505,-0.24922972,-0.22318986,0.87175198
0.037078178,-0.025109938,-0.29443378,-0.0088729465,0.23216788,0.036591238,-0.24811023,0.14596123,0.98304142
0.25813642,-0.21133994,0.10010113,0.2770236,-0.052978333,0.067431368,-0.27071936,0.10235947,0.77075843
-0.040685256,-0.10571352,-0.23735258,0.09540912,-0.07948274,-0.16763059,0.30247503,0.019450945,0.98213819
-0.29873952,0.14171725,0.26038462,-0.12094226,0.24367839,-0.22813332,-0.1531791,0.095524216,0.96829425
-0.074779042,0.28316603,0.16768335,0.12790967,0.10097605,-0.049979578,-0.26974941,0.041001329,0.97346411
-0.14338229,0.21611348,0.1231456,-0.15314657,-0.18903209,0.01644779,-0.2759037,-0.30400684,0.87279416
-0.14746514,-0.2152191,0.12239906,0.027938427,0.075460675,0.22038383,-0.20588834,0.26306739,0.93700418
0.046129523,0.020404954,-0.23994412,0.21641864,0.25113899,0.13400659,0.048730976,-0.11654973,0.96729193
-0.14771097,-0.071232143,0.25729263,-0.041474641,-0.12350988,-0.17009401,-0.28767121,0.31307801,0.86487031
0.065877835,-0.13302975,0.30463198,0.21920255,0.16487654,0.15199224,-0.1582027,0.18730326,0.88391732
0.11152872,-0.27371096,-0.21800817,0.30571894,0.19535742,-0.20950116,0.13124487,0.13001803,0.95442015
-0.14252027,-0.082658873,0.24580217,0.2642572,0.16670171,-0.10323697,0.16557092,0.082963524,0.87362084
-0.18799061,-0.035412631,0.002812978,-0.21286826,0.083272598,0.31206922,-0.072295634,0.12913264,0.97139825
0.25565881,-0.1624466,0.15383191,-0.031125996,0.29718487,-0.25576722,0.09531421,0.12014653,0.96929359
-0.040175066,-0.19180348,-0.31215495,0.19266002,0.17991358,-0.22544495,-0.2156637,-0.008726001,1.0511959
-0.0060198893,0.064973758,-0.17314762,0.10821352,0.17602948,-0.28064049,0.057457849,-0.2596248,1.000418
0.1696696,0.2975167,0.029560023,0.080602278,-0.21323495,0.30175672,0.3110201,-0.2329115,0.62903687
0.025507614,0.21655604,-0.20487182,0.12126715,0.045308348,0.25201662,-0.0087797723,-0.3134219,0.87763524
0.19323337,-0.19186921,-0.095156691,-0.12827613,-0.024646332,0.14813841,0.093220909,0.14069427,0.88984065
-0.17715565,-0.063744533,-0.22154374,-0.19391979,-0.24125538,0.15674695,-0.19950939,-0.1771318,0.85404235
-0.15513965,0.062339215,0.081678332,-0.12418421,0.28841553,0.27327537,-0.271165,0.090136704,0.98594348
0.22877063,-0.23103886,-0.30063067,-0.18318236,0.01672053,-0.22333421,-0.19143463,0.08153623,0.93433477
-0.17879389,-0.090410846,0.23791604,0.10844325,-0.16615661,0.087306104,-0.014695342,0.23088734,0.82330705
-0.19848179,0.27578082,-0.16610453,0.21608898,0.24635102,-0.28228118,0.049058294,0.15800582,1.007618
-0.2384069,0.28441327,0.082921833,0.13772775,-0.15790952,0.30348188,-0.051622545,-0.24794203,0.80279101
0.042174004,0.076348031,0.29843914,-0.2727859,-0.14325361,0.051234267,0.20414699,0.15905278,0.84014724
0.075183734,0.15491911,-0.00018954401,0.12762654,0.053256549,0.29794516,-0.14898399,-0.29532002,0.89117535
0.06444895,-0.026474363,-0.04407344,-0.060231793,-0.27109403,-0.13440063,-0.12464304,0.27287211,0.8698676
0.14080954,0.17584205,-0.1886601,0.31260402,-0.045649184,-0.31143876,0.17768455,-0.089644795,0.85655147
-0.03641725,-0.00044039057,0.26914117,0.076688321,0.28836572,-0.26530595,0.30804382,-0.21507113,0.89550438
-0.046481331,-0.22354611,-0.19641491,0.2511488,0.18008062,0.15926098,0.061144261,0.14006637,0.89187463
-0.018661915,-0.31043948,0.10023715,-0.0036133098,0.098029839,0.23014326,0.24495714,0.19772516,0.8395796
-0.30500008,0.01267301,-0.070844408,-0.13244042,0.01296904,-0.16666123,-0.037038085,0.16019406,1.0227059
-0.31379213,-0.0046996224,-0.018350651,0.20646586,-0.055872357,-0.031345126,0.1645661,0.036652001,0.82324512
0.010264519,-0.16511868,-0.18502519,-0.24343222,0.27640178,-0.010445182,0.02389034,0.012031448,1.0181583
-0.16629644,-0.0044989115,-0.16519402,0.078191198,-0.15859474,-0.18481379,-0.28066508,0.12481992,0.91616195
-0.18342565,-0.21498244,0.12374848,-0.28290845,-0.17453864,0.24152437,0.27744954,-0.10711648,0.79887141
-0.30422641,0.25002257,0.10637421,0.27232617,0.14836124,-0.26597875,-0.28564934,-0.17413715,0.92706734
0.23746988,0.2392199,0.15940074,-0.17101564,0.15323233,-0.23057184,-0.26740142,0.081727306,0.90797503
0.076951589,-0.041455417,-0.10191915,0.29744926,-0.10195926,0.24783118,0.14679822,0.086520793,0.70999874
-0.24824841,0.31059837,0.27978489,0.27962939,0.022671995,-0.18295405,0.1011924,0.20405451,0.88837077
-0.27591863,0.15640753,0.0088005475,-0.091428575,0.28718536,0.082250839,-0.11767601,0.18165819,0.99247671
0.25465012,-0.14342491,0.25594775,0.22707438,-0.018557261,0.089085922,0.16605595,0.12944013,0.75918655
-0.034636038,0.20187299,0.10955776,-0.18418343,-0.13009449,0.042772585,-0.20378291,0.23643515,0.85728322
-0.13663358,0.2629814,0.27908116,-0.11386773,-0.10566858,0.05152466,0.12822092,-0.20737313,0.78876422
-0.12847117,-0.2655618,-0.082764413,0.063863817,-0.28416322,-0.00024007085,0.24995499,0.12361868,0.80317554
-0.31251746,0.2776159,0.075734127,0.19112808,-0.082111201,-0.26495967,0.055790025,-0.1902834,0.9015342
-0.25630102,-0.2782885,0.0019493991,-0.13153221,-0.15695774,0.21565769,-0.12612809,-0.023762815,1.0067326
0.10060802,0.0084068514,0.09098628,-0.23730091,-0.30758733,-0.21084541,0.11186628,0.22894587,0.86114834
0.23555105,0.18685169,0.2312097,-0.23125502,0.068756442,0.25052644,0.053371701,0.10202936,0.88776413
0.10331876,0.30008205,0.22481234,-0.071796487,0.1388843,-0.23091809,-0.051379674,0.19688417,0.9198733
0.25381429,0.10337162,-0.13996945,-0.26715543,-0.046483913,-0.25728714,-0.27531537,-0.23187602,0.97236984
-0.2387204,0.12423682,0.060121926,-0.30610486,-0.014023018,0.085420286,-0.29129068,0.28509501,0.96754684
-0.023223443,0.053152397,0.1051724,0.11037206,-0.15424219,-0.16157147,0.10049788,0.090210958,0.8085287
0.30944878,-0.18327362,0.060002954,0.22987506,0.082739772,0.14075534,-0.10645117,0.01301454,0.80816411
0.31322132,-0.26221501,0.018399503,-0.020432397,0.13843161,0.055705874,-0.30198127,0.080532037,0.97017614
-0.0036439878,0.15351443,-0.11446256,0.20610187,-0.13123092,-0.29526717,-0.19105265,0.18825817,0.96608143
0.18323579,-0.042638494,-0.10311867,0.30222419,0.29183006,-0.25534797,0.11645465,-0.013327446,0.97990757
0.25483474,0.28627459,-0.21294595,0.15503456,0.13340716,-0.21784813,0.041040458,-0.31298323,0.85333568
0.034526095,0.0564108,-0.31085024,-0.069880481,-0.063088123,-0.12444425,-0.26554696,-0.26866461,1.0259779
0.082158521,-0.29885075,0.0016212349,-0.093868277,0.094712597,-0.044823309,-0.025441539,0.07222112,1.0034491
-0.20586616,-0.0061940172,0.23039862,0.063701688,0.30378589,0.0085653094,0.28898106,-0.091034366,0.88013052
0.15764246,0.19802834,-0.017523047,-0.020505934,0.013150868,0.0722121,0.0023709295,-0.058968226,0.91562713
-0.27149689,0.1765131,-0.30368145,0.13412844,0.1739656,-0.17110465,-0.20944814,-0.096094902,1.0388189
-0.2355499,-0.087928181,0.086634437,0.055339075,0.25964556,0.076744802,-0.20445055,-0.17319193,0.97034282
0.14789596,-0.0037600092,0.25094023,0.17241458,0.19065263,-0.08806136,0.07364542,0.16298538,0.94694859
0.059343662,0.26569756,0.27847497,-0.033211125,-0.12580354,0.27118302,-0.028933881,-0.17353791,0.75916164
0.19999344,-0.11082343,-0.20745317,0.17880954,0.24128276,-0.015166835,-0.11491019,0.30742856,1.0061198
0.054389912,0.17916071,0.20377951,-0.011026254,0.25821798,-0.21501359,-0.21273212,-0.24382452,0.9730239
0.043646554,-0.19022243,0.20624386,0.17504186,0.076309745,0.2697549,-0.22564834,-0.29054772,0.81131336
0.17483546,0.23259896,0.2014727,-0.24017751,-0.26056197,0.2270337,0.14600966,0.17232851,0.82223773
-0.26561298,-0.19980185,0.15343636,-0.14821145,0.23697801,-0.17785788,0.19669128,0.21115643,1.0093562
-0.18981342,0.14698499,0.037576551,0.25551507,-0.0024273259,0.012984325,-0.30395569,0.12201606,0.92178953
0.22342057,0.23136268,0.23301725,0.24965679,0.038642742,-0.12521964,0.17461199,-0.27716432,0.74978475
-0.1221199,-0.20134006,0.017852952,0.16298449,0.062795694,0.30219634,-0.27539027,0.22892662,0.95011531
0.12135112,-0.13605748,0.18688538,0.011901897,-0.056843889,0.079419751,-0.029633413,-0.024289264,0.90315988
0.30976626,0.28093298,-0.27527755,0.21453856,-0.12292528,-0.24746523,0.11680747,-0.14158356,0.83580682
-0.21709716,-0.22006972,-0.29889729,0.2777208,-0.26409544,0.29545035,0.29078414,0.17577716,0.68579391
-0.10622992,0.19939714,-0.16013897,-0.12489378,-0.20987947,0.032715587,0.14747464,-0.066940852,0.92296094
0.084178169,0.296171,-0.20320257,0.052814772,-0.24083281,-0.038571866,-0.055414531,-0.26348897,0.81077864
-0.19084389,0.20658587,0.31399297,-0.15620746,-0.049093302,0.14737429,-0.18395418,-0.070109236,0.89229642
0.28302058,0.14372457,0.19011418,0.23857502,-0.30484723,-0.25261504,0.20366142,-0.089062386,0.74908791
0.14949193,0.038665453,0.0079290621,-0.20872185,0.0015086622,0.15262606,-0.1578031,0.2522742,0.96841748
0.30752546,-0.06631504,0.3085799,0.14388362,0.17136692,0.27581725,0.05925493,0.052431115,0.77291646
-0.14041704,-0.22017682,-0.16969994,0.049969827,-0.21282124,0.033320218,-0.067709269,-0.081221708,0.91304601
-0.27594594,-0.29080473,0.0091239756,0.1344332,0.066862177,0.019326215,0.0128033,-0.089472894,0.90152283
0.10072275,-0.25550923,-0.20629479,-0.30336922,0.24184159,0.20881505,-0.13638896,0.14304755,1.0300783
0.07575804,-0.24390732,-0.28219551,0.0024365247,0.020499256,0.02717419,0.2411748,0.19691751,0.98732789
0.29204081,-0.2003107,-0.31160353,0.1099667,0.21244887,-0.07095478,0.14203061,0.23896731,1.0345408
0.12577508,-0.20583775,0.23281434,-0.11081456,-0.25219803,-0.046787778,0.22687276,-0.19697934,0.72385916
0.23818106,0.0067200835,-0.25725855,-0.12411335,-0.055479614,0.29262169,-0.214689,-0.021368364,0.91324369
0.30409432,0.22317454,0.26494147,-0.078420514,-0.042699908,0.031080624,0.092118667,0.23576236,0.85752867
-0.054813079,0.019126648,0.17693969,0.096598297,0.29506974,-0.27115669,-0.17052718,0.18551649,0.95519615
0.053129576,-0.16417162,-0.077952209,0.090948131,-0.29816489,-0.12964675,-0.2034823,0.060809897,0.87976269
0.097104395,-0.22996716,-0.1081079,-0.10278727,-0.0077423455,0.18300771,0.076651733,-0.26628949,0.93162221
-0.077280797,-0.29687536,0.01472405,-0.25828853,-0.088370828,0.22666551,-0.30627666,0.13163981,0.95180814
0.14626491,-0.27726526,0.12950855,-0.059427544,0.13732963,0.087693008,0.02181807,0.094498304,0.96040187
0.29225107,0.24133894,0.15485545,0.22773115,0.28507812,-0.1788938,-0.24172744,-0.15624259,0.90767854
0.12481426,-0.20307143,-0.2948707,0.16711071,-0.16121731,-0.14878405,-0.12205603,0.12681043,0.98852469
-0.13298227,0.1685853,-0.033438279,0.085584092,0.26724985,0.052090007,-0.083489497,0.15853768,0.96352177
0.29102436,-0.2488371,-0.23235435,0.29135299,0.17281419,0.18827355,-0.19181554,0.11636245,0.82814256
-0.30276507,0.18138052,-0.3101422,-0.072702337,-0.22652102,-0.088383917,-0.13663536,0.20325848,0.94025521
-0.064177582,0.12099623,-0.083516782,0.022288394,-0.25199267,-0.016824674,-0.019951066,0.1300386,0.96020371
0.25791852,0.22535318,0.0042380103,0.090547539,-0.2156726,-0.27494411,-0.00031802274,0.15290839,0.91985038
0.067016858,0.0068615187,0.2282457,0.045003612,-0.039866004,0.29712517,0.30985863,0.1085201,0.86054311
-0.031665539,-0.2095599,-0.257731,-0.21097771,0.19608874,-0.21172882,0.010040639,-0.29721924,0.97484795
-0.016918879,0.28050848,-0.056989403,-0.30090044,0.13283251,0.2698464,-0.26466169,-0.23137119,1.0101478
0.27268721,0.23216991,-0.2634493,0.10221261,0.10028638,0.10527549,-0.30218237,0.0078375691,0.95468795
0.29473231,-0.093487208,0.091221105,-0.1403013,-0.11982161,0.31404546,-0.025495801,-0.28530999,0.75847262
0.17234218,-0.31376411,0.12879788,-0.15002563,-0.010508313,0.1736046,-0.2431899,-0.025820105,0.94242414
-0.2842027,0.14155226,-0.19502936,-0.1794101,0.26642462,0.0067371902,-0.17412615,0.21347151,1.0918207
-0.11734392,0.25492397,0.079253665,-0.044953979,-0.22762941,0.13462081,0.16947749,0.11677967,0.8502348
-0.29621042,0.089875281,0.13717535,-0.160921,-0.14442086,-0.050160646,-0.19913304,-0.050519108,0.93841497
0.19324286,-0.19162713,-0.17103665,0.17166519,0.18730406,-0.1997142,0.09429017,-0.17964525,0.87530045
0.054148828,-0.041403071,0.29414028,-0.10390362,-0.12595486,0.12814588,0.088673257,-0.049720892,0.82622906
-0.25397594,-0.21555487,0.10829065,-0.19456052,0.20638902,0.034027639,-0.11551806,0.23394657,1.004855
-0.1493318,0.16576593,0.21113053,0.13710229,-0.25826907,0.021676497,-0.1437742,-0.30348879,0.84137175
-0.25213462,0.069495996,-0.0034154744,0.11650496,-0.011617516,-0.18761128,-0.15297512,0.1842772,0.97596529
-0.24645547,-0.024952071,-0.22689199,0.25829761,0.15147711,-0.28047069,0.026622996,0.16487622,1.057186
0.23656054,0.026542618,-0.1988627,0.22769803,0.30703844,-0.080872672,-0.10910211,-0.16140315,1.0376903
-0.12604719,-0.26552383,0.14753639,0.2566798,-0.12382156,-0.3080581,-0.060662165,0.12735531,0.96247722
0.0015961412,0.27847567,-0.16299184,-0.16081149,0.043586624,0.021382294,0.072722974,0.2178828,1.0012139
-0.042788646,0.1326127,0.29812631,0.0020610021,0.097237154,-0.11916041,-0.15673437,0.0088625952,0.88148109
-0.25761947,-0.30489474,-0.080336305,-0.31196088,-0.034277862,-0.029616399,0.2348893,0.29017494,1.0054067
-0.06740214,0.20006528,0.044252751,0.19162148,0.060062919,-0.13454573,0.059212581,-0.038165599,0.90278955
0.03055084,-0.26369149,-0.17315476,-0.17863364,-0.23040068,0.0082848873,-0.070697152,0.063989745,0.88608611
0.1241243,-0.11304285,-0.26685165,-0.28980466,-0.17465728,-0.070546819,0.20423108,0.26158426,0.9121092
0.0065938234,-0.10681053,-0.065636039,-0.22440723,0.19701189,-0.066049447,0.058743247,0.19453716,0.9777877
0.13350505,0.16615898,0.28552532,0.099999275,-0.014584637,-0.081939264,0.036535781,0.19315377,0.82710464
-0.30076717,-0.12869263,-0.21260053,0.050460751,0.23002167,-0.04310496,0.14692113,0.073458582,1.0979098
-0.1560174,-0.30938272,-0.055242722,0.019673705,0.24950943,-0.26158625,0.25205185,0.17328277,0.99386812
0.18174426,-0.1069097,0.2596336,-0.052932511,0.22163057,-0.30046651,0.053322041,-0.22256171,0.92436835
0.093754121,0.15195448,-0.015087832,-0.10564792,0.1387974,-0.14212719,-0.26082667,-0.13842422,0.97571859
-0.14689959,-0.0042798597,0.2574979,-0.1839389,-0.17372869,0.076976627,0.22091176,-0.1003445,0.78532632
-0.27783866,-0.30329012,-0.090760324,-0.13396766,-0.061804361,0.038322034,0.1298179,-0.083078418,0.99556872
0.028961682,0.15122879,0.14862607,0.29918895,-0.13536555,0.051935886,-0.30076878,-0.17519685,0.73932217
-0.27463278,0.046415687,-0.032184295,0.2002749,0.19474547,-0.094890089,0.21676949,-0.13015722,0.87417715
-0.19609845,0.30312863,0.27419781,-0.16024441,-0.1693583,0.26478708,0.21432269,-0.28295519,0.79990467
-0.23414168,0.19758171,0.017970904,-0.27220916,-0.07845174,0.026198136,-0.053982516,0.14645875,0.99173571
0.23108996,0.062585224,0.016981577,0.24795803,-0.30330084,-0.16413877,-0.25060506,-0.30431814,0.77994763
0.16664687,-0.014693565,-0.17189025,0.081682965,0.26895279,0.028615829,-0.29025718,-0.17277564,1.0065814
0.16607364,-0.21922152,-0.26510722,-0.19030764,0.083862317,-0.2717904,0.28006706,0.28959956,0.9827657
0.23725205,-0.22436263,-0.036723797,0.11429014,-0.054913462,0.23630639,0.11895198,-0.18107243,0.77129931
-0.098573014,0.1436883,0.17746644,0.05654167,-0.13167572,-0.089858877,0.043341272,0.14278941,0.83270855
-0.2774678,0.10643758,0.2110685,0.19391815,0.24782071,-0.22027218,-0.2648464,-0.12227052,0.96800903
0.29285878,0.30032372,0.1301661,-0.0098280102,-0.029631265,-0.28788099,0.048341554,-0.11156628,0.87850913
-0.18157079,-0.032316519,-0.12088128,-0.12178216,-0.017100557,-0.0086606106,0.10437689,-0.22898623,0.93583794
0.20331165,0.10214595,0.24202475,-0.26798096,-0.25680973,0.15077143,-0.1185909,0.062831038,0.79010267
0.26270457,0.20083125,-0.024227885,-0.16877179,-0.28121649,0.0067417036,-0.13095796,-0.20219657,0.84305401
0.06529387,0.10335539,0.072324138,0.032297533,-0.093376373,0.061013287,0.27035954,0.020389753,0.93990999
-0.27840301,-0.20664643,-0.24456465,-0.042566901,0.16299394,0.03447684,-0.066758464,0.25698381,1.0562325
-0.0026081066,-0.14785532,-0.12329634,-0.022698554,0.29395852,0.096493458,-0.18246734,0.2357361,1.044762
0.053416728,0.099554936,-0.15955665,-0.25368856,-0.027911213,0.10213474,0.060361652,0.28549029,0.95382135
-0.092229918,0.0075686851,-0.0052091612,0.025981678,0.25017811,0.01230103,-0.23613615,-0.2333241,1.0126589
-0.046412003,0.28654693,-0.21409628,-0.0073111398,0.035864445,0.026618097,-0.28048533,-0.14212618,0.99363177
0.28071433,-0.23226166,0.26451858,-0.25929115,-0.25440765,0.30392029,-0.03617379,0.24448128,0.82625086
-0.0802661,0.24610965,0.15871507,-0.061482484,0.12837799,0.051968565,-0.024139822,-0.010937186,0.83116369
-0.19200791,-0.15027414,0.16047828,-0.23644898,0.073919302,-0.24649013,0.15788492,0.30928972,0.9932891
-0.16161948,0.098420466,0.26845673,-0.25237667,0.12470289,0.12039483,-0.2572195,-0.11757543,0.89016527
-0.14092903,-0.17569375,-0.097844558,-0.22307141,0.30974108,-0.21354048,-0.31261756,0.03145011,1.0531888
-0.27983219,0.19871498,0.19053812,-0.066046196,0.28005913,0.11036478,0.26992144,0.25026597,0.94620563
0.057550918,0.14940915,-0.04891329,0.19821725,0.067648512,-0.0089921483,0.00086016175,0.022266372,0.91205827
-0.24799529,-0.059337711,0.29009417,0.0027982479,0.075552247,0.0078813417,0.11999175,-0.1526249,0.86261961
-0.22641946,0.12116033,-0.15413978,-0.2474092,-0.22512152,-0.023476941,0.18543462,-0.27639838,0.8280409
0.12361496,-0.19019187,0.080635448,-0.075769848,-0.0021372524,0.30449283,-0.26411215,-0.27937175,0.82697107
0.28656544,0.1872807,-0.060494276,0.19984176,-0.16243543,0.22530359,0.11891735,0.13007201,0.82965866
-0.099048249,-0.15211825,-0.24932724,-0.26851808,0.23120285,-0.13807716,-0.1724113,-0.17138681,1.0828916
-0.012432162,-0.22715243,0.18046584,0.22429131,-0.11109277,0.059977971,0.2422388,-0.27914391,0.70422825
0.10253699,-0.18023352,0.16037514,0.082751538,0.093952973,0.30153284,-0.069807476,-0.24047098,0.75202838
-0.22058294,0.18546243,0.31149501,0.23211512,0.03503204,-0.12036932,-0.22977969,0.20934268,0.93247017
0.26386878,0.15636493,0.24429228,0.29500129,-0.10495372,0.057828498,0.042251753,0.21324548,0.78303352
0.20675212,0.27773925,-0.20352087,-0.0019828656,-0.20330239,-0.059495983,0.021130565,-0.14725988,0.87259106
0.28137356,0.18524997,-0.0091508079,-0.025140757,-0.10702293,-0.29420646,0.14143166,-0.050191636,0.76486002
0.20003708,0.21105655,0.19510532,0.17495414,0.01098405,-0.084311928,-0.22583951,0.01596314,0.91279896
-0.15547057,-0.2941516,-0.26446731,-0.2129841,0.19263858,0.049994186,0.27651613,-0.014561076,0.97953624
0.18294049,-0.19574344,-0.1767423,-0.093053908,-0.048835289,0.19040326,-0.26557031,-0.31210021,1.0093433
0.13771248,-0.30301709,0.30943769,-0.24685742,-0.0015324446,0.0027811084,0.062326909,-0.25581339,0.81933556
0.046782765,0.26683044,0.13303637,-0.0069284118,0.17223109,-0.22047533,0.2617392,-0.21532656,0.88017916
0.25145595,0.30983006,-0.24345347,-0.20688847,0.024415736,0.29377219,0.19276492,0.12120753,0.89330541
-0.13602278,0.049446819,-0.1242876,-0.30609506,-0.23095648,0.11409828,0.18188509,-0.26231443,0.79037614
-0.1185844,-0.039946719,-0.14356366,0.25517837,0.3059119,0.047037469,0.24391664,-0.061138627,0.88661149
0.092361942,-0.29171768,0.27931549,-0.10831526,0.23080462,0.21877855,0.028948827,-0.23892098,0.802622
-0.039921955,0.266072,0.078304944,0.12138142,0.18228509,0.053312325,0.11756512,0.25137124,0.93014353
0.11856815,0.20556335,0.21991408,0.25677515,0.28740194,-0.086992988,0.13671096,-0.19919831,0.81092988
0.091028924,0.19964581,-0.11713532,-0.23742108,-0.097306353,-0.02540484,-0.014227396,-0.057052517,0.91357742
0.15477532,0.28152782,0.2045315,0.28907084,-0.097695246,-0.048115308,-0.16080078,0.28406161,0.80999509
0.14001937,-0.14888698,0.20524911,0.12856092,0.21350248,-0.19624972,0.0383934,0.1740524,0.86768549
0.25264187,0.24929316,0.15298256,-0.064093068,0.0091259582,0.30328578,-0.0052606673,-0.15244669,0.85919604
-0.17069361,-0.0052219913,-0.03636762,0.31114873,0.2032454,-0.0016354018,0.2017788,0.20924577,0.88278276
-0.019844491,-0.30310087,-0.12685335,0.07452985,0.097953246,-0.1057917,-0.026426761,-0.24341783,0.94255545
-0.23161716,-0.10353083,0.2932,-0.064593828,0.1186881,0.15299577,0.21907258,0.21249947,0.91208005
-0.18946984,-0.0096406218,-0.23180308,0.16048743,0.26592772,0.0030106425,-0.0093973356,-0.13224311,1.0855529
0.2083651,-0.16555927,0.23021432,-0.22169787,0.069417467,-0.18295958,-0.12231304,-0.064960297,0.85265067
-0.15678874,-0.22057782,0.25805857,-0.23826272,0.28958376,0.2466016,-0.29336483,-0.25973892,0.94344163
-0.13541449,0.025111086,0.14590878,-0.099646425,-0.29888403,-0.30443567,-0.12403828,0.12525498,0.95556832
-0.22368652,0.010152595,-0.15859648,0.23096576,0.25763068,0.13936282,0.16706329,-0.28029025,0.67620283
-0.26955477,-0.26797854,-0.20389091,0.089601051,0.25592745,-0.100604,-0.1227573,0.29413108,1.0741767
-0.18394844,-0.28416219,0.22805265,-0.2757863,0.035953013,-0.038898685,0.10867208,0.040880366,0.86551349
-0.29216961,-0.10136291,-0.22225891,0.16593242,-0.20044562,0.22333,0.08007141,-0.1302302,0.84145421
0.1694755,-0.2490089,0.277341,-0.30788715,0.18880349,0.063186332,-0.22301574,0.008724711,0.928964
-0.055652785,0.13304188,0.11938755,-0.10260874,-0.05114232,0.2511084,-0.018951472,-0.066116349,0.9199665
-0.16938842,0.20583319,0.22530708,-0.1335572,-0.18752422,-0.16119729,0.095551813,0.11256832,0.827826
-0.12367049,-0.053984534,-0.21677278,-0.23630361,0.28948324,-0.01705196,-0.0082732144,-0.14725406,1.10409
-0.19993045,-0.2541596,-0.094492007,-0.15586196,0.11978528,0.060569427,-0.21071232,-0.096806067,1.0733383
-0.29625595,0.083811573,0.18962844,-0.27148587,-0.29764151,0.036310974,-0.014206685,0.15724915,0.86933239
-0.24565083,-0.30643263,-0.20376278,-0.028189706,0.18198771,-0.20790453,0.27833618,0.2690946,1.0475025
0.048768247,0.045317276,-0.14631585,0.033632404,-0.28523956,-0.0068153159,-0.068282152,0.15395426,0.86469516
0.28838805,-0.1547591,0.21740612,0.20749201,-0.19721376,-0.1334792,-0.046357703,0.19330095,0.79795008
0.16471208,0.14822237,0.26032862,-0.11320634,0.14671931,0.24840736,0.17705806,0.27481445,0.79609404
-0.19279036,0.24153652,0.15350251,-0.18190393,-0.11754449,0.25300358,0.041338665,0.0518377,0.83735427
0.011023396,-0.061781521,0.040823006,0.13864062,-0.13674937,-0.22868874,-0.14134788,-0.24158237,0.86327406
0.14029184,-0.21461353,-0.21701798,0.31414577,-0.2337259,-0.20891287,0.058230738,-0.18022739,0.78705452
-0.19442516,0.16700276,-0.032041969,0.087322084,0.016190505,-0.15458793,-0.23625113,0.041881905,0.99876527
-0.21719893,0.27223043,-0.0030620752,0.26896086,-0.088615135,0.22789181,-0.05119744,-0.20619123,0.88177207
0.25218944,0.22410915,-0.26237653,0.23806904,0.17372947,-0.11723898,0.092635849,-0.092269209,0.85683526
0.11325834,0.28897422,0.14984548,-0.17397293,-0.094007678,-0.062513657,0.13638257,-0.086729995,0.86488678
0.01471699,-0.0747473,0.055709588,0.03145482,0.052219067,0.22117466,0.12503853,-0.11571905,0.81040011
-0.20904576,-0.26912329,0.11644075,0.24527562,-0.11512853,0.15010642,-0.20290853,-0.24425112,0.82788276
0.3078984,-0.30893697,-0.20478566,0.084462037,0.12736522,-0.13862421,0.18384446,-0.19335289,0.95196499
0.017052565,0.12061017,0.096322345,0.18188831,-0.05400049,-0.052001154,-0.19664579,-0.018601646,0.87465289
-0.284979,0.15669926,0.10980967,-0.084403397,-0.041681198,-0.0814644,-0.15403855,-0.00078789798,0.93721436
-0.1355503,-0.065738883,0.22609128,0.13283414,0.26455958,0.2502924,-0.15124028,-0.19985819,0.91972702
-0.054526828,0.039218252,0.23047838,0.052096153,0.20184038,0.055868685,-0.22429603,0.026144942,0.84065695
-0.14226103,0.067181482,-0.05778039,0.080461995,-0.10364016,-0.13031581,0.14518461,-0.30802565,0.8267368
-0.22916042,0.03076494,0.26544101,0.18326547,-0.18127086,0.10065891,-0.27141823,-0.27076605,0.86363951
0.093430971,-0.039798777,0.20548782,0.12527378,0.097236318,-0.28755747,-0.13373236,0.14603693,0.93265275
-0.15937349,-0.28482156,0.20675328,-0.037882276,-0.30146647,0.22559662,-0.31053031,-0.10327867,0.88120014
-0.068279643,0.16296991,0.30092044,-0.20073813,0.013602722,-0.29989991,-0.26918605,0.23952286,0.90583279
0.15960441,0.28517192,0.17943289,0.20496947,0.20795838,-0.0056428573,-0.16880526,0.26099446,0.9435759
0.17944844,0.070665554,-0.20034907,-0.14868261,-0.17957159,0.036595584,-0.25183575,0.24230027,0.88931282
-0.038525593,0.1461119,0.23781158,0.034378035,0.24999505,0.19646685,0.20777483,0.0689598,0.82842721
0.065520378,0.18117389,-0.094607594,0.3049681,-0.27010217,-0.069024674,-0.16018122,0.23678187,0.86778105
0.19316708,-0.058646967,-0.07208628,0.14577033,0.26277171,-0.16170146,0.24914584,-0.1186855,0.89905112
0.30215011,0.080216257,-0.16937438,-0.21709261,-0.19757459,-0.29081374,0.30110058,0.26486663,0.87653757
-0.016158468,-0.07371353,0.063330007,-0.30929239,-0.30720657,-0.26144737,0.0068679941,0.012719483,0.90158449
0.12246563,0.011733716,0.13580068,0.15929906,0.31105636,-0.020770738,-0.30712537,0.073752616,0.96407272
-0.091662745,-0.08346139,-0.27916148,0.074093731,0.31402652,0.251308,-0.21931991,-0.11224294,1.0355987
0.22752742,-0.063691806,0.18028003,0.26175088,0.16136575,-0.20357535,0.12855693,0.17631539,0.89734459
0.31350606,-0.2509003,0.24613334,0.31149708,-0.0056894694,0.26394593,-0.28285361,-0.14777654,0.76778169
-0.061828457,0.24636525,0.21489673,-0.10568764,0.12734016,0.097741173,-0.12399068,0.24070911,0.97865596
-0.010003238,-0.23380852,-0.017708379,-0.1209317,0.26888461,-0.050917675,-0.2504184,0.089626836,0.99621709
0.26495099,-0.115689,0.1982544,0.11143622,0.27679815,-0.0035291437,-0.30456384,0.27871155,0.89601792
-0.20890313,-0.28445313,0.26815817,-0.14745947,0.075853109,0.083973662,0.069293915,0.10247126,0.85813096
-0.16865513,0.093891636,0.2946395,-0.25080359,-0.094544552,-0.11564153,-0.18524079,0.060750414,0.91006588
0.005695604,0.30378598,0.01517466,-0.073939861,-0.1010163,0.19835926,-0.07429875,-0.2670397,0.78874471
-0.30933748,-0.16491802,-0.29307947,-0.23711228,0.0090402402,0.15680712,0.12428401,-0.075079746,0.9695098
0.11000269,0.074404062,-0.18616657,0.26859263,0.12492765,-0.12963115,0.26858073,0.25314375,0.86219571
0.30214831,0.15519338,0.1246713,-0.23229502,-0.18156921,0.29786825,0.19603562,0.24216964,0.83225177
0.30760216,0.092295232,0.12069929,0.18321013,-0.15049959,0.12573995,0.11360606,-0.29402658,0.70617701
0.064669981,-0.11248239,-0.24764961,-0.17647996,0.1638586,0.27606595,-0.08295398,0.020449886,0.992039
-0.082679194,0.11889534,-0.26500041,0.19307453,0.051313207,-0.29193265,0.031284502,0.011001324,0.98349324
0.02981893,0.26879821,-0.16864065,-0.099051425,0.047720253,-0.11228603,-0.29102094,-0.21101835,0.99885016
-0.069327453,0.017306789,0.23558171,-0.081127877,0.18639707,0.27651699,-0.12984457,0.17319307,0.91341289
0.088526642,-0.15448716,-0.24945202,0.25729639,-0.14325665,-0.14386097,0.2000639,-0.14440587,0.83937395
0.0089887376,-0.25351077,0.22940162,0.29231915,0.0020216075,-0.10155618,-0.28686744,0.16499696,0.95700549
-0.14301759,-0.037801687,-0.02809093,-0.23067675,-0.23981334,0.026229806,-0.30616434,-0.18519509,1.0037567
-0.25863775,-0.093231457,0.2124125,-0.13816734,0.27670529,0.10855456,-0.036288749,-0.028279281,0.94092527
0.0071006619,0.010556819,0.20104347,-0.071883654,0.10937915,0.28143269,-0.21542488,-0.057194818,0.91322559
-0.12239049,-0.30244927,0.044506982,0.12393749,0.23769797,-0.27777786,0.013699179,0.017146669,0.97619291
0.31057642,0.075255864,-0.21942174,-0.076050707,-0.08006369,-0.013438163,0.16002011,0.23354347,0.95960908
0.15945551,-0.26872543,-0.049243315,-0.079178106,-0.1285273,-0.24376217,-0.24055421,0.083841979,0.89564285
-0.28953736,0.28805614,0.21529785,0.18055517,0.0381602,0.15467498,-0.13472505,0.22578392,0.86257614
-0.28026311,0.13123975,-0.0086496186,-0.018747134,0.19677603,0.10483375,-0.18408088,-0.21699398,1.0099003
-0.16831875,-0.045227523,0.10981552,-0.028839508,0.20121478,-0.19496664,-0.28181915,0.2599137,0.96539947
-0.29106236,0.28665787,0.042150244,0.22919816,-0.071576256,-0.13619385,0.012259381,-0.19222757,0.88934212
0.20294477,-0.087739123,0.30416575,-0.087457096,0.24784767,-0.045667318,-0.045057865,0.045088897,0.84131917
-0.080630106,0.1227956,-0.15141986,-0.1023489,0.26154751,0.21734621,-0.11203232,0.21312,1.0360436
0.032421377,0.26550382,0.087465769,0.077615841,-0.23423101,0.019680294,0.28548403,-0.12889428,0.74249893
0.1297037,0.16870273,0.2521735,0.18938774,0.025449202,-0.27556839,0.2094624,0.12693673,0.90527914
0.28947556,-0.19201768,0.21180427,0.093549288,-0.15315105,-0.28654835,0.013714233,-0.11013639,0.86301616
-0.10291631,0.21360848,-0.24810765,-0.15065525,-0.14571467,0.18239299,-0.23400992,-0.089557837,0.89635988
-0.053697475,-0.058123563,0.30636641,0.096145865,-0.10970578,0.1912766,0.26652878,-0.01682058,0.85352429
0.15054105,-0.081842198,-0.26214572,-0.14522442,0.19021255,0.054592769,-0.14836538,0.26224991,1.0237027
-0.095349474,-0.1325555,-0.1135848,0.23062879,0.017569837,0.19561697,0.21933918,-0.020260917,0.92078394
-0.03707389,-0.3025805,0.2534401,0.12643371,-0.23229911,0.3057634,0.026197961,0.2307598,0.78446707
0.044005819,0.29636383,0.10948273,-0.0047210647,-0.16510755,-0.026808951,0.087418617,0.25821595,0.84059583
0.074887368,0.30592902,-0.26881618,-0.17879976,-0.30795719,-0.073646301,0.23597867,0.039403639,0.8013512
-0.22158008,-0.14838389,0.09276244,0.082959715,-0.18399032,-0.1473332,-0.10954844,-0.011448708,0.92177579
0.29430339,0.22038511,0.20932897,-0.10537336,0.18118275,-0.17047042,0.14007526,0.088051816,0.94474256
-0.05556049,-0.096492859,-0.018715704,-0.060953377,0.066002289,0.30451238,0.066318021,-0.17188506,0.8717177
0.026674056,-0.084892663,-0.19568546,-0.097256126,0.30005325,0.13029867,-0.076779461,0.30437854,1.0231354
-0.3085799,0.12040239,-0.26640458,0.30111314,0.11045189,0.23974768,0.13386335,-0.079394119,0.7536719
-0.16124193,-0.21100795,-0.063853441,-0.29721426,0.31192409,0.032486539,-0.16741348,0.17160879,1.0418272
0.15558212,-0.017374479,0.30618246,0.23361272,-0.053358771,-0.11725824,0.0088091726,0.18991501,0.85360796
0.090261215,-0.26048958,0.10441042,-0.24773924,0.011774674,-0.24210622,0.27826396,0.20672207,0.97470168
0.25931284,0.075076104,-0.06778113,0.11345417,-0.023385699,-0.088458804,0.20758326,-0.22365868,0.82860832
0.11656859,0.29414788,0.013940227,-0.30386351,-0.27611049,0.26106307,0.18601709,-0.14324743,0.72744683
0.12984397,-0.021244021,0.24730874,0.17012738,-0.02798106,-0.017510389,-0.18642735,0.014064426,0.90361664
-0.055609223,-0.13077202,0.12587165,-0.16714089,0.29131154,0.17687192,-0.24529243,-0.067316872,0.99203684
-0.23901296,-0.063538877,-0.29217216,-0.039192991,-0.2087336,0.31004,0.0033837147,0.013762012,0.8235658
-0.25041514,0.2435927,-0.22818851,-0.23877509,-0.28317855,0.19666933,-0.3068926,0.076920784,0.95693894
0.028677528,-0.29187996,-0.22377119,0.17359714,-0.29474549,0.021538011,0.27171349,-0.19933345,0.80532518
0.14033051,-0.26307396,-0.11860847,0.21477345,0.16461772,0.30204169,-0.23308612,0.12966941,0.96828047
-0.17283345,-0.0065356987,0.20207244,0.0074405645,0.24344608,0.22929225,0.087690915,-0.28322982,0.86330464
-0.12676048,-0.2875594,-0.24290603,-0.17778838,0.02561299,0.11971117,0.084680698,0.11546729,0.99726053
0.16476759,0.015364296,0.29216047,0.19362974,0.079332842,0.10967,0.087015831,-0.21711899,0.68059481
-0.25053604,-0.2558806,0.054270426,-0.052580514,-0.22528163,0.0014241503,-0.1656077,0.012434627,0.88931633
0.23164345,0.25510034,-0.19545158,-0.3048489,-0.060837141,0.059590126,0.082510014,-0.24128805,0.81466657
-0.22401551,0.24217347,-0.24031535,-0.085046414,-0.25694138,0.30854176,-0.11647339,-0.030843125,0.85897502
-0.11998756,0.10072714,-0.26434883,-0.030715631,0.066387669,0.16898792,0.21234743,-0.047114233,0.88290734
0.20483049,-0.014689118,-0.12105095,-0.13868603,0.033712939,0.25881459,-0.18593761,-0.085122145,0.95477104
-0.013114531,0.064907522,-0.063155486,0.28049636,-0.19988542,0.22270399,0.025521804,0.23823148,0.79459882
0.20832197,0.098904899,-0.096643172,-0.07860507,0.197482,0.17399847,-0.11442503,-0.1083786,0.91671999
0.27647535,-0.23619502,-0.078385718,0.23845889,0.30153929,0.19783989,0.1415686,-0.023679134,0.88087033
-0.2309707,-0.086397127,0.0039992308,0.21681129,-0.058543552,-0.059217254,0.2447862,-0.053019019,0.78366838
-0.046637131,-0.032716968,-0.18715275,0.19504934,0.18013302,0.26780429,-0.095958536,0.14581608,0.92152903
-0.12173442,0.27994733,-0.12906625,-0.024131921,-0.12582786,0.12520511,-0.090581833,-0.20592857,0.86257298
0.007933986,0.0021931352,-0.11678803,0.12204492,-0.12176569,0.15574495,-0.22209128,-0.2115132,0.82371348
0.26723524,0.062160792,-0.0030123858,-0.15390766,-0.088456426,0.082960638,-0.0089839088,0.095062407,0.82802093
0.30445054,0.28277606,0.021540752,-0.010405764,-0.27604889,-0.14231955,-0.16470926,0.27065776,0.80216877
-0.17417876,0.27692205,0.28288695,0.0017778429,0.1349837,-0.04185705,-0.13113557,-0.2817512,0.91987313
-0.26860816,-0.27430429,0.25151969,0.0081667433,0.055873819,-0.16981591,0.17467804,-0.084298113,0.92513085
-0.02862011,-0.25909794,-0.035704531,0.28501416,-0.26492662,-0.2732977,0.30959865,0.059899527,0.79584996
-0.20535714,-0.056507442,0.064772481,0.17104323,-0.035944075,0.13546322,0.15814859,-0.23109761,0.73832207
-0.083791505,0.29704185,-0.2449232,0.16632064,-0.29795998,-0.29599137,0.2158847,0.20767704,0.87637198
-0.28383305,0.17762553,0.14926435,0.28179931,0.086775146,0.29358957,-0.26885355,-0.3136011,0.85219503
-0.18777506,0.21092834,-0.1898888,-0.064022562,0.10257244,0.17447315,0.24530749,0.27039132,0.87728696
0.28429988,-0.22112944,-0.11685129,-0.076931109,-0.081426532,-0.17651708,-0.04830417,0.17773908,0.88598979
-0.30978918,-0.2239718,-0.022702195,-0.16373271,0.26083321,-0.051098098,0.093238862,0.19273071,1.0887472
0.067016046,-0.24700159,-0.10644944,0.27734456,-0.23767531,0.18542964,-0.16740077,0.14827529,0.87800526
0.16464013,0.20414589,-0.09396532,-0.10533847,-0.028503152,-0.13356184,-0.033973179,-0.1614452,0.91347427
0.12282788,0.1220018,0.10774495,-0.20805761,0.1896031,-0.15213801,-0.060568539,0.25741128,0.9923166
-0.24622904,-0.30221646,0.15786657,0.30327998,0.31365287,0.062742134,0.12840453,-0.22229688,0.81096551
-0.060251662,-0.28460214,-0.15636996,0.036915948,-0.12004418,0.031079633,-0.27343114,0.25994408,0.96790974
-0.18994079,-0.18619608,0.10692369,0.049341201,-0.082224306,-0.17214842,0.073390766,-0.13401342,0.87145007
0.22880019,-0.29081453,-0.0045535606,-0.21369094,-0.23930215,0.17226813,-0.18073993,-0.071647442,0.81305925
0.13540116,-0.029927016,0.12316786,-0.034928602,-0.084370707,0.018617229,0.22404581,0.30805862,0.86794951
0.13943873,-0.2779416,0.19111155,-0.099583598,-0.24826026,-0.26068964,-0.28667937,-0.19807353,0.83597877
-0.081462019,0.18383935,0.047570972,0.13902633,0.15314963,-0.14572321,-0.27371825,-0.19027356,0.90137299
0.028120195,0.27149261,0.13433983,0.23775777,-0.30950086,0.25270525,0.23599097,0.24475235,0.65050322
0.21091056,-0.047329527,-0.27417369,0.16469617,-0.15462061,-0.082776067,-0.05109952,-0.23928619,0.84616895
0.00027814271,-0.18014137,-0.28314984,-0.16108937,-0.29407398,0.069149377,-0.15846911,0.084808813,0.9351739
0.099660301,-0.25512301,-0.1410257,0.21038258,0.10096773,-0.2181412,-0.055526861,-0.24333657,1.0180099
-0.17214525,-0.043538732,-0.18789668,0.043285817,0.15394939,-0.21312881,0.018226018,-0.12737616,1.0170648
-0.12698319,-0.30645597,0.14923064,0.28989067,-0.025625568,-0.26070041,-0.22280074,0.18684864,1.0204703
0.15843316,-0.13453361,0.30185511,0.25662381,0.22983085,-0.24000723,0.16536136,-0.20734331,0.85284812
-0.027737467,0.21206905,0.23500556,0.29804325,-0.13518525,0.0034658491,0.17549488,-0.16448227,0.71366708
0.028741059,-0.2064974,0.12817245,0.25751378,-0.058637375,-0.18309739,0.21518497,0.14804952,0.82994628
-0.27999307,0.14729441,-0.14272595,0.25481259,0.27057692,0.04021605,0.14169705,0.03778358,0.93758201
-0.16741669,0.22630234,-0.29486865,0.21298668,-0.27420304,0.18334247,0.29001441,0.27868979,0.72019146
-0.25312112,-0.00064524211,-0.26529683,-0.062789482,0.19051443,0.013061314,-0.26149593,0.051879037,1.0447374
0.26625419,0.093610139,-0.10684035,0.17252608,-0.13131836,0.21892518,0.00029356977,0.31109945,0.88849491
0.27964366,0.11830681,-0.11590337,-0.20044712,0.097969089,-0.04272612,0.085613491,0.011599962,0.95806632
-0.24416022,-0.23579083,0.26953081,-0.25054801,-0.18478637,0.055293982,0.2697911,0.092631533,0.83842581
-0.03390252,0.21206303,0.18306047,0.25958793,0.056092526,0.2264386,0.10759455,-0.059504312,0.76389142
0.30925662,0.13855747,0.13266155,0.0048217559,0.14401879,0.15371549,-0.28410252,0.013457374,0.89774861
0.085568976,0.021334002,-0.061930956,0.028911125,-0.020568218,0.19784067,0.01839724,0.20671053,0.85047721
-0.08944711,0.19686016,0.15301716,0.14033256,0.047088012,0.30168667,-0.1328067,0.11807644,0.87229716
0.22867283,-0.096702107,0.051607932,-0.1384162,-0.27313555,-0.082692996,-0.2947233,0.28084862,0.85663821
-0.13509311,-0.25740362,0.20488723,0.2235502,0.22209533,0.17495768,-0.13129908,0.1512143,0.93517751
-0.23902743,-0.019576327,-0.10465145,-0.20982813,0.015269735,-0.27590941,-0.010880436,0.15707661,1.0235911
-0.19400482,-0.11980722,-0.068162469,-0.18272739,-0.28455139,0.27353721,0.042002355,0.1717151,0.87181026
-0.26761305,-0.30113245,-0.27079497,-0.29685119,-0.28389929,0.0064941513,0.30966748,-0.1005391,0.87828633
-0.097577408,-0.23863425,-0.04343278,0.012807961,0.20136055,0.073038591,-0.22889194,-0.038473703,0.95214649
0.032139233,0.2361391,-0.20523003,-0.18881743,0.10078429,-0.073414724,-0.054155625,0.14502584,1.0274789
-0.018013749,-0.27386722,-0.10690274,0.021527542,0.1196951,0.113257,0.21178553,-0.03353029,0.89356475
-0.26922089,-0.019684347,0.21357201,0.043381476,0.26508834,0.0293363,-0.28444956,-0.043778531,0.94481311
0.20079497,-0.2169741,0.27881934,0.23240142,-0.24795145,-0.10638757,-0.05825453,0.25400407,0.72428214
0.23032052,-0.099633167,0.028401537,-0.15249881,-0.28781013,-0.097339086,-0.1634982,0.14618285,0.85448605
0.1864725,-0.26249208,0.21572552,-0.25440899,0.30964062,-0.13639161,0.21672414,0.17368027,0.95338532
-0.0094915259,-0.28000361,0.30090816,-0.14435787,-0.23248816,-0.22784496,0.12016936,-0.12358278,0.89389744
0.31364023,-0.153485,0.10242561,0.24297926,-0.24021687,-0.099158338,0.05671478,-0.21315182,0.68846574
-0.10191558,0.019187565,0.083436258,-0.22042605,-0.032193609,-0.2168525,0.10182388,0.17498214,0.9079959
-0.098789252,0.15799253,-0.093771527,-0.13449535,-0.095729114,0.23585754,-0.18577225,-0.23414633,0.91955024
-0.05645572,0.053090969,-0.023635799,-0.18158548,0.085171895,-0.28334831,-0.1235264,-0.18884492,1.000249
0.13568321,0.29078936,0.26926312,0.30572177,-0.21357401,0.2035895,0.045934584,-0.016965179,0.64940604
0.054412051,-0.15105812,-0.21439245,0.25282843,-0.23785973,-0.30095822,0.13007951,0.10923585,0.91929675
0.16977376,0.22472493,0.042131289,-0.25318106,-0.13495701,0.064490858,0.23056862,-0.12356804,0.89191064
0.19316372,0.12925136,-0.014411427,-0.24099354,0.0074137907,0.048384908,-0.30185432,-0.21525568,0.88924874
-0.019209417,0.23037858,-0.31022014,-0.23709896,0.19651169,0.16096373,-0.2217186,0.055887345,1.0125953
0.25438207,-0.041139514,-0.0028508571,0.23662532,-0.21264599,0.036725927,0.087175686,0.26672388,0.81706164
-0.30813138,-0.28142035,-0.1621465,-0.29461748,-0.065351529,0.24386041,-0.07706632,-0.22447904,0.94547346
-0.30562778,-0.16234019,0.20237075,0.27784581,0.15875473,-0.02551662,0.19072606,0.18086906,0.83495131
-0.11086411,-0.076561264,0.048217405,-0.12112792,-0.050281306,0.2332208,0.057914518,-0.20982213,0.91959175
-0.27147429,0.22270048,-0.13271312,0.23768751,0.26331526,-0.14889865,0.2573823,0.16286418,1.028513
0.2652693,-0.29278088,0.01816749,0.055278138,0.14065401,0.0043506954,-0.036588985,-0.12673469,0.89795949
-0.16721736,0.22243638,-0.021801563,-0.22344938,0.2376492,0.23718806,0.17277813,-0.030043051,0.9319312
0.043729295,-0.065133123,-0.3008786,0.11825722,0.11408147,0.31295969,0.02736578,-0.2952968,0.83709161
-0.23151028,-0.27450781,-0.30291911,0.1365286,-0.21216322,0.14452744,0.12875569,-0.11081962,0.92217582
-0.048261133,-0.22419892,-0.096273635,-0.27719511,0.23147116,0.0437515,0.15922396,-0.26227169,1.0020704
-0.021471017,0.076764581,0.034337731,-0.27406373,-0.096144655,-0.22786733,0.31141908,0.18350152,0.94089658
-0.20854251,0.24436829,-0.31049078,0.01410093,0.13204589,-0.16476926,0.1271796,-0.30555498,1.0145554
0.030804713,-0.20755385,0.082035765,-0.0057267881,-0.22316451,0.085919687,-0.16196446,0.30083402,0.88543621
0.10886751,-0.22545285,-0.017864018,-0.19672885,-0.0081459046,0.11068912,-0.22181492,-0.26094248,0.9012479
0.17630825,-0.14372942,-0.029108773,0.063267279,-0.0073903147,0.07945497,0.26901315,0.032713376,0.78996141
-0.10916704,-0.25151029,0.1344465,0.29056568,-0.11646177,0.27061129,-0.22468494,0.18736851,0.874308
-0.14401089,-0.30100266,0.16453892,0.070273043,0.22613425,0.23474278,-0.188852,-0.0077303802,0.87410392
-0.10810782,0.26913312,0.17580326,-0.15981097,-0.060470918,0.10985583,0.22965474,0.13743508,0.82496509
0.12900689,0.055226666,-0.25666193,0.11873613,0.28465915,-0.28123122,0.046435187,0.17249547,1.0226912
-0.035333442,-0.27394558,0.2073884,0.077216571,0.25836451,0.21350084,-0.27131487,-0.28517944,0.91669749
0.17759428,0.13781043,-0.2402011,-0.043980624,0.080247083,-0.19224573,-0.21687206,-0.26100278,0.93981802
-0.18117001,-0.21945264,-0.19321023,-0.12127336,-0.15842761,-0.23916152,-0.093544776,-0.21694728,0.97479866
0.07584863,0.23518442,-0.31228432,-0.22518611,0.22765185,0.029212352,0.22838498,-0.26304444,0.98064854
-0.30895087,0.21963542,0.22366291,-0.073416244,-0.1769595,0.29676751,-0.096548408,-0.17870458,0.79159953
-0.29943174,0.011947225,0.25335668,-0.0035749298,0.082810917,0.12765121,0.20883436,0.057629138,0.87584409
0.07531305,0.14905381,0.25298269,-0.20174069,0.10418079,0.11533667,-0.25839614,0.018007921,0.9699148
0.29865909,0.22900147,-0.25541387,-0.10986981,-0.30801854,-0.31115065,-0.2644636,-0.27597702,0.77362289
0.12731723,-0.043512154,0.27762634,-0.29826246,-0.28516639,0.011676052,0.30163948,-0.29556604,0.70609627
-0.17142135,0.014147957,0.11449,-0.15382336,-0.010216813,-0.2115504,0.29294586,0.2895445,0.94248812
-0.23814157,0.28031309,-0.30622625,0.22158958,-0.18301006,0.12704434,0.037123128,0.047436773,0.79366623
-0.2322528,0.25472725,0.18037512,0.090899304,0.19079714,0.010896552,-0.1583705,-0.076788346,0.9331662
-0.18842832,0.21450839,0.13803343,-0.090006535,0.10798982,0.023472622,0.27823438,-0.26079576,0.83882215
-0.25682063,0.014940279,-0.007028229,-0.089060178,-0.017910492,0.1209336,0.12396961,0.032843366,1.0104531
-0.18942319,-0.017401865,-0.16575516,0.038510838,-0.11942036,0.056374028,0.31311993,0.08686897,0.95646709
-0.017570492,-0.054112825,0.0018262603,-0.042387099,0.089148268,0.0073700392,0.20179063,-0.12635123,0.82870387
0.27989273,0.26298576,0.092700123,-0.29076195,-0.16391506,0.14812178,-0.25993983,-0.16609652,0.85573914
0.12819789,0.20956826,0.12281752,-0.042801785,0.30427645,-0.26686218,0.077582574,0.03623958,0.98186625
0.18947702,0.2253022,0.11291425,-0.1563033,0.059717079,-0.031900702,-0.16845741,0.092755456,0.93345857
-0.27705213,-0.056660809,0.058514904,0.046550832,-0.096512686,0.045571112,0.079475365,-0.075530162,0.93185063
0.053521686,0.2326708,0.14149687,0.12325802,0.22973939,-0.0066149236,-0.062742959,-0.23200861,0.93968605
0.25213578,0.17840802,-0.24766038,-0.26030332,0.31249257,-0.060428304,-0.24349844,-0.27687814,0.98916193
0.043084887,-0.25272139,0.01658698,-0.094385578,-0.07620515,-0.26026591,0.17789383,-0.16380399,0.93087532
-0.31265745,0.15447616,0.092731058,-0.24350949,-0.19659551,0.20199585,0.0018631147,-0.14673489,0.97526106
-0.26908053,0.22580375,0.09395424,-0.19141337,0.0013009334,0.21361056,0.28882976,-0.13688203,0.82541065
-0.074255972,0.0055842744,-0.13832337,0.17958481,-0.052669471,-0.11501667,-0.29568619,0.026522531,0.95590998
-0.17950829,0.098314528,-0.16541596,0.2522003,-0.11556217,-0.21689113,-0.10227828,-0.27055074,0.8941146
-0.21477017,-0.19458589,-0.28190859,-0.15265102,0.26735631,-0.070303245,0.13840654,0.21044077,1.1085839
0.20938223,-0.29476906,0.069744303,0.31239031,0.14093168,-0.17910636,-0.22050908,-0.23934692,0.88117106
-0.26979041,0.2918793,-0.2630432,0.047568294,0.23209747,0.21276159,0.22795202,0.21824788,0.85355447
-0.010434852,0.22492597,0.30387387,0.076881552,0.075686297,-0.17860066,-0.20334376,-0.11362189,0.9070415
-0.22583266,0.13783729,0.07677492,-0.030191165,0.28970602,-0.25455352,-0.21686428,0.29888527,1.0043571
-0.16897967,-0.30207923,0.30011808,0.28114648,0.27238247,0.12294281,-0.31262962,0.2449155,0.92314403
-0.041502312,-0.23184849,-0.056575976,0.2736001,0.003324523,-0.23988556,0.2618183,0.18013657,0.90803056
0.0064113478,0.30755479,-0.18087229,-0.22848088,-0.2163961,0.00093401278,0.16098257,0.22421181,0.93440101
0.28379287,-0.28564399,-0.30976691,-0.22233784,-0.21503349,0.30616734,0.2700989,0.29592884,0.85645723
-0.0030151843,0.21751321,-0.18471283,-0.051314795,0.11072839,-0.28880287,0.285483,-0.2911155,0.8613258
0.12750771,-0.12177431,0.20475887,-0.11242668,-0.040767022,0.1697005,0.28253322,0.11828852,0.8109877
-0.17432033,-0.27487046,0.24432053,-0.027175618,0.088293686,-0.053011491,-0.28636427,0.17442515,1.0270251
-0.056962784,0.25925502,0.06059967,0.21376936,-0.29643359,-0.007466488,0.058968798,-0.0970297,0.75912512
-0.086093274,0.14943638,-0.038414412,-0.13878203,-0.18677243,0.12823814,0.1117011,0.15929924,0.86523575
0.047921101,0.18802889,0.28042741,-0.19120109,-0.0047919539,0.16578565,-0.0554231,0.077093378,0.87199824
-0.24348001,0.23319499,0.28019418,0.0070305439,0.087414171,0.27344815,-0.049999506,-0.044975411,0.86136088
0.070041732,-0.14273445,-0.0237572,0.038468137,0.16125305,-0.30704982,-0.27982714,-0.034537763,1.0159698
-0.24096267,0.24499289,-0.14408174,0.10768547,0.29832285,-0.24314364,-0.070463661,-0.24783536,1.0714015
-0.13168221,-0.26948315,0.29353805,0.00093813148,-0.06462107,0.12630524,-0.20829578,0.14708029,0.90581251
-0.24505733,-0.28340376,-0.063132425,0.059212434,0.27641617,-0.2760691,0.16365143,0.17337798,1.016795
0.097936817,-0.26691378,-0.25515714,-0.21777214,-0.11623157,-0.19262264,0.23345424,0.31345052,0.92070649
-0.17046152,0.17440385,-0.15203709,-0.1409027,-0.061634812,-0.31158041,-0.18378132,-0.2879974,0.99223779
-0.046858839,-0.29882329,-0.1637093,0.082824193,-0.29124429,0.24066821,0.11749424,0.035576396,0.79786887
0.1865176,-0.15733212,0.045402598,-0.11962851,0.28124777,0.16669468,0.093306207,-0.30939937,0.92806968
0.029948755,0.22095853,0.16023258,-0.28918125,-0.0035896772,-0.0070815653,0.12484414,-0.23257414,0.91857647
0.22882645,0.079642552,0.22648351,0.16841783,-0.071599453,0.11726981,0.033473312,0.15188829,0.77547701
-0.051649742,0.23389906,0.15471918,0.023482459,-0.14202766,-0.081599401,0.24086411,-0.071672305,0.89384647
0.16405334,-0.2426351,0.23216026,0.26722092,-0.25897094,0.1595692,0.034480832,0.16864314,0.67761775
0.0069165159,0.0052190087,0.048653283,0.15342674,-0.067039795,0.051378181,-0.074796582,0.24989589,0.83321195
-0.22431006,0.13427222,-0.27101274,-0.13978631,-0.047004373,0.083875101,0.225777,0.21113455,0.96090851
0.12218923,0.21525758,-0.083053153,0.18118003,0.1920008,0.02540944,0.13007644,-0.11697736,0.93336831
0.27663303,0.13420512,-0.29318562,-0.084446067,-0.31025286,0.16893869,-0.17766488,-0.28710026,0.85270814
0.28595815,0.19629621,0.07149114,0.11888966,0.17327094,0.24468558,-0.27149089,0.26341171,0.94928189
0.058500952,-0.10172003,0.28420016,-0.26203786,-0.064678584,0.17577678,0.18969237,-0.083149498,0.76758683
0.19985369,0.21852594,-0.30508302,0.24095456,0.27505968,-0.14443499,0.28580384,0.14973227,0.94596382
-0.26854615,0.10281943,-0.085642313,-0.23569959,0.14461789,0.29283216,-0.25983174,0.20239894,1.0278577
-0.24321941,0.21021849,0.087403208,0.14528811,0.25686225,0.011058199,-0.17833026,0.0024092858,0.89817213
-0.25832426,-0.14554998,-0.15420604,0.14626349,0.23358023,0.095218971,-0.23779067,0.2566568,1.0327447
0.035977202,0.20533046,0.01575761,-0.094233237,-0.067629297,0.081095396,0.15911666,-0.291438,0.87711377
0.17943596,-0.16473937,-0.086257145,-0.20321854,-0.30970711,-0.18798934,0.00021316925,-0.11615392,0.86367035
-0.14873057,0.22522491,-0.19298651,0.045563969,-0.25660579,0.27703498,-0.18717553,-0.01333725,0.84439989
-0.26349313,-0.26400405,-0.14404433,-0.12665978,0.0048718483,0.2866046,0.13179943,0.15056129,0.96095387
-0.14195901,-0.089438718,-0.12326588,-0.020216272,0.0047695672,-0.13779691,-0.15758782,0.066799119,0.93485729
0.066948841,0.18927374,-0.20828351,-0.20598246,-0.10741624,0.17381773,0.034419778,-0.25108322,0.8094605
-0.16720254,-0.2588678,-0.061163318,-0.24690639,0.10762132,-0.12872915,0.21614568,-0.28887314,0.9433484
0.065253028,-0.12744494,0.22802468,0.080499125,-0.15704193,0.23993838,-0.1021122,0.29145787,0.81500225
0.29180681,-0.029166731,0.29602259,0.17899629,0.16249907,0.096020799,-0.26187734,0.16107613,0.85943412
0.040509642,-0.0044815634,-0.15942304,0.039795719,-0.26716153,0.27455316,-0.18229539,-0.20894952,0.81562592
0.26937654,0.11104048,-0.28105299,0.23704826,0.24295557,-0.11187537,-0.14307165,-0.072429647,1.0519454
-0.2518249,0.15135597,0.041041462,-0.097692456,-0.087900139,0.26808741,-0.030123013,-0.27208095,0.89654281
-0.037163621,0.078557813,-0.03777171,-0.28415232,0.26773408,0.090873484,0.24981582,-0.292346,0.93697306
0.18909219,0.23210771,-0.13822165,-0.29076375,0.30749108,0.29961098,0.27609408,-0.20969018,0.93793027
-0.13637454,0.1883866,0.13503232,-0.1930072,-0.088385729,-0.20936023,0.26101597,-0.085438401,0.88083507
0.070841294,-0.27003571,0.14260782,0.051856859,0.12263001,-0.28906678,-0.038606789,-0.2227631,0.95852958
-0.30159181,0.0056415293,0.073500554,0.25392059,0.21392965,0.15438453,0.079736625,0.28856121,0.87471948
-0.31047687,0.08457686,0.2172535,-0.18238738,0.1013707,-0.27627559,-0.26447472,0.16045026,0.94202295
0.26787234,0.064988702,-0.15550248,0.28411867,0.064322185,-0.06594148,-0.20385362,0.18283952,0.89208702
-0.13574873,-0.11492047,0.15051285,-0.1793244,-0.16362422,0.02105494,0.16603551,0.247208,0.88085891
0.027542015,-0.041646785,-0.0042844533,-0.04100666,-0.28314229,0.14452408,-0.2779895,0.16068996,0.81030944
0.14088536,-0.1773042,-0.24400946,-0.028827733,0.1038999,-0.10773472,0.090242402,-0.11433352,1.0096961
-0.27223254,0.16307174,-0.031954293,-0.074127661,0.14846072,0.1165771,-0.056879373,-0.20537985,0.95931258
-0.007425803,0.17552539,-0.16839258,0.045388759,0.19865346,-0.14181541,-0.10069424,0.18377137,0.93348559
0.11138161,0.17523167,-0.28799526,-0.0070047029,-0.2811329,-0.19722597,0.096606941,-0.037624734,0.88930824
0.22974746,0.18967412,0.2296916,-0.23247723,-0.045336855,0.23170924,0.097780982,-0.27046359,0.81274328
-0.22959169,-0.1784532,-0.21258246,-0.27432053,-0.046642717,-0.20059581,-0.2146556,0.30429984,0.99640108
-0.24342017,-0.29853909,-0.25428664,0.096218366,0.21738626,0.14347138,0.08838335,-0.14535517,1.0492912
-0.17773485,-0.19446717,-0.14460506,-0.26415787,-0.014973608,0.11935192,-0.055989072,-0.25108015,0.97173173
-0.14286487,0.15791551,-0.26453874,0.080810035,0.10281501,-0.040570665,0.077095175,-0.24964692,0.99518417
0.25351395,-0.29709712,0.15143934,-0.0052128202,-0.31384701,-0.093697663,-0.079966682,-0.22281806,0.82519645
0.15364808,-0.089099852,-0.035760331,-0.01138678,0.29697442,0.20136352,0.012797452,-0.11136177,0.92164676
-0.15317572,-0.045697149,0.11147377,-0.12186985,-0.1186583,-0.22278284,0.12869365,-0.28461476,0.89000892
0.29135476,0.067997612,-0.22195732,-0.18827403,-0.051169147,-0.3015927,-0.27294695,0.17169863,0.91023961
-0.26086635,-0.088924042,-0.063884095,-0.046072201,0.24981936,0.095221406,-0.17059138,0.027864582,1.016492
-0.24516749,-0.033224602,-0.24614172,0.17316845,-0.10619007,-0.28254735,-0.27977808,0.22695035,1.0181862
0.15918508,0.025532611,-0.095047235,0.21510445,-0.14983465,-0.21237534,-0.083609474,0.28101232,0.83752173
0.043298214,-0.014962574,-0.2731722,-0.084267564,0.029774227,0.085215069,-0.30419953,-0.096273462,0.93694163
0.12021746,-0.14857102,-0.081666709,-0.054977918,0.27387844,0.27172833,-0.053597625,-0.14786287,0.81614062
0.20895655,0.22613868,0.27130162,-0.24159915,0.18740541,-0.031949591,-0.1187658,0.25040223,0.96963212
0.3072664,0.24272632,0.2414059,0.15997406,0.17226467,-0.16399046,0.0057427658,0.055835849,0.86717379
0.098165303,0.013432307,-0.28037699,-0.0012511746,-0.03266917,0.037431039,-0.27378563,0.10064006,0.93019152
-0.05201066,0.26816969,0.16550162,0.066488968,-0.1037964,0.1932846,0.25041166,-0.22428618,0.76525575
-0.15208592,0.19907882,0.019509952,-0.2985862,-0.29385262,0.12744129,0.19132966,-0.29500406,0.85460036
-0.18052461,0.18470493,0.03406247,0.29394818,-0.26908167,-0.1891968,-0.27271467,0.24668063,0.91142721
0.024369832,-0.032854381,-0.20920144,0.090297657,-0.16855165,0.16516105,0.17459687,-0.15904765,0.74982827
0.060129782,0.21243707,0.17789765,-0.23958211,-0.24110789,-0.13617231,-0.018308409,0.21010126,0.88994035
0.18855024,-0.030873379,0.21667168,0.10520456,0.1983644,0.24318886,-0.036654601,0.20962139,0.83029072
-0.27483457,0.10222341,-0.13324582,0.084706409,0.052396295,0.063075437,-0.30172082,0.1246888,1.0006307
-0.019321665,0.07576333,0.073797037,-0.15860153,0.11702349,-0.23006391,-0.24165395,0.30450974,0.88400379
0.23225882,-0.20278216,-0.1419198,-0.28217708,0.21454864,0.057003777,0.053392548,-0.063043724,0.94324046
-0.28426532,0.18322064,0.27752824,-0.095730678,-0.096884268,-0.14890982,0.17035164,-0.2709862,0.93423953
-0.0083166224,-0.16562544,-0.21287418,-0.16155616,0.15886089,-0.096552345,0.14174825,-0.030391542,1.0178387
-0.29075935,-0.21564007,-0.13067491,-0.31006693,0.24955841,0.19150702,-0.22099701,0.032311033,1.1024483
0.25907935,0.039706192,0.27234043,-0.15243296,-0.056371595,0.11811188,-0.22062353,0.14030817,0.8618938
0.15069779,-0.21552747,-0.14911529,-0.012644283,-0.074419315,-0.093641043,0.13866134,-0.15433722,0.98392517
0.072406579,-0.089216648,0.26646732,0.30514831,-0.30834405,0.24875873,-0.081673046,-0.23566396,0.65997296
-0.26469949,-0.01834926,0.24486546,-0.007091186,0.20601579,0.21014456,0.0068706423,0.25384141,0.88988199
-0.0085273543,0.10841628,0.27327659,0.035139407,0.24832089,0.28333672,-0.14808857,-0.020975663,0.9064248
-0.062618979,0.028620344,-0.048874483,-0.031403419,0.23746249,0.014175175,-0.15485612,-0.051273481,1.0411098
0.078919959,0.03476905,0.11141734,0.28292334,-0.21469015,-0.28610989,0.22226342,-0.23806973,0.71801602
0.077769352,-0.029542168,-0.033896676,-0.29462011,-0.22612149,0.13323865,-0.18634101,0.088946005,0.84988517
0.020351458,-0.18951753,0.21676943,-0.22223262,-0.16183609,-0.043298674,-0.11399514,0.11039542,0.90865996
0.016225137,-0.21828386,-0.20090096,-0.012291479,-0.10165039,0.080942131,-0.22268011,-0.17559814,0.91617244
0.0056268799,0.055010405,0.041322854,0.13391707,-0.040085591,0.084782687,0.3088243,-0.065785349,0.73376303
-0.28014398,0.22251659,-0.035313874,-0.29198895,-0.12467407,0.2358478,-0.10737439,0.040824297,0.94927179
-0.27943389,0.032402661,-0.27739932,-0.24497795,0.063258884,-0.2987453,-0.26871277,-0.16593073,1.0934456
-0.022100557,0.047914087,-0.12971949,-0.17208941,-0.13184337,0.20723478,-0.01621908,0.16664688,0.95295218
-0.10781405,-0.21230032,0.069842706,-0.15655101,0.18788428,0.22537266,0.096169311,-0.20991986,0.86514084
0.25988106,0.14498873,-0.038507138,-0.15734606,-0.1546593,0.11722191,0.18442872,-0.24792753,0.77785394
0.24425961,0.017093815,-0.092323725,-0.28340798,-0.024236619,-0.10697267,-0.055492938,0.10515024,0.93830079
-0.15692462,0.29216536,0.14281576,-0.29770552,-0.0096542375,-0.088072005,0.074226343,0.11109651,0.92027274
0.23603252,-0.13484457,0.18053377,0.23348424,-0.011239415,0.28240488,0.22669613,-0.10792015,0.61507375
0.12383217,0.096260724,0.17456145,-0.021414346,0.041551502,-0.06741515,0.24108129,-0.12857917,0.87891876
-0.12766803,-0.12699375,-0.26559069,-0.051744425,-0.2540356,-0.13438112,0.2601352,0.17044191,0.97595901
-0.15232776,0.19759735,-0.028093169,-0.15507138,0.19771607,0.17656039,0.16109123,0.14663276,0.95391622
-0.17623094,-0.081498875,-0.25722239,-0.13235543,0.028777963,-0.068510765,0.26854191,-0.044529081,1.0038996
-0.019915995,-0.017194604,-0.30518486,-0.25014671,-0.13405187,0.2474354,0.17186717,-0.072894017,0.9406436
-0.14044827,-0.18367526,-0.017168943,0.23278025,0.22059145,0.093107361,-0.079386227,0.27516641,1.0265478
0.078602795,-0.10120356,-0.16022069,-0.20178885,-0.22719237,-0.28603756,0.30424724,0.2974104,0.98162322
-0.07084261,0.30559549,-0.12664046,-0.067953101,-0.25027723,-0.039340487,-0.12958783,-0.083689764,0.9447947
-0.10304522,-0.25665694,0.140603,0.14925898,0.2049341,0.12414707,0.079784753,0.21050341,0.82708552
0.11207092,-0.13860381,-0.012996859,0.091780874,-0.15713656,-0.13780486,0.16190996,0.096548825,0.85095121
-0.12295786,0.29093217,0.21663947,0.0391638,-0.17138941,-0.10417883,-0.026836062,-0.25066398,0.76032734
0.098454454,-0.21726062,0.15726919,-0.24905919,0.025625532,-0.28087356,-0.2247103,-0.037921608,0.94004335
-0.16865547,-0.29657829,-0.23367008,-0.26226398,-0.13801126,0.11998467,0.09954487,0.18780778,1.0245683
-0.24763957,-0.14041733,-0.30224081,-0.2161653,0.19672509,0.30814242,-0.16161628,-0.18688409,1.075559
-0.096272768,-0.029724603,0.19397756,-0.15242063,0.14642008,-0.2799133,-0.063804149,0.0034964434,0.93895943
-0.13618884,-0.068177299,-0.16392372,-0.078873732,-0.24139506,-0.28203632,0.18339905,-0.29721754,0.87643021
-0.070680979,-0.026605749,0.0013819445,0.15727886,0.2592986,0.076630763,-0.21929569,0.029682659,0.97948379
-0.25621697,0.043130556,0.24973459,-0.095138412,0.068060241,-0.16515771,-0.29386665,-0.27616595,0.92248186
0.26331991,-0.022604692,-0.18191895,-0.209149,0.012349896,-0.068218714,-0.080792544,0.10138722,1.0166288
-0.31084847,-0.27316505,-0.21196544,0.020414646,0.19978513,0.016644082,-0.1626234,-0.083847613,1.0540416
-0.16710289,0.25349077,-0.26124251,-0.13752505,-0.1685548,0.31320852,0.16777566,0.029239418,0.88648954
-0.10147199,0.10211839,0.10534195,0.07398962,-0.065237319,0.13978125,0.29837315,-0.025103177,0.79281478
-0.21861005,-0.060455951,0.19101543,0.10726127,0.15301198,0.18943451,0.18627977,0.12454349,0.84093717
0.28458167,0.31164841,0.0039261419,-0.25757125,0.0032483228,-0.15806818,-0.26792857,-0.097753901,0.94714203
0.17377065,0.28897926,-0.19871276,-0.14828097,-0.2513802,-0.025708139,0.20651352,-0.31084334,0.79849675
0.1388256,-0.027807479,-0.25243081,-0.24689193,-0.13327722,0.20645725,0.041097044,0.12453236,0.82749473
-0.049510679,-0.30360941,0.10037326,-0.17917288,0.25308207,0.24155583,-0.13309593,-0.30299602,1.0076067
-0.063213705,0.22913761,-0.086335466,-0.24123649,-0.16289824,0.23736605,-0.07353893,-0.18946767,0.9803224
0.049202594,0.19834659,-0.18822233,0.1715959,-0.079176042,0.14668115,0.13958791,0.30878575,0.86295834
0.033198773,0.22352992,-0.10814009,-0.20378156,0.21387731,0.1042416,0.017780929,0.062039635,0.99748759
0.28726343,0.066765731,-0.017875374,0.29894383,-0.10687883,-0.015800332,0.22848318,-0.080653887,0.80368403
0.036890278,-0.045249753,-0.095147021,0.31401015,0.050118313,0.22256331,-0.16605173,-0.26680392,0.73553729
0.089063335,0.28312954,-0.14975151,0.2967913,0.19370744,0.27185689,0.1932944,0.18118019,0.77980457
0.021534331,0.066584852,0.31212968,0.084834735,0.028176208,-0.29976886,-0.24388936,0.13259493,0.87848739
0.065503454,0.25896219,-0.29342755,-0.091258364,-0.17182473,-0.061789435,0.23990121,-0.22625188,0.79711248
0.27220948,0.0089781891,-0.31367052,0.015240907,0.029841495,-0.060770355,-0.27886747,0.24336391,0.9064199
0.10701593,-0.041657939,0.10434235,-0.19235595,0.1718427,-0.11934217,-0.27113581,-0.27336433,0.93806492
-0.22880631,-0.030747398,0.24716716,0.082113905,0.21856549,0.10770056,-0.11391929,-0.24530786,0.86144641
0.28950529,0.093061387,0.11467135,0.22293531,0.045916972,0.057182304,-0.039241423,0.13573374,0.82827189
0.0079372626,0.20411447,0.04590155,-0.18661002,-0.29345946,0.055629358,0.26257618,-0.19738157,0.81678515
0.22520118,-0.10876492,0.053087314,0.03296453,-0.039699201,-0.084178022,0.29868928,-0.11742329,0.78469007
-0.025924644,0.18543071,0.22287441,-0.30879965,-0.25541783,-0.052424475,-0.12943967,-0.28878068,0.81699723
0.25837139,0.067253423,0.0028801084,0.10343008,0.049079886,-0.092728064,0.1638738,-0.067330887,0.88121032
0.13856567,-0.016749148,0.025455229,-0.20806432,-0.096593794,-0.25062303,0.30691749,-0.02854385,0.86471359
-0.016395868,0.24120884,0.1517491,-0.20831191,0.24939922,0.21003752,-0.15144812,0.27034052,0.93383527
