JohndKim/Relevance-Aware-Algorithmic-Recourse/datasets/pumaRobot.test.csv
"theta1","theta2","theta3","theta4","theta5","theta6","thetad1","thetad2","thetad3","thetad4","thetad5","thetad6","tau1","tau2","tau3","tau4","tau5","dm1","dm2","dm3","dm4","dm5","da1","da2","da3","da4","da5","db1","db2","db3","db4","db5","thetadd6"
-0.269351,1.622452,-2.047811,1.720603,-1.749964,-1.618348,0.327188,-0.317671,0.046938,1.911881,-0.80316,2.281413,-31.820684,-60.239108,61.312743,-16.728557,-56.860861,1.2176,1.947443,1.424887,0.571197,0.853634,0.27124,1.723625,1.718983,2.438604,1.113059,2.18027,1.794781,0.627965,0.961728,1.258398,0.003834
-2.228374,1.786055,0.304217,0.031585,-1.643102,-1.011521,1.668651,1.586223,1.661224,-0.71159,0.344496,-1.588419,-27.791741,4.20388,4.613673,-8.003721,31.470057,1.633638,1.295397,2.236482,1.551616,2.004339,1.420437,2.277906,0.267256,2.27258,0.745151,1.757535,2.388301,1.674575,0.839515,1.4857,0.001888
-1.343737,2.294629,-0.36901,-0.453836,1.74239,1.55663,-0.897989,1.2874,-1.951639,1.737758,-0.896182,-1.329748,56.624365,-64.301235,39.143507,-15.08015,47.921645,2.411231,2.302139,0.305917,1.79044,1.929076,0.978193,1.237993,0.450371,1.891675,2.382647,1.14871,0.611101,1.031307,0.673738,0.756461,0.001927
-0.922407,0.857579,-1.873574,-0.981105,-0.783243,-2.255939,0.324079,-0.727312,0.00388,-0.758561,-2.125854,0.105586,-63.450075,-55.418833,-74.331096,67.261691,67.23346,2.016356,0.89969,0.342891,2.22126,2.21771,1.058107,1.113253,0.947311,1.961948,2.202564,0.73746,0.747175,2.022986,2.078472,0.873429,-0.038949
-0.327488,-0.017718,-0.906712,0.757062,0.484575,1.236466,-0.352568,-2.138922,1.95114,-0.705228,-1.10042,1.371851,-32.252242,36.570264,-63.57085,14.717209,2.129847,0.570186,1.8688,0.424185,0.519766,0.450781,2.033368,1.073135,1.671893,0.763045,0.99224,1.0808,2.248817,1.868345,1.782193,0.564604,-0.009839
0.89315,2.21186,-1.298749,-0.290286,-1.511595,-0.889229,-2.28475,1.457406,-0.375322,1.845831,1.231515,1.267685,40.36837,21.18789,4.871813,-19.441443,-52.327871,1.007067,0.532415,1.541664,1.251848,1.554804,1.595872,1.067014,2.307956,1.31461,1.146794,2.161084,1.089741,1.76894,0.571326,0.776044,0.003106
1.949928,-2.224216,0.981995,1.599287,-0.241385,0.408522,0.074118,1.623495,1.353547,-2.344009,-0.181006,2.04311,-20.198023,-18.17241,-23.703271,19.124521,-24.168347,1.413995,2.01243,2.403387,0.979604,2.461248,1.451871,1.844089,1.348608,1.051301,1.461383,1.960275,1.098618,2.464999,1.488644,1.140096,-0.01663
-0.994741,0.938109,-0.849445,1.924179,-1.451136,2.077644,0.168883,1.556334,-1.166475,-1.412337,-0.846954,1.378359,-0.583482,-56.575883,-20.858677,-21.792318,36.518889,0.969528,1.855164,0.747813,1.48564,2.40462,1.443496,0.578602,1.568215,1.995923,1.724138,1.341092,0.732703,1.789684,0.470369,0.491481,-0.006858
0.506754,1.725089,-1.763008,0.620541,0.91085,-1.888292,1.415008,-1.390746,-0.825304,-2.327402,0.892673,-1.095686,26.201432,-32.540774,-12.781177,-13.246755,-38.205311,1.875068,2.260032,1.356474,0.51471,0.980689,0.434352,0.411806,1.721914,2.208719,0.690113,1.48111,0.511979,2.328411,0.849639,0.626509,0.013721
-0.252992,-1.466912,0.833705,2.153064,0.109638,0.137438,0.841578,-2.182687,1.52385,-0.4898,0.469172,1.555127,67.28839,65.975559,51.223406,61.79244,-54.463137,0.445934,1.567585,0.40664,0.393914,0.255522,0.814645,1.982325,0.443588,0.390822,2.293222,1.185385,0.512309,1.12616,1.871146,1.603765,-0.070124
-0.484229,-0.144539,2.318096,-1.793062,-0.265226,0.270858,0.1426,-1.929328,-0.26316,2.000639,1.846167,2.162235,-39.834439,-47.420069,-39.106788,32.206193,-60.520312,1.151867,1.93286,1.575876,2.498623,1.857941,2.40907,1.993319,0.716149,0.308418,1.082594,0.913037,1.917576,1.19168,0.562761,0.822124,-0.024441
1.876758,-2.061053,0.645338,-1.7185,-0.596486,-1.883824,1.107543,0.536358,-0.228857,-1.089455,1.879717,0.544114,-58.079122,64.200867,73.972994,64.107343,2.120687,0.510863,1.579422,1.339567,2.104664,2.338422,0.355738,2.14175,2.399319,2.362223,2.126781,0.564546,1.569619,0.839151,2.106825,0.416683,-0.061501
0.312604,-0.371304,-1.298985,0.451543,2.132337,0.461426,-1.410851,0.571418,-0.031511,-1.812571,1.718996,-0.484174,24.995756,-46.336182,27.791743,-4.171009,-52.154962,1.848191,0.547907,0.930698,1.749032,1.227329,1.216862,0.791335,1.715216,2.132725,1.455975,1.078237,1.932892,2.110548,2.232811,0.607836,-0.011346
-0.393181,-1.423194,0.460938,-0.179348,1.620749,2.323024,0.920344,2.163717,0.090555,-0.141733,2.3558,0.434669,40.78433,-37.758676,39.92556,-71.109341,65.297763,2.267582,2.247816,0.786167,0.36258,2.381456,1.373854,2.3635,1.09643,1.694181,1.841704,1.770299,0.91702,1.359781,2.093579,0.537618,-0.00152
-0.301183,-0.875968,-0.895629,-1.464745,-0.448619,-0.124824,-0.904372,-2.319304,0.344405,1.605731,-0.329231,-1.039872,35.914059,7.581983,-69.609601,71.441837,-27.04706,2.425836,0.274168,1.449664,0.758098,1.10917,2.077377,0.468826,1.559294,0.552559,0.35535,2.375048,1.677529,0.973545,1.872596,1.229834,-0.059609
-1.672767,-0.077,1.767919,1.803387,-0.555826,-1.808272,-1.43962,-2.288282,-1.354503,0.414898,-1.140808,1.142057,31.84263,-20.912327,-23.472233,2.178021,5.995775,0.939805,1.800724,1.525593,1.148274,2.291554,2.400133,0.279899,1.004443,1.425126,2.345968,1.180604,1.16412,0.858505,1.149768,0.397107,0.002074
2.295651,-2.040699,-1.257617,-1.704735,-0.152339,-1.533687,0.082816,1.736822,2.226512,-0.096202,-0.522183,-1.856116,8.591655,-50.046887,61.96464,-10.292133,-29.88062,1.321194,1.551064,1.731917,1.572676,0.466046,2.09107,1.114204,1.181583,1.860477,2.294007,0.879546,1.524944,1.475734,2.417888,1.695437,0.011708
1.663296,1.116368,-1.940541,-0.223596,-2.207027,-2.291497,1.166934,-0.304997,0.988522,-1.795675,-1.763567,0.659647,-49.83974,-56.509822,39.420197,-14.745844,-33.394033,2.072293,0.526962,2.145293,1.19131,1.090081,0.744843,1.07039,0.536151,1.340342,1.62238,1.081623,0.333324,1.171268,1.753624,1.90649,-0.012442
-1.214534,1.398799,-0.487246,0.987551,0.739543,-1.780817,-1.816636,-0.638159,-0.140127,1.078245,-1.783061,-1.827761,27.928999,52.678331,64.705605,7.101421,-46.412111,0.649812,1.382723,0.671326,0.727565,0.929229,1.801752,0.789059,1.720778,1.117193,1.915668,0.631128,2.374579,0.554168,0.399637,1.957146,-0.018009
2.098992,0.810027,0.02969,-0.520477,-1.470674,-1.1448,0.029116,-0.734595,0.112656,-0.966513,-0.580094,0.287841,-59.603823,-61.445599,33.812579,-61.976454,-38.264812,0.374665,0.739925,1.671295,1.948009,1.93787,0.278836,1.145183,2.091193,0.931769,1.735801,1.607791,1.141871,0.42875,0.748568,0.687162,0.01273
-0.008226,-1.600063,1.342151,-0.675188,-0.451355,1.024484,-0.569923,1.587816,0.173338,1.029059,0.924539,1.975163,-70.772215,31.382882,52.10039,-48.743332,70.826083,0.984626,1.35136,2.311559,1.117411,1.071911,1.356731,0.324048,0.521636,0.386748,1.315483,2.319452,1.023237,2.290843,1.694066,2.170544,0.053207
0.313677,-1.191966,-0.997893,-0.202032,2.081158,-2.040364,-0.338293,2.1606,-0.469487,-2.122054,-2.004052,2.056097,27.806466,-56.722345,67.554096,31.699511,-26.323439,0.35433,0.97326,1.583492,2.258051,1.815119,0.450698,0.636244,0.604884,2.287802,2.334744,1.548854,0.581652,1.079154,1.583414,0.934305,0.019409
-1.81335,-1.960008,-2.256632,-1.905396,1.41004,-0.066795,-1.068342,-1.412966,-1.99615,-1.79349,1.963204,-0.57442,44.605899,-8.663625,40.45843,34.841358,-21.28881,0.609609,0.705725,0.626287,2.00482,0.50768,2.082257,1.492754,0.474688,1.079696,1.705681,1.630947,1.069335,0.812624,1.766268,0.671283,-0.001204
-2.238318,-0.409173,-1.60245,-1.06531,-2.306474,-0.804241,-1.754703,-1.161473,-2.157038,-0.922,-1.717015,0.792196,61.970536,-61.200907,-53.637382,16.518283,-27.212094,1.320112,1.363425,0.335469,1.220368,1.229008,2.436994,1.05803,2.062558,1.156149,1.891031,0.552539,2.269206,0.294163,2.240039,0.585716,0.017048
0.840909,0.696217,0.462579,-0.86987,-2.072082,-0.927795,-0.153762,-1.883582,0.4619,1.843034,1.335951,-1.211521,6.578402,13.209509,12.225297,-29.438895,70.490352,1.845113,0.559862,1.602336,1.705016,1.706118,2.226415,1.103663,1.77129,1.817523,0.359833,1.221483,1.960159,1.389562,0.866444,1.83132,-0.019126
-2.238682,-1.820415,1.831621,-1.991232,0.753731,1.049775,0.387646,-2.075615,0.953802,-1.000378,0.455131,1.178884,-66.367277,-34.821577,53.749454,67.074355,68.682759,0.641886,0.93268,1.307873,0.429644,2.272497,1.60986,2.17442,2.479456,1.475275,1.440192,1.302843,1.376716,0.966434,1.601218,0.923098,-0.040931
1.105692,-2.292111,0.268712,1.77581,-2.24082,-0.054803,-2.152428,1.153447,-0.788797,-1.365878,-2.26425,2.00478,24.357244,22.192465,-61.237216,-63.893438,-7.012618,1.958998,2.131399,1.677847,1.832012,0.869813,2.203472,0.251457,2.242871,0.934319,1.846278,2.149996,1.484841,2.475568,1.37011,2.435394,-0.054279
-0.729606,-0.849752,1.467489,-0.55689,-0.841858,2.205154,-0.917325,1.454937,0.54222,-0.673808,-0.822592,0.84157,-74.151783,-69.015211,11.350224,-36.789574,-22.369669,0.369496,1.618394,1.60492,2.395739,0.677052,2.459071,0.8566,0.622621,1.145089,0.516003,2.465762,0.819419,1.221689,0.928299,1.920195,0.035137
1.847823,1.716492,-0.155067,-0.251903,-2.015577,1.564509,-0.436119,-2.086983,-1.618023,1.084752,-0.810065,-0.670495,-53.793036,-49.55795,29.533793,24.460701,-38.996467,0.420745,1.218951,2.158109,0.587165,1.484716,0.362888,0.816312,0.751201,2.183177,1.158402,1.513841,1.627738,1.146394,2.198407,0.62885,0.009684
-1.165378,-1.82008,-1.973357,-0.419443,0.151394,-0.217141,-2.094204,-0.454859,-1.319997,0.738316,1.154601,-0.237637,68.041974,-18.542588,54.731139,66.247231,-32.782764,0.926196,0.3245,1.367544,2.064528,0.516656,2.195603,0.747001,1.340751,1.749228,2.277811,0.912113,2.128574,1.4383,1.002716,1.641319,-0.068119
2.115061,2.284687,2.183962,1.047461,-0.802304,-2.173197,0.803059,0.735635,-1.493391,-1.243395,1.70581,-0.62602,39.479292,-71.544366,-46.158619,12.096694,59.130793,2.293496,1.28223,1.442557,0.55677,1.381407,1.055345,1.931234,1.247216,2.458108,0.42933,1.502236,2.3264,0.811665,1.397919,1.833136,-0.012424
-0.778102,-0.675077,1.411905,-1.705899,-0.869242,-0.941252,-0.139559,1.203665,-0.295707,1.618722,1.234196,-0.805748,38.36892,16.436655,-49.136276,66.614429,-11.286371,2.274361,1.427985,0.892058,0.326437,2.431582,2.341696,1.3862,0.615674,1.379289,1.467556,2.220581,2.05012,1.360306,1.910607,1.063216,-0.037857
-0.931767,-0.937099,-1.01159,0.500006,1.407657,2.293417,-1.874279,1.308406,-2.341163,0.527636,-0.745771,0.780117,49.927228,26.920643,55.255242,24.85479,-15.537815,1.464249,0.63178,2.071737,2.429946,1.860874,2.205124,1.019488,2.281928,0.356816,2.256857,1.986431,1.953306,0.95906,1.415057,1.866794,-0.01494
2.047178,1.762447,-0.628384,-0.784359,-2.171899,-0.939484,1.315945,1.850079,1.931569,0.233016,0.297123,-1.390386,16.365264,-49.004382,33.353302,18.942852,72.514562,1.408537,0.279051,0.254374,1.761613,1.18204,0.548676,0.34827,0.36758,0.918113,1.723954,0.489261,0.762475,0.415635,0.819596,1.952702,0.013332
2.143226,-0.306345,1.894717,-1.82191,0.256173,-1.615447,1.96803,0.423655,-0.045786,-1.411616,1.846077,0.647463,32.160368,69.310951,9.160457,59.809944,-74.275442,0.664794,1.186645,1.43642,0.908723,1.413956,1.353295,1.073754,0.83827,0.8118,1.428328,2.156156,1.512791,1.984562,2.037907,0.858252,-0.063206
-1.886976,-0.032746,0.987532,0.413332,0.802815,1.345024,0.49085,-1.677379,-2.192167,-2.299682,0.253132,-0.897787,-1.121359,53.324295,-28.57022,-29.685065,-16.893539,1.679358,2.475354,2.265885,0.725701,1.101032,0.29498,2.478029,2.231751,0.794254,1.281838,1.59575,1.262833,1.683355,2.152397,1.340655,0.01639
-1.116756,0.122688,-2.016589,-1.304475,-2.271551,1.823746,2.329398,-0.332938,-2.084331,0.540671,1.563498,1.432181,-6.653298,-71.982001,-51.495105,21.77115,57.71393,0.595404,0.46083,2.176609,1.01394,1.287193,1.596881,2.278392,1.68626,1.469319,0.340549,1.112909,1.908983,0.784601,1.045505,0.810441,0.022812
-1.704891,1.941986,0.949897,-0.647635,0.808882,-0.355322,-1.301442,1.569311,0.171831,-0.738353,-1.782461,-1.172806,18.207269,9.565708,-29.148594,-0.425439,49.650799,1.839689,1.655971,0.90577,1.271896,1.008628,2.00778,0.752878,1.11478,1.864566,1.266182,1.716563,2.26834,1.486634,1.114519,1.966706,0.002048
-1.633247,-0.321365,-0.786453,0.338265,2.073739,0.503369,1.386044,1.89562,-0.778716,-1.575586,-1.951713,0.495646,-37.701379,-47.074138,74.955407,-74.469556,-9.821945,2.463631,1.003026,2.358013,1.127544,0.381364,0.836452,1.744819,2.431444,2.285578,0.961546,0.451436,1.781417,1.023381,2.456737,2.133506,-0.036293
-1.749677,-1.515641,1.790593,1.188669,2.138879,2.029606,-1.39952,-2.190627,0.035659,0.84144,0.206685,0.719625,-62.455194,15.555305,-11.996195,-20.051997,36.089334,0.676528,0.405779,1.67982,1.243886,0.489774,0.374565,1.30848,1.632508,0.30597,0.438252,0.700865,2.187235,1.861189,0.75997,1.068434,-0.013135
-1.931559,-0.059823,-1.703992,-1.801819,-1.357556,0.950219,0.047047,-0.964946,2.19258,-0.183705,-0.919255,1.997167,1.118275,44.853792,-42.317081,-73.175583,-12.022486,1.196279,1.365082,1.180505,1.742607,1.241172,2.120883,0.424506,1.425196,1.273381,1.205644,1.2511,2.48699,2.085307,1.000276,1.145934,0.025518
0.288742,-0.869958,1.164002,2.247782,-0.744894,1.3862,-0.19664,-1.537019,0.634076,2.20142,2.299772,1.254117,-18.47368,12.867479,-36.285578,48.289004,-56.710906,0.771998,0.717952,1.367052,0.549976,1.940831,0.542629,2.211491,2.28125,2.475976,1.477623,0.417476,0.275567,2.456501,0.410911,2.435412,-0.047344
0.098781,1.455066,-2.007437,1.717421,1.305988,-0.560903,-2.312728,-2.235821,-0.852907,0.285562,2.221437,-0.569162,8.025207,29.649187,13.87844,4.940134,-71.167502,1.191934,0.332442,2.111099,2.489649,1.780976,0.358232,1.308596,1.331755,1.304792,0.383206,0.290697,2.494536,0.664575,2.012652,1.633114,0.006586
1.61702,0.901826,1.941994,1.093401,-1.526337,1.09308,-2.204165,-1.314068,1.428854,0.410285,1.441661,-1.111817,-53.82286,49.194796,16.931265,13.775664,-72.413129,2.163011,1.982457,0.401041,0.801465,0.980065,1.195707,0.743115,1.276281,0.458044,0.353469,2.245766,2.346278,1.897967,2.38367,0.334888,0.008937
-2.173753,0.888599,1.115085,0.06677,0.655902,1.473828,2.305668,1.395645,-1.661687,-2.349997,-1.872307,1.477941,23.785599,14.560346,65.728924,-43.967288,-58.201527,0.728911,1.056885,0.80848,1.874728,1.057409,0.616562,0.552634,1.616601,0.715758,0.497622,1.776905,1.693974,0.628547,1.746352,1.195357,0.043785
1.526333,-1.168797,1.98231,0.09956,0.415006,0.668199,0.805161,-1.633607,-1.651432,0.360561,-0.176198,-1.986757,18.141351,-48.312428,-36.978555,-48.579933,-32.938902,2.063143,1.994447,1.664141,0.962713,2.069868,0.27168,2.373876,2.234943,0.445624,0.850575,0.60629,1.16977,1.329483,1.370789,0.352474,0.044038
-1.384297,-0.821833,-0.535729,1.375582,0.429982,-2.096729,-0.472653,1.20335,-0.875542,1.548462,-1.52589,-0.808954,-26.840949,-65.829667,0.78317,-37.267624,43.0503,0.570879,2.259114,1.674361,1.738671,0.350331,1.267724,0.645404,1.55872,2.164021,0.952745,1.035117,1.712834,0.346995,1.453031,1.097391,0.036266
1.99681,-1.247174,-0.547274,0.554205,-1.873553,-0.624172,-0.676207,1.270381,-0.54311,-0.155588,0.413883,0.644768,-59.758556,37.953247,-69.773038,24.547059,62.416235,0.31982,1.458495,0.67019,1.88625,1.206304,1.103114,1.535213,0.831251,2.07909,2.266509,2.222834,1.672455,1.194585,2.134771,2.104465,0.001344
-0.003835,1.524135,-0.412209,-0.787571,0.388484,-2.11222,-1.647779,0.488826,2.00545,-2.121776,-2.043373,0.91816,-49.659629,-29.382501,-31.693286,-19.057178,-43.995436,2.40561,2.345072,1.882216,0.902949,1.118194,0.734445,1.825163,0.522515,1.663195,0.816013,2.480534,1.587088,1.932779,2.472986,0.731951,0.026064
1.095992,-0.388138,-1.494044,1.9265,-0.14173,-2.297322,2.231152,-2.21648,-0.947014,1.99391,1.853619,0.169725,49.845456,2.586331,-31.532952,-24.31889,22.413525,2.186804,1.367609,0.900337,2.207655,0.80009,0.355016,1.25216,2.294602,1.868491,1.986053,2.343854,1.660277,1.276316,1.040385,0.25144,0.023459
-0.695547,1.383444,0.625092,2.00829,-1.521159,-1.411915,1.541189,-1.240786,-1.572189,-1.422547,1.913664,0.900184,-66.713914,-10.759506,64.985474,60.860089,25.521634,0.506629,2.420503,0.646443,1.0164,2.129622,1.063356,1.568339,1.816252,1.49408,0.255986,1.848726,0.538915,0.541326,0.57142,2.356059,-0.005228
0.615422,-0.301718,-0.448617,-0.0816,-0.139609,0.364108,-1.832932,-1.206612,-2.119155,-0.397619,-0.617911,0.876194,-0.598494,-8.89294,-63.648851,53.763574,4.388263,0.677996,0.327508,2.430096,2.127494,1.285897,2.322274,1.213073,2.374993,0.756455,0.488565,0.315635,0.883783,0.741251,1.452575,2.421079,-0.063612
2.309441,-1.171537,-1.654533,0.077864,-1.382901,-0.917828,-2.290164,0.004823,0.943105,-1.716073,-2.22203,0.018874,47.332936,74.649095,27.336919,1.599692,36.030212,1.521585,1.284959,2.301657,1.197507,1.742141,2.418984,2.106803,2.284454,2.327106,1.416865,0.748261,2.268472,1.453596,1.593575,0.714015,-0.003128
0.663738,1.220466,-0.655559,-0.410226,-0.439201,-2.051989,2.20107,1.136961,0.157417,2.063111,0.954106,-0.604873,-47.156062,48.071264,33.730873,64.790404,-67.686214,1.342092,1.790299,1.799104,1.297201,1.054132,1.800529,0.489463,1.910442,0.545575,2.226728,1.871829,1.835507,1.116953,2.387798,2.215194,-0.065431
0.355773,-0.541619,1.341635,0.077453,1.132167,-0.294305,1.629017,-0.087145,0.907933,0.915905,-1.764632,1.609613,-33.70101,-12.866951,45.153637,47.178741,33.101485,1.174969,0.960399,1.422758,0.793844,1.13333,0.868733,2.046315,0.41181,1.784392,1.524882,0.4374,2.135113,1.092835,2.029595,0.65681,-0.023271
1.497426,-1.63717,-0.279197,1.076611,-0.971718,1.477683,1.12661,0.55113,-1.716704,1.313981,1.826371,-0.683649,-40.831476,-4.616601,-41.209663,-60.812569,23.15074,1.292197,2.458959,1.225272,0.39161,2.032023,0.956679,1.89574,0.948592,0.983948,1.221348,1.942447,0.703718,0.646424,0.694307,2.224836,0.024794
1.961916,1.336484,-1.676527,-2.021464,1.573122,-1.756537,0.993669,-0.109592,0.63105,-1.534811,0.053152,-2.029023,56.229723,52.950604,-9.201028,8.327417,8.905703,1.047362,0.521888,2.369573,1.910129,2.035316,2.298561,0.922676,1.908839,0.601344,1.289483,1.837744,0.45849,1.093545,0.453806,1.124483,-0.008834
-0.060835,0.139746,1.941464,1.612807,0.787736,-2.33713,2.334786,0.68659,-1.1253,-2.106908,-1.909456,-0.866973,-16.432744,-35.125744,41.613969,-44.029585,-55.241773,2.14775,1.987444,0.977655,1.190407,1.670189,1.359511,2.057451,0.827531,0.307038,0.381984,2.25503,0.538578,1.631529,1.856284,1.566306,0.029359
0.659725,-0.258039,-1.460087,-2.279308,-1.328554,-1.705521,0.776304,-1.267181,-2.226683,1.933578,1.008798,-0.298795,49.55075,-0.536897,-23.626293,-37.109725,-3.140192,1.71676,1.086413,2.095949,2.113621,2.120624,0.581746,0.402125,1.008457,1.386578,2.471075,2.357267,2.080544,1.945547,1.052068,0.862824,0.012936
0.565748,-1.072386,1.289612,2.225669,-0.129561,-0.404898,-0.439172,-1.55985,-1.379191,0.182322,1.228828,-1.489954,-0.922517,-54.749898,68.461222,-22.242814,-34.968611,1.113231,0.566862,2.245644,0.283345,0.431235,2.015805,0.64324,1.180872,1.160962,1.781781,0.394472,0.640644,0.306554,1.260825,1.681674,0.023739
0.048911,2.087685,-0.723969,-0.366921,1.67212,-1.365768,-0.419615,1.976562,-2.27054,-0.033232,2.252043,0.172978,-9.48393,53.585041,3.781768,-39.827664,66.453603,1.16066,1.219662,0.608488,2.101433,2.025276,2.313365,2.22308,1.298515,0.633609,1.321731,1.589352,1.745207,2.195717,0.414886,1.734771,-0.005711
-0.844739,0.904796,0.023013,0.361715,0.369208,-0.933224,-1.869011,0.320175,-0.372025,0.716279,-1.648267,1.705945,52.276105,54.497585,40.916077,-73.501546,59.522163,1.960003,1.015666,1.047209,2.446382,1.348482,1.182898,1.470577,1.23969,1.974159,0.443012,1.960885,2.338602,1.132201,2.153079,1.544116,0.068635
1.213503,0.128869,-1.795883,-0.550622,0.833874,0.267374,-1.859036,-1.680063,-0.191796,-0.240503,1.08973,-1.962115,1.038172,48.560578,7.635864,-64.040371,73.486523,1.194858,2.233941,1.601436,2.336226,1.696775,0.438428,1.401079,0.941662,1.521135,0.461062,1.573906,0.886302,0.319486,0.353075,2.379606,0.041583
-0.104235,1.131885,-0.328155,-1.808642,1.776517,0.228749,-0.726598,-2.125826,0.578989,-0.018623,-1.977051,-1.236754,7.300604,1.250816,22.461143,-45.561463,-1.50746,1.586788,1.39121,1.572349,1.723414,0.424436,2.487429,0.473847,0.452822,0.328491,0.950396,2.049133,0.535858,0.911895,0.718932,2.092413,-0.003352
-1.105422,2.123781,-1.968285,-0.003281,1.411931,-1.271479,0.938461,0.355079,1.933439,-1.316099,0.270985,2.27155,-58.589325,39.206909,0.512113,57.082268,-18.319287,2.241043,1.711707,1.654709,2.189784,1.946397,1.849542,0.75072,0.844806,0.41261,1.731176,0.380011,0.593367,2.220138,1.36178,1.932814,-0.002985
-0.330754,1.632445,0.971299,0.906569,1.548996,-1.96674,-2.296056,-0.055089,-2.249123,1.7666,-1.523872,0.123462,50.338332,36.348959,-33.05245,-62.520941,-39.463076,2.036224,1.824674,1.288868,0.49721,1.609555,1.539733,0.292216,1.024614,0.690228,1.154366,1.173806,1.65809,0.512383,2.363814,1.875425,0.003598
1.94462,-1.897886,0.385652,2.123546,-1.195182,1.492011,1.600101,-0.702415,-0.953069,-0.821373,-2.225255,-2.349401,-40.634862,-0.130579,55.350859,-18.110634,-35.425428,0.697415,0.446134,0.424505,1.403766,1.090032,2.16937,0.852376,1.637102,1.020315,0.430356,0.744623,1.884756,0.85327,0.903987,0.559003,0.017279
-2.225537,2.349975,1.500695,1.468465,1.706841,-2.147899,1.880823,0.284411,1.726889,0.218012,-2.116808,1.348531,-58.355134,-74.731984,-70.461561,2.536561,31.978049,1.451159,1.124692,1.947515,0.389807,0.991086,1.929121,1.730481,2.19615,0.934053,1.874318,0.918233,1.498358,2.395462,0.535338,1.172683,0.008763
-0.231927,-0.859508,-2.271027,1.207676,1.143741,1.016519,2.226604,1.44789,-0.085928,-2.195294,1.707539,0.152129,-63.39726,-67.750075,-25.515452,11.806382,-20.14125,1.915243,2.484487,0.524874,0.809811,1.740322,1.08707,1.885819,0.718922,1.921409,0.363849,1.217643,0.422472,0.986927,1.781541,0.857867,-0.000192
1.604253,-1.612213,-0.218012,2.107919,0.062326,1.357882,-0.171854,0.343248,1.008101,2.116148,1.695305,1.888793,72.684124,2.079413,-1.307571,73.661362,-73.480537,0.814279,0.336017,1.444928,2.157425,0.344506,2.359334,0.832893,0.424813,2.086738,0.299657,2.327066,0.744329,1.44305,2.091925,1.98046,-0.071451
1.338584,0.632136,-2.122164,0.863407,1.837847,-1.014394,0.507297,1.423501,-0.014169,2.189512,0.08375,-1.422937,2.285517,12.681422,-13.3482,56.808798,35.461054,2.034013,0.662241,1.036969,1.337203,0.616497,1.717952,0.867045,0.668438,1.685225,2.083979,1.178724,1.062291,1.678931,2.048759,0.98818,0.01315
0.312792,-1.928126,1.079317,2.086611,0.07744,0.921356,0.31832,1.44042,1.58974,-0.49414,-1.773498,-1.326504,-7.372668,-12.439374,31.444069,30.472397,49.58133,2.326206,2.043056,1.890311,1.948571,2.391615,1.126957,1.760049,1.888298,1.874692,0.450538,2.446278,1.843641,0.582734,1.261827,0.519135,-0.026467
1.057774,-1.83188,2.346438,-1.401056,0.250963,0.348026,1.194576,-2.255322,1.259329,2.205577,1.479005,-0.215185,-70.544244,-37.103782,-53.262416,18.574951,39.201134,2.176777,1.598426,1.242347,1.620927,1.419984,1.412592,0.94153,1.54801,2.145998,1.787406,0.42909,1.972288,0.487183,1.835864,0.365977,-0.025014
-0.266039,0.742657,-1.28067,1.966795,-1.476276,-1.044396,0.477536,0.746106,0.129544,0.115457,-1.014889,1.604294,-29.034295,-29.395363,52.131047,16.504515,41.37782,1.930314,1.540925,2.328958,1.045231,0.700688,1.458811,1.478805,2.270641,1.912941,2.049622,2.003199,0.268898,0.621701,1.435664,1.705968,0.018779
1.246552,-0.482724,1.599564,-0.308773,-1.201864,2.279088,2.328069,0.89401,-2.185289,0.201799,-1.276153,-2.21258,-43.451586,59.19446,-68.716008,-59.946126,35.454534,0.390376,1.549624,2.28534,1.46171,0.703858,0.747093,0.647821,1.67237,2.028971,1.408497,1.852799,1.501598,0.61144,2.214754,0.863185,0.027623
2.200096,-1.106928,0.367027,0.10506,-1.407957,2.086201,-2.099522,-0.298329,-0.031274,2.172521,1.966973,1.503885,-46.598536,-31.590567,57.33579,42.616364,3.232803,1.880906,1.383749,2.168151,0.617847,1.899052,0.362444,2.343951,1.028944,1.46762,1.033233,1.553687,0.817546,1.237544,1.899561,2.167515,-0.011364
1.647457,-1.185205,-0.47072,0.715003,0.464265,-0.820155,-0.605103,-0.623485,1.443104,-0.411628,-0.439908,0.211005,-65.878339,-67.239511,5.539639,-45.29271,15.4256,2.245762,2.278113,1.486717,0.250215,1.606902,1.945617,2.235715,2.157711,0.656062,0.680147,0.478813,0.657456,1.6079,0.725161,1.030818,0.049062
0.067554,-0.311207,0.293528,-0.551265,-0.554532,1.081763,0.800518,0.442967,-0.624729,-0.625778,0.594377,-0.567568,-39.734835,-23.371424,46.470353,-22.784273,14.722916,0.595841,1.055612,1.918496,0.918239,1.591898,1.785106,2.280149,1.95906,0.924699,2.171349,0.366191,2.319637,1.88963,1.77001,0.560719,0.026938
-1.0332,0.166934,1.790793,-0.178992,-1.810072,1.307055,-1.49158,0.923136,1.961179,-1.626699,1.343185,-2.150006,-17.645263,-13.933562,-31.378769,17.033843,-62.205106,1.656813,1.55448,0.639515,1.578028,0.411849,2.450236,0.865284,0.321397,0.962387,1.081092,0.42029,0.321624,0.277061,0.559025,1.027197,0.013091
0.910176,0.911835,0.520012,-1.643432,-1.842958,-0.054671,0.053677,2.076478,-0.583536,-1.012726,0.270263,-0.437893,34.528459,-30.192198,9.728973,14.850036,-15.447236,1.799536,1.803143,1.677702,1.639914,1.041859,0.274563,1.336868,1.734329,1.614092,1.30298,1.437501,1.070494,2.295129,1.741111,0.857444,0.006174
0.028077,0.647652,-0.537623,-2.187333,-1.162455,0.182379,2.198648,-1.877892,1.84444,1.408391,0.488595,-1.873277,-22.184415,46.537923,62.867299,10.701661,12.817458,1.720305,2.161474,0.886731,0.791971,1.1526,0.756239,1.365357,1.311037,1.84438,1.73599,0.275974,0.289467,2.074721,0.83516,0.27658,-0.020993
1.199423,-0.890761,0.241038,-1.525269,0.199062,-0.153178,-1.491625,0.175486,-0.555431,0.111741,-2.216904,1.34924,21.260951,32.797453,-23.209822,62.522975,73.636917,0.860054,2.434917,2.148148,1.924922,0.919752,2.265017,1.899577,2.441727,1.857724,1.022955,2.050023,1.994667,0.874427,0.989627,2.162988,-0.067906
-0.985555,-0.179218,-0.906262,-1.109309,-1.938348,-1.071021,0.668543,1.868505,0.606249,1.041616,-0.092253,-0.113925,-47.734191,-68.540308,43.035346,-4.933149,38.565389,1.652318,0.265275,0.482509,2.036221,1.771265,1.392117,1.05759,1.416392,1.802913,2.309989,1.730392,0.697683,0.465868,1.345811,1.294037,-0.0057
-0.632323,-1.019425,0.777119,-1.708517,2.260644,-1.349953,1.491536,-1.656365,2.266936,0.734123,1.374578,-2.305308,-1.492245,-30.168682,-45.03664,-30.810508,-32.214524,2.432381,2.282511,1.160881,0.433681,0.378927,0.368291,1.61268,2.321413,2.49287,1.915228,2.242729,0.789714,1.472507,2.173084,0.273915,-0.031653
-0.404908,-0.606205,-0.309382,-2.022452,-0.884787,1.686786,0.083254,-0.335602,0.267183,-0.362919,-1.754946,-0.537368,67.036343,29.816236,-28.520375,58.06124,-64.744012,0.585794,0.946798,2.329537,1.771851,2.24533,1.75884,1.821409,0.426064,0.608669,0.645698,2.002188,1.271368,1.13747,0.701071,1.142591,-0.027873
-2.084828,1.61377,-1.88656,2.255855,-1.728171,1.786976,1.644413,-0.509884,2.213054,-0.082885,1.825658,1.464719,0.311106,-21.247895,36.627723,2.137766,-70.566455,1.968764,2.018447,2.296154,0.95344,1.462041,1.763899,1.348697,0.303236,1.733692,2.160842,1.519485,1.977229,0.289215,2.33126,1.480659,0.003991
-2.259427,-1.753974,1.659977,1.893154,0.190238,2.33095,2.185406,1.757904,-1.5894,1.479333,0.580034,-1.294506,11.014717,24.355202,-12.115207,-70.285321,-35.383812,2.189036,0.632069,2.439062,2.056153,1.511419,1.413944,1.156792,1.455854,1.288742,0.638951,1.091723,1.333645,1.578329,0.968967,1.433574,0.073405
2.253502,1.129306,-1.262071,-1.163924,-0.950423,1.238627,-1.723518,-0.106411,2.258535,0.908277,1.985371,-0.301034,51.53045,-27.726244,55.0195,-37.256387,-68.091975,0.297711,1.122858,0.375375,1.432186,1.747991,1.736949,0.653497,0.322787,1.827081,1.244597,1.19267,1.461115,1.965054,0.403664,2.130596,0.022633
-1.34745,1.146017,1.575289,1.67526,-0.425263,1.295975,0.797018,-1.843205,0.500872,1.825056,0.776497,1.978264,-61.535365,25.119073,-73.742596,58.192725,45.122525,0.989256,0.429654,2.449876,1.565175,0.402344,2.440709,0.495135,0.48593,1.033786,1.836375,2.21,1.964685,0.960057,2.433314,2.201522,-0.063636
0.185886,-0.123307,1.036565,-0.152847,-0.640198,-1.430583,-1.19961,-2.243267,1.235716,1.179077,1.156878,0.334446,-26.736606,37.861285,34.623124,60.841366,10.833501,1.054698,2.304725,1.013051,2.096116,0.416093,1.770456,1.302221,2.185351,1.700405,0.706238,2.492532,0.744231,2.047018,0.978745,1.513602,-0.059844
-0.377892,1.067221,1.431505,-2.147209,-0.66383,1.944032,2.347455,1.563006,-2.133937,0.916519,-0.867701,1.395748,2.164206,73.806182,-39.496524,-68.075124,61.385708,1.518884,0.88821,0.887293,1.226786,1.093696,0.750732,1.052456,0.623205,1.951585,1.285311,1.47371,2.14527,0.799537,2.321482,1.403624,0.058245
-0.767099,0.459247,-0.325323,-1.324163,1.406617,-1.038642,-1.770412,-1.285966,-2.215755,1.817529,1.50698,-1.270638,29.680206,-64.784407,18.467936,40.599344,3.168394,1.393078,1.456843,2.164381,2.49345,0.411518,1.374717,1.114819,0.267556,0.555767,0.268817,1.512772,1.654704,2.11475,0.860738,0.422417,-0.006502
1.127513,1.598713,-0.471288,0.586744,-1.628206,-0.410065,2.261108,1.728452,-1.781487,1.074328,-1.638843,-0.129349,-49.780065,46.442529,-40.414141,-40.464421,14.47201,0.341012,2.136636,1.941079,2.466498,1.931979,0.272222,2.489857,0.773857,0.462698,2.069273,1.530357,2.458163,1.351707,1.388257,1.441648,0.004804
0.463438,-0.57285,-0.475718,1.530957,1.156665,1.471675,-0.887583,1.808076,-1.86454,0.071387,-1.853764,2.104726,-56.206901,30.62171,9.082371,-52.585308,-1.277602,1.035098,1.395038,0.656455,0.53222,0.514797,2.438988,0.817724,1.984898,0.938971,1.277217,0.43374,1.375016,1.64297,0.646655,2.328979,0.021877
-2.169227,1.563751,0.974815,-1.256614,1.024248,0.187174,-2.041144,0.678606,1.342913,-2.00834,0.665412,1.075929,54.398801,30.643798,-69.687108,-31.218977,2.651671,1.624637,0.768073,2.258047,1.753134,0.421416,1.242092,1.845839,1.521281,0.677989,2.455493,1.473095,0.801619,1.315678,1.097851,0.834619,0.018111
1.369254,-2.256912,-1.909778,-1.562541,0.518172,0.427032,0.153775,2.111838,-0.050174,0.236728,1.423938,-2.103964,14.182225,10.659953,61.834608,54.257254,51.659595,2.017192,1.442973,0.79785,0.970266,0.760515,1.231202,1.069297,2.427878,0.841268,1.685034,1.125083,1.771554,1.757434,0.694354,0.754172,-0.044309
-1.910671,2.279699,-1.536367,2.177824,1.562161,-2.199419,-1.649495,-0.073902,1.996328,0.07133,1.904664,0.425099,20.703515,-36.02514,-74.522064,7.667657,20.315947,2.126873,2.113163,1.18195,1.286563,2.261067,0.752292,0.272749,2.347931,0.432269,1.389788,2.41085,0.409265,1.77501,1.33917,2.187278,0.012879
-1.749547,0.667781,-1.507449,-1.891892,2.162959,1.492343,-2.239508,-1.552714,0.737654,-0.544858,-1.259691,1.1437,10.753681,-12.881614,-51.283078,-14.694311,-67.283792,1.544659,2.088824,1.619871,1.680713,0.500258,1.090328,0.397704,0.96057,2.043537,0.972606,1.838156,0.635649,1.847519,0.502508,0.649499,-0.023859
2.014301,0.554478,-1.999913,0.927817,0.525447,0.176891,-0.506964,-0.542275,-0.260496,-0.340364,0.338284,-2.306464,-19.848593,4.689689,69.60019,70.388806,-25.343755,2.087557,0.564289,1.760616,2.421444,0.706558,1.120299,2.363634,1.09338,2.193156,2.379706,1.223174,1.140881,1.792176,1.852895,0.847831,-0.071583
-0.537936,1.983835,2.160508,-2.018005,-1.542952,-0.122221,0.439328,-0.530713,0.859986,0.88621,-1.326712,0.972253,-60.637951,-42.041791,53.617396,-52.428009,-57.539458,1.139939,1.711705,1.619208,1.784377,1.270656,0.412544,0.618531,2.145937,0.768231,0.400821,1.591514,2.076391,1.904715,1.039116,1.424004,0.001815
0.133983,-0.665153,-1.435893,-0.912632,0.219579,0.671984,-1.56397,0.060216,-1.105792,0.620042,1.952232,-1.203218,-51.827125,-8.49196,-74.380674,-15.980148,71.657899,1.439568,2.069497,0.791992,1.504505,2.221345,1.403064,0.555569,1.440443,1.016844,0.590097,1.262596,2.208313,0.616533,2.313992,1.521914,0.012581
1.288071,-0.09894,0.589802,-2.069443,1.007548,2.243657,0.613929,-1.83431,-0.794253,1.195772,-0.9945,0.286602,27.377871,-60.129046,-38.882229,56.380026,29.088941,2.09245,1.7996,0.63013,1.342728,1.238302,1.136513,0.374104,0.310498,2.293966,2.437781,0.781387,1.026911,1.041378,1.18209,1.38239,-0.03293
-1.915929,-1.269053,-0.707663,0.381843,-0.645391,0.837784,0.019779,-2.145711,0.941638,1.906406,1.428775,-0.915362,46.750934,42.95461,-11.874138,-68.642436,-23.417741,1.645343,2.283691,0.745486,0.62919,1.304026,1.021791,0.488663,1.96084,1.586842,2.302845,0.922757,1.020357,1.138427,1.047161,1.637269,0.062424
2.080617,-1.708829,1.723701,-1.521776,2.355229,0.272996,-1.627549,1.210506,1.589864,1.592397,1.76251,0.422279,12.309367,33.529115,-26.160954,-37.153253,15.284854,0.513066,0.356879,1.057887,1.906383,2.086642,0.940551,0.842055,1.412283,2.496602,1.631529,1.862271,0.942714,1.187995,1.635781,1.314667,-0.027348
1.470413,1.457556,2.151019,-1.271471,1.064557,-0.928115,-0.825209,-0.727988,-1.938255,0.487713,2.143889,1.412993,-72.326154,14.333951,10.721153,40.422623,33.024868,2.109312,1.706777,2.04756,1.083966,1.470942,0.615554,1.613232,0.346406,0.550794,2.193436,0.335483,1.462127,0.964168,1.774298,0.625268,-0.02548
0.497954,-0.092504,0.374348,0.625545,0.203068,1.190786,0.020464,-0.067596,-0.399709,1.957089,0.324172,0.837544,22.376148,25.927357,11.096593,50.443404,2.29131,0.775616,0.777391,1.36355,2.427545,2.000939,0.532191,2.277071,1.984222,0.816354,1.461315,0.817078,2.373903,0.445586,2.463874,0.579727,-0.057752
1.737045,1.264467,-0.969876,-0.550441,-0.844767,0.434085,0.886369,1.34789,1.539607,0.44161,0.128594,-1.708211,-64.399132,43.795723,24.719388,-41.250336,5.6026,0.818361,1.440086,1.778069,0.999805,2.230927,0.448777,2.09582,2.204558,0.508125,0.552611,1.225568,0.87748,0.561106,2.261039,0.278108,0.024863
-0.442974,0.506268,-1.727473,-0.614616,-0.300565,0.077907,-0.664904,-1.965583,-1.703884,0.008443,0.531138,1.570533,58.958847,21.34698,-21.30274,14.843821,30.103605,1.394341,2.440509,1.633743,0.814959,0.509226,1.053977,1.445792,0.924734,0.497333,1.422594,0.282225,1.860752,2.408039,0.416777,2.014841,-0.011207
1.201717,-0.039858,-0.730557,2.01968,1.428732,-1.640993,1.440536,-1.170322,-0.096635,1.635141,-0.83932,-2.274536,-38.916254,-65.485341,-62.129782,-65.237765,48.884657,2.191497,1.496722,1.907086,0.387412,1.22846,2.231276,1.806838,0.774859,1.555037,1.00782,1.928115,0.583413,1.413851,1.838276,0.408697,0.030899
0.973148,-1.003794,-0.421638,0.968872,-2.191155,0.571587,-1.891789,-0.814626,-1.926596,-1.470703,-1.623846,2.17641,42.9876,-57.398573,-47.812078,-27.595658,-0.215724,0.989876,1.846031,2.498632,2.001263,1.4777,1.704683,0.611352,0.741645,1.327434,0.679333,0.297419,0.726936,1.610091,1.549794,0.631589,-0.024319
0.34136,2.265968,-1.410445,-2.038398,-0.280766,-1.726564,0.528304,1.063519,0.480502,-1.242138,-0.733929,1.884734,1.453633,-18.796205,-7.817528,10.8125,-74.319608,0.780273,0.296218,0.78377,0.576587,1.44466,2.15162,1.777578,1.757635,1.820291,1.888123,1.185026,1.226165,1.903406,1.538265,0.364306,-0.015115
-0.789947,-1.836048,-1.729293,1.780546,1.972722,-0.82214,-0.977224,-1.530389,-1.031541,-0.23079,-0.589638,0.107558,-58.296624,8.639965,11.888835,15.64265,-43.98846,1.914184,0.438762,0.264705,2.149617,1.86729,2.035175,2.17986,1.656098,0.796642,0.907692,2.072093,1.666767,2.349603,1.524364,0.731153,-0.00312
-0.894359,1.021593,-2.037905,-1.426704,-1.985776,-1.805744,-1.347511,0.129985,-1.886081,0.869342,-2.086307,0.33171,9.376243,-63.490847,9.330493,67.590678,46.528123,2.097403,1.798293,1.157066,1.557947,0.415077,0.452929,2.126897,0.255657,0.83491,0.582372,1.929845,0.41244,1.130683,1.397196,0.917536,0.024956
0.134579,-0.080529,-0.999401,-1.981246,-1.059816,0.496208,-1.162234,-0.812747,1.374945,-0.859878,0.927629,2.0805,32.85485,41.45867,45.867266,41.144024,7.618515,0.540783,0.432265,1.333755,1.166056,1.902961,0.81939,0.742134,0.548984,1.020782,1.526951,1.459296,0.630005,1.501797,1.695132,2.090609,-0.030987
-0.422943,-2.127255,0.124832,1.032791,-2.324387,-0.260846,-1.512617,0.779362,-1.712697,-2.026673,-1.147949,-1.064297,18.657713,-69.817867,21.115404,-13.410958,52.035708,2.337081,0.326994,0.542473,1.842614,1.310622,1.622951,1.688516,1.145767,0.65998,1.281173,1.671907,0.993674,0.430666,1.447335,2.115567,-0.007451
-1.918571,1.452376,-0.084368,0.462829,-1.38584,1.528882,-0.737531,-2.095451,2.143505,-0.324608,1.266081,-2.131993,18.877899,30.845228,15.741964,-24.815252,-69.94239,1.798873,1.901858,0.283333,2.480665,1.53114,2.117845,1.124616,0.668585,1.905233,0.75857,2.285113,2.137914,0.918634,1.482183,0.554341,0.000153
0.694494,-0.233178,1.680769,-2.086245,1.366072,0.807301,1.336405,1.714382,2.076019,1.128745,-1.251732,-1.753106,67.520779,71.7404,40.89494,21.264249,-61.758982,1.626834,1.701197,0.518522,2.055004,2.444934,1.750201,0.626331,0.493725,1.536219,1.980837,2.433672,1.478298,0.509136,1.793748,1.276312,0.009476
-1.160716,1.130771,-0.192482,-2.351664,-1.611484,-2.118208,1.370395,-1.921174,0.122397,-2.193131,0.348649,2.245226,-41.171512,-19.601658,-45.058695,48.50486,-28.820132,0.925511,2.305673,1.195568,0.668137,1.128442,1.973881,0.273441,0.46574,1.445536,1.11559,1.961946,2.17143,1.730139,0.949203,2.262761,-0.011298
0.413618,0.91194,2.27864,-0.475278,-0.503774,1.231295,2.282395,1.36887,0.714631,-1.082661,-1.756932,-0.927746,21.487913,-52.649345,-27.536424,-54.672205,24.243583,2.303579,1.999411,1.858403,1.171668,1.72868,1.177277,1.494404,1.199364,1.465175,0.452496,1.599119,1.641659,1.106676,0.646108,2.145132,0.047936
-1.903993,1.418233,0.979115,0.317812,2.33579,-1.297664,-0.905337,0.312394,0.811842,2.256226,-0.208648,-0.728433,0.400183,-24.121371,42.119878,58.794292,-44.340476,0.919355,2.349146,0.600429,1.65451,1.096688,1.52789,1.491324,1.177668,1.307208,0.494496,0.997003,2.385283,0.449243,0.922094,1.131363,0.047311
0.035901,0.207562,1.327477,-2.248425,-0.626178,-1.407032,-1.222372,1.612809,0.820781,1.705432,-2.272193,0.453412,18.097284,-38.950317,-37.98347,11.821325,-68.995799,1.938992,1.139398,1.607962,1.772511,2.095125,1.766101,2.353244,1.977565,1.439732,0.325463,1.811402,0.979255,1.090826,2.008896,1.515003,-0.011276
-0.162474,-2.23409,-0.031791,-1.808249,-1.051338,1.622216,-1.294034,-1.14684,-1.265802,2.095438,2.346787,-0.243519,71.411864,69.199291,-67.523453,33.321762,-61.14379,1.469748,0.797485,1.579734,2.086743,0.384533,2.354378,0.784049,0.753731,1.952615,0.592836,2.288193,2.15107,1.53599,0.385875,2.4045,-0.003971
-2.034898,1.981987,-0.620828,-1.024253,-0.262927,1.199432,-0.74143,-1.660391,0.576219,0.54959,0.669343,1.174388,-71.866436,-59.194132,74.228902,15.164094,12.93442,1.956918,0.919006,0.987423,1.111705,1.93074,1.948731,0.567318,0.91058,1.124417,1.82135,1.68612,1.374038,0.950803,2.149639,2.225851,-0.021658
2.258676,-1.434514,-1.299691,-1.988301,-1.816567,0.519127,2.330362,1.735176,-1.865577,1.485721,-0.440603,-2.053654,-70.901803,-46.610767,62.845148,-61.592464,-34.534282,0.359916,0.363641,2.217683,0.592077,0.781236,0.733895,1.566529,0.661453,1.289011,0.666697,1.674839,0.774866,1.666575,1.368608,1.937364,-0.031974
-2.209522,-1.81033,1.68627,0.835083,1.748228,0.723471,1.410479,-2.114582,1.059114,1.828008,-1.446273,-1.000104,10.645889,-24.550701,26.365514,25.189613,61.823212,1.565844,0.384209,1.398145,1.116782,1.758408,1.31198,1.952409,1.647112,0.514669,0.290262,1.933758,0.921493,2.274576,0.548569,0.798614,-0.008619
1.218204,-0.974934,-0.745835,-0.290092,1.740341,0.114188,1.219755,1.536255,0.653824,-0.475985,1.759256,2.292842,-67.438395,-37.101107,-8.301099,-16.562835,28.436346,1.819933,0.366384,1.05757,1.084879,1.059514,2.251949,0.498779,0.976658,2.433174,2.106435,0.602928,0.908399,0.459518,0.373951,2.239853,0.001121
0.922877,2.318266,1.064359,0.456769,0.428948,-0.628955,-0.952671,1.154699,1.415033,-0.973402,1.444232,-0.301895,41.148583,-65.767982,-12.475695,20.990789,-7.810765,0.992088,0.767744,1.221462,1.620281,1.815152,1.005216,0.917379,0.630975,2.046274,1.975433,1.604603,1.560323,2.091505,1.682008,2.012714,-0.023055
0.374816,-0.931689,0.370735,1.163202,-1.760384,2.313982,-0.255957,0.53708,-2.229959,-1.296309,-1.687906,-0.063497,-70.092609,53.522713,6.241417,49.496954,-4.689163,0.463683,0.627944,0.598887,0.502117,0.838262,0.668689,1.411218,0.346136,0.501142,2.436051,0.954966,2.362162,1.09903,0.403745,1.234314,0.006585
0.669294,0.356407,0.679937,0.164611,0.441001,-0.676061,-0.987548,-0.678173,1.21005,-1.353595,1.551512,-2.099751,17.891301,-50.907193,2.812784,24.453898,-3.331504,0.736194,1.963376,1.455437,1.03817,1.277639,0.776198,1.555729,1.39278,0.956445,2.468278,0.34671,1.159842,0.962883,0.423108,0.424259,-0.026198
1.179614,0.756929,-1.739786,-0.210607,-0.673916,2.070388,0.737121,-0.075868,1.939575,-1.87406,0.28348,0.216119,-30.165486,8.682384,-25.163362,-70.623776,-23.799911,2.048549,1.956048,2.041516,0.76273,2.447819,0.740188,1.582432,2.433851,2.237592,2.209441,1.57937,0.462587,2.453582,0.861846,1.044531,0.061721
-1.543056,-1.869379,-1.161177,-1.901681,-2.121541,1.911919,-0.165268,-2.065371,-1.236932,1.937205,0.711052,0.030927,45.691446,-63.871913,54.758171,70.575011,-45.797044,0.461169,1.118649,1.631879,0.981972,1.751328,1.56249,0.262884,0.798245,0.860481,0.59591,2.205272,1.260539,1.378747,1.347015,1.278021,0.035154
1.310979,-1.504797,0.271927,-0.733531,-0.840482,1.76742,-1.866624,-1.984163,1.752199,1.491797,-1.986787,0.055697,-53.01944,52.27034,-42.398345,61.022412,53.685954,2.122508,0.739959,2.245693,1.11801,2.14038,1.873306,1.897847,0.358015,2.165525,1.48425,1.53908,0.57391,1.450848,0.394509,1.269068,-0.041928
1.154539,-1.276683,-1.69878,0.978483,-0.87317,-0.988336,0.20872,1.944138,-0.577538,0.843728,0.958968,1.010736,-22.910684,-9.871024,-2.293761,-1.248072,23.655346,0.256018,2.396323,1.50776,0.673411,2.018513,1.147318,1.971578,2.064169,1.243473,0.299426,0.696533,1.37591,0.917357,0.264313,2.316668,0.01031
1.036835,-0.321251,1.132903,-2.067077,-1.638786,0.834017,-2.041892,2.244218,0.61576,0.675029,-2.217716,1.851356,-5.43387,22.951136,-60.263236,-44.203145,27.739703,1.69292,0.90458,1.523278,0.491461,1.739745,0.397888,1.802187,1.356951,1.78171,1.450506,1.413183,1.864318,1.587311,1.193428,0.695567,0.00372
1.632415,0.468354,1.939445,0.654685,-0.137621,0.781999,0.197382,-0.116444,-1.429078,0.52561,-1.794583,-2.272511,-5.810925,-14.21619,18.498369,-47.910641,-34.148845,0.780335,1.333495,1.308944,0.422471,0.963207,1.37339,1.307037,2.124651,0.754122,1.786391,1.376355,1.653383,2.401548,1.569118,1.42219,0.053179
-1.414447,1.399143,0.571893,-1.462871,-1.934853,1.130472,-0.507771,0.031131,0.138074,2.107466,1.863601,-1.70534,-28.529732,50.800524,4.402375,40.723704,-6.702648,1.353961,1.018816,2.239257,0.94942,1.39856,1.346417,2.473252,0.694367,0.97656,0.797109,2.006628,1.649448,1.526908,0.749182,1.996105,0.00971
-1.535001,1.570623,-1.348136,-0.95655,1.929138,1.783249,0.27861,-1.515703,0.761948,-2.206368,-0.632201,1.036095,43.799112,-68.329688,-17.073576,-5.588852,-31.829299,0.549584,2.111175,1.513754,2.422503,0.510067,1.694798,0.97332,0.343969,2.332069,1.590577,2.071869,2.396609,1.808609,1.300529,0.746353,0.006651
1.038945,2.148287,-0.061863,1.701935,0.220852,-1.500664,-0.953903,-0.69264,-1.596305,-1.472539,0.50961,-2.11063,48.033287,-4.540454,38.593065,33.647759,17.879755,2.200675,0.501097,1.683023,1.066489,2.473777,0.52395,1.021654,0.443023,2.1324,0.489229,2.472837,0.47072,1.888124,1.202794,0.599828,-0.031332
1.852266,0.991757,0.742216,0.72806,-1.567391,-0.881536,-0.229989,-1.260705,-1.761573,1.173465,1.07616,0.867324,53.734978,-26.220856,6.077867,0.716804,47.320969,1.727835,0.480018,0.665001,2.42125,1.939675,1.366772,0.340043,1.605313,2.242916,1.686149,1.859474,1.180766,1.636452,1.344271,2.410645,0.004877
-1.654147,1.845559,1.369087,-0.343267,-1.328227,-0.928631,-0.065745,-2.280604,0.451534,1.981088,-1.595387,-0.173502,29.560137,17.23089,-50.439387,65.221691,-19.042315,2.212176,0.284933,2.372332,1.027716,1.067686,2.342684,2.244035,0.25459,0.885878,2.19424,0.344798,0.521299,1.467758,1.109215,0.571248,-0.008344
-0.108701,1.467896,1.562944,1.54634,0.51596,0.946844,-0.130792,-2.246447,-0.380705,0.909986,-2.275781,1.410516,-47.51165,71.701518,-12.589675,55.337429,56.169442,0.472054,1.817657,0.3633,0.975667,1.539592,2.418672,1.369031,2.297238,1.170944,0.806688,1.006116,0.294639,1.24709,0.338121,0.802122,-0.051427
-1.154495,2.019021,-0.221049,-1.808216,-0.494104,-1.184289,0.783249,-2.349238,1.468279,-1.418372,1.390673,-0.398994,-5.178768,-39.555994,-17.590134,12.616598,-52.831629,2.257288,2.489134,2.120231,0.727842,1.086298,2.41528,0.602624,0.293804,0.712664,0.251054,2.20944,1.556055,2.361516,1.505328,0.293103,-0.009828
1.86474,-1.418948,1.147383,0.965727,1.505602,-0.87292,-1.504121,2.196581,1.088377,-1.137316,-1.425708,0.619176,49.091203,-74.150232,-42.956923,-27.007264,-11.089059,0.267656,2.246826,2.151777,2.165949,1.856009,1.447273,1.060046,2.196731,1.714346,1.005111,1.409562,1.763567,0.2686,2.353165,0.650737,0.014065
1.754465,1.88132,-0.779984,0.666804,0.915761,0.540062,0.754676,-1.917576,-0.670771,-1.614162,0.009255,0.032969,-62.132072,46.270586,69.735011,-63.66246,-24.964024,1.06968,2.111359,2.355988,0.844519,2.32309,1.425847,0.956274,1.853803,0.371637,1.595103,1.638648,2.265913,1.205185,0.296507,1.143946,0.036453
-2.335398,-1.548078,-1.451444,1.624421,-1.931348,-1.236403,1.402825,1.203951,-0.194549,0.610069,-0.725066,0.045395,-14.317367,-31.988925,-37.866798,22.722447,-3.830746,0.874875,1.781563,1.223296,0.940942,0.662131,1.438905,2.174675,2.264951,0.78635,1.190973,2.178893,1.148865,0.97179,1.630524,0.724694,0.005994
-1.541047,-1.095514,-1.002948,-0.328163,-1.944769,-0.607839,0.515054,-0.149975,0.49486,-0.261498,1.669928,-0.514655,68.177818,14.578766,-74.674386,-2.413252,-59.525338,2.239653,0.851274,1.11353,1.094502,0.791902,2.25331,0.879357,0.607201,0.727139,0.524716,0.407916,1.59465,0.774092,2.166469,1.58543,0.011485
1.922298,-0.067432,2.353634,1.738311,-1.017311,-1.398019,-0.531165,-2.022066,0.894415,-0.086109,-0.525652,1.092113,12.298663,3.625148,27.856778,38.865982,-29.432657,1.754921,1.213075,2.40956,1.225981,1.058372,1.058606,0.483479,0.329237,2.236883,1.546817,2.353392,2.212101,1.281343,2.274231,1.506332,-0.016355
1.015382,1.960238,1.407074,1.928272,1.371382,0.526335,0.950117,-1.66301,-1.02443,1.476419,-1.270697,-0.063943,-8.517079,-46.539727,56.804737,-32.784495,-59.001496,1.552802,1.693701,0.532125,1.169145,2.067435,2.121227,1.708027,0.555456,1.79987,0.65682,2.168244,2.172803,2.306991,0.850167,0.504799,-0.008241
-2.308474,-1.424055,0.129139,-1.96484,1.349399,-1.376935,0.394853,1.258262,-1.585429,2.260346,-1.643851,0.537569,40.629454,59.227692,39.816747,50.073605,-62.924356,0.330223,0.803847,0.512519,2.400087,1.753133,0.411854,0.2858,1.185037,1.415483,2.269616,0.442107,2.496335,1.648651,1.635294,2.136806,-0.004639
-0.672967,-0.820398,0.020109,-1.326667,1.738048,-0.723917,0.511914,-1.089558,0.138533,0.400311,-1.272629,0.455347,2.866174,21.785483,-1.385728,-39.931324,-25.764283,1.820369,0.942358,1.964153,1.019589,1.727953,2.450502,0.841611,0.701245,1.82664,0.587972,1.539181,2.26356,2.157005,2.288729,2.16335,-0.014371
0.370172,1.119253,-0.575936,-0.509728,0.132486,-2.266785,1.805827,-1.959237,1.28241,-1.008999,1.639901,-0.940369,18.16162,-7.657575,-0.866052,-5.743145,74.960771,1.610107,1.814022,2.261739,0.798343,0.25447,1.127727,1.209141,1.525288,0.515911,0.921037,1.364253,0.749023,1.587836,1.003095,1.259875,0.008544
1.889764,-0.233375,-1.626341,-2.055439,0.757037,0.065903,0.214014,1.383393,-0.236519,2.075174,1.063411,-1.338316,-27.172498,61.8279,-58.492944,9.0916,-47.481148,1.140077,1.779339,2.101718,2.321846,0.772198,1.823709,0.830817,1.538704,0.995134,2.464426,0.850828,0.371851,0.7041,0.303508,1.814953,-0.00731
-0.635117,-0.850227,-1.794657,1.202229,-0.866297,1.422308,-1.214876,0.365882,-0.282902,0.058779,-1.699359,0.668475,22.867742,38.139686,63.700554,65.206423,24.34395,0.606638,0.258443,0.406536,0.897984,0.91113,1.362553,1.434946,0.879965,1.818658,1.439103,1.007752,0.782206,1.280855,0.827194,1.391236,-0.038035
-0.476772,-2.039353,-2.198885,-2.114096,-0.195993,-0.089272,-1.856505,-1.546869,0.026238,-1.976903,1.243745,-0.538683,-36.675953,-62.75044,3.351532,-70.80823,26.082092,2.300801,0.308676,0.913644,0.872693,1.108036,1.005485,0.939807,1.834165,1.053678,0.910914,2.238905,1.781346,2.087762,1.764327,1.794345,0.071047
-1.509485,1.582227,0.478725,1.887581,0.776547,-1.884205,-0.574478,0.43406,0.47441,0.042118,1.014416,-0.133177,2.586988,-20.490727,12.346401,55.96261,63.591408,1.837038,2.093077,1.08639,1.703525,1.394501,0.625263,0.540819,1.036882,2.121155,0.510716,1.34559,2.086358,0.660375,1.172004,0.615902,-0.045079
1.13599,-2.018168,0.425387,0.791741,-0.987524,-0.275139,-1.405567,-0.152119,2.157722,-1.721014,-0.446435,-1.111253,-52.143326,-72.877654,45.263522,-55.981642,66.542141,0.981368,0.597224,1.792321,2.044551,2.276785,1.675783,0.880466,1.235214,0.99185,1.277293,1.720578,2.24564,2.475763,2.391959,2.399647,0.036121
2.037048,1.166233,2.057353,-1.572517,-2.214116,1.096765,-1.530764,2.093021,-0.580437,-0.753484,-1.623943,0.543139,20.345412,-54.652584,54.024087,32.838023,58.649295,2.405511,0.667062,1.055633,2.282745,0.601321,0.9081,2.185559,0.683337,2.343291,1.189944,0.633853,0.920039,0.34538,1.305694,2.057237,0.016904
1.575311,2.042889,0.369586,0.701515,-0.029936,1.096489,-1.453972,1.545774,0.415989,-1.666423,-1.84466,-0.395045,7.61692,67.578232,-12.657814,-39.879532,-55.293972,2.488262,0.970096,2.398559,0.828412,1.62057,2.174323,0.851932,0.916079,1.29102,0.673309,0.298627,0.7778,1.485098,2.289766,1.596024,0.045131
-0.638899,1.55704,1.271376,2.051,0.025159,-1.265372,-0.095558,0.887024,-1.787816,-1.629052,-0.497122,-0.06743,-74.081284,65.861485,-66.021837,70.986538,-29.254559,1.654295,1.986581,2.217548,0.58523,0.452727,0.982962,0.400562,1.75342,0.732726,2.169465,2.440192,0.806445,1.416983,0.483783,0.944941,-0.085173
0.423759,1.702479,-0.06495,1.653284,-2.21671,-0.095391,-1.016073,0.551407,-1.777011,0.906458,-0.321861,0.307558,-11.762572,6.460157,-24.139654,34.835881,36.656652,1.950341,0.625323,1.545537,1.081972,1.709998,2.180051,0.37246,1.940862,1.060026,1.858896,0.471298,0.356872,0.953305,1.449805,0.871623,0.022539
1.347968,-1.870739,-0.453402,-0.38838,-0.839918,1.815316,2.012593,0.131602,1.719843,-0.388007,0.7097,0.877781,-51.788834,35.073906,-12.869656,-0.313655,-21.601477,0.534733,2.255848,0.791413,0.771863,0.708375,2.41474,0.531687,0.57063,0.332022,1.793189,0.877208,0.487259,0.854581,0.443737,0.644393,0.002406
1.228849,-1.144602,-1.349166,0.580744,1.207519,-1.488523,0.474522,1.929461,-2.214652,1.500882,-0.0985,-1.441979,14.956574,-24.858866,-52.955439,-72.056642,44.010297,1.840845,0.833729,0.9909,1.059927,2.44367,0.761693,0.767962,0.391423,1.148742,1.151849,1.621703,0.962264,1.270026,1.075321,2.415629,0.041018
1.428009,0.35856,-0.824669,-1.068301,-0.729821,0.239642,-1.428831,-0.032994,1.534555,0.369362,1.647775,-0.561371,-24.059845,26.187917,40.321164,-22.199336,-54.248297,0.608027,1.114879,1.26479,0.817847,1.81007,1.097919,1.972903,1.839533,1.273975,2.194924,0.58545,1.907237,0.684989,0.856954,2.080914,0.015542
0.396009,1.831035,2.300432,-1.784814,1.694518,-1.908784,1.010547,0.809475,0.184897,2.096801,1.684412,-2.119592,53.139288,12.0211,-11.376557,44.203697,-18.4725,1.865504,1.27935,0.29104,1.503826,2.053843,0.935063,0.853482,2.216161,2.016161,2.121643,1.95071,2.326677,0.96523,1.615403,0.824417,0.010183
1.597821,-1.325689,-0.682544,-1.557509,0.261332,0.26651,-2.247926,-1.677185,1.058773,0.817146,1.86635,2.085997,-26.069933,-7.366116,-52.302401,-46.455397,-25.850747,0.27243,1.480009,2.254519,0.956019,2.063642,1.381155,1.314648,1.792457,2.081299,1.145414,1.466848,1.569262,1.580477,1.081708,1.758482,0.045382
-1.021754,-0.682282,-1.877162,-0.022379,0.867365,-2.329861,1.972933,-1.990865,2.21229,1.211174,-1.317697,1.688281,52.400111,38.659328,-52.678288,-63.981274,16.720871,0.29027,2.071234,0.731395,2.298764,2.082124,1.504714,1.231484,1.298353,2.425981,0.462585,2.421974,0.613604,0.343536,1.802126,0.323495,0.040292
0.241085,-0.746787,-2.158866,1.341314,-0.61048,-1.469857,-1.542653,0.195428,0.028284,-0.589746,-1.699348,0.850593,-47.09258,65.001836,35.853269,35.899174,57.413264,1.295846,0.78488,1.229253,2.053404,0.310962,1.088155,2.125424,2.493399,1.804154,0.673101,1.312984,0.812904,1.970443,0.977873,0.369155,-0.015292
0.095268,-1.042987,0.604486,-0.320654,1.747252,-1.538895,2.089292,-1.991013,-0.283735,0.200716,-0.643805,-0.779259,-40.763926,-69.312519,-35.508712,55.072493,-46.60226,2.212194,0.600633,0.59363,2.135202,0.346707,1.107507,1.119694,1.190318,2.430827,0.902659,0.736835,1.478101,1.685374,2.339346,2.391042,0.003137
-1.984652,-1.752291,1.67318,2.31205,0.262374,-1.084425,1.585959,1.941857,-1.214753,-2.284717,2.019139,1.754919,2.453991,-5.775747,-22.979385,35.473414,-48.329675,0.972208,1.901382,1.281953,1.277387,1.051631,0.266334,0.279432,2.171672,1.289072,1.688619,0.622873,0.873107,1.313563,1.551057,1.6189,-0.03489
-1.433373,-0.962256,0.282973,1.124102,0.810975,1.826729,0.62783,0.892248,1.193708,2.013445,0.309939,1.956201,-14.77516,73.883977,67.996291,-36.343457,-24.475084,0.583851,2.037212,0.423282,1.094731,2.395123,1.587733,1.531377,1.610515,1.916464,0.507335,0.771935,1.911339,2.127773,1.481143,1.077133,0.01539
2.000994,-1.612241,-0.692817,0.14057,1.650788,-1.760769,0.556613,0.906073,-2.06621,-1.203094,0.460995,0.775055,41.822284,7.123312,21.512552,61.458723,36.756029,2.253629,1.737384,1.205417,1.947978,1.408833,0.751855,1.93112,1.582888,1.098013,1.306423,0.79463,0.843321,2.449429,0.796555,1.693106,0.006217
1.673048,0.091451,0.77968,-1.067693,0.057057,2.340692,0.987776,-0.194029,-0.076002,-0.302489,0.740294,1.420358,-31.943717,-28.05,13.654096,-15.609699,-2.203955,1.497018,2.384856,2.274884,1.231312,0.660758,0.855397,0.650823,0.380587,1.278798,2.264286,0.8499,0.514437,0.896029,1.80844,0.708683,0.011735
-1.5261,0.367221,-1.343702,-1.830137,-1.351174,-0.172984,0.199327,-0.420718,2.290959,-0.777238,-0.295075,-1.892506,40.760306,8.462889,35.782789,51.327706,14.759062,0.708318,1.448481,1.113288,1.526341,2.469434,1.784524,1.488146,1.764852,1.608907,1.90088,1.840075,1.384127,1.77107,0.365461,1.29625,-0.019256
-2.283679,0.623172,-1.987018,0.896514,2.201754,-1.509041,-0.378189,0.782581,0.552865,-0.831083,-0.499012,1.162886,74.85461,31.437685,73.171701,-53.224781,51.105636,1.861463,0.85921,1.749245,0.31044,1.320487,0.925771,2.191189,0.809577,2.304936,2.303178,2.011324,1.827198,0.975242,1.138214,1.95572,-0.052066
0.958253,-1.594002,-0.4532,-1.719823,0.725135,1.113624,-0.933151,-0.630919,-0.982575,-1.923974,0.174018,-1.666363,-26.71533,-54.558947,-22.220624,37.967667,22.575964,0.3885,1.527126,2.155671,2.365148,1.787331,1.428335,2.273751,2.433827,1.832331,1.735464,0.452378,1.870781,2.216878,0.576739,1.753736,-0.023287
-1.544972,-1.074479,-0.888899,-1.458366,-1.629099,-1.28346,2.207801,1.154772,-2.075271,2.024374,0.20938,-1.099366,7.425416,-1.028257,-31.915263,0.179511,17.044805,0.955637,2.398633,2.078498,1.322626,0.873424,2.140878,1.244993,1.094454,2.242245,1.662691,1.344463,1.144634,1.867848,2.424593,1.886016,0.011307
-0.740924,2.133836,2.095366,1.130013,1.195143,-2.142774,-1.525984,2.3239,1.511121,2.339214,-0.295132,1.867545,-44.554509,-27.631569,-3.773191,33.987038,20.142657,1.189638,2.247863,1.581757,2.336434,0.690483,0.953015,1.067019,2.392516,0.514642,2.084497,0.896434,1.873357,0.513468,0.364882,0.569877,-0.009639
0.170845,1.542386,0.034641,-2.125683,-1.732675,1.493024,-0.22007,0.514782,-0.003662,-0.293989,2.224195,-1.337674,16.528769,-0.975563,-46.284491,-3.444876,1.963597,1.407601,0.30869,1.158713,2.248338,0.566391,1.081729,2.113504,2.407906,0.423506,0.37151,1.717085,2.05367,0.28419,1.12904,0.769969,0.003723
2.061156,1.073606,0.367127,1.788046,0.778056,-0.092488,0.640591,-1.394691,-1.140807,1.168649,0.240471,-1.639809,-70.460466,20.954747,-13.568224,-41.137764,-52.399242,1.014188,0.953824,1.177799,1.273342,0.563431,0.839049,0.403264,2.152106,0.952692,2.402502,1.854545,1.584588,0.413729,0.288576,0.58948,0.026717
-2.108379,1.633802,0.224208,-1.640075,-1.9723,-1.49805,0.568927,0.525926,-1.198299,0.935509,-2.134983,2.18591,25.836421,-17.274754,63.216534,30.287251,-62.174087,0.476747,1.935677,1.665234,1.33488,2.0814,0.597373,2.049062,1.591751,1.566753,2.1758,0.913197,2.35358,0.861917,2.242634,1.453413,-0.003928
-2.306648,0.98482,1.962244,2.135982,0.462783,-2.158089,0.257734,1.053924,-0.564454,-0.746057,0.681947,0.949319,-30.109433,50.761627,-49.336988,-6.75812,-33.727462,1.263254,2.011672,0.927212,1.65055,2.03752,1.098418,1.352145,2.00299,1.256242,1.154129,1.699239,1.363146,2.388743,2.354868,2.263276,0.010373
-1.519571,1.724443,1.513214,-0.174048,1.172307,0.461306,1.295107,0.334439,-0.956757,-1.544563,1.078032,-0.656712,-30.242632,62.08505,63.436734,-18.81369,-1.683215,2.278189,0.530527,1.321008,0.684036,0.598188,2.251992,1.23138,1.801508,1.191667,0.354671,2.212528,1.716214,0.903147,2.193786,1.71869,0.001913
1.924332,1.121085,1.943324,-0.125212,2.003073,0.333035,-0.990619,-0.471314,0.156971,-0.732122,-0.73437,-0.801886,4.525709,13.583778,2.56002,-23.747859,19.730099,0.681587,2.184793,1.311074,2.479883,1.887271,0.367037,0.794842,2.157591,0.875829,2.061178,0.468886,0.320721,0.858418,1.936855,1.222209,-0.007984
0.166238,-0.479952,1.059307,0.3701,-0.084208,-1.563487,-1.250838,-0.868684,-0.983715,-2.233675,2.221257,1.119473,-50.270267,57.616566,-38.376461,6.816077,-42.188924,1.086297,2.398973,1.043642,0.990115,1.365115,1.730514,0.507975,0.288597,0.946879,1.441266,1.360454,2.154352,0.441919,1.574965,0.682291,-0.000634
-1.254584,2.155711,2.185091,1.177958,1.193157,2.174295,-1.194796,-1.450175,-0.621509,1.668329,0.895782,-0.67959,30.43893,-62.898263,68.887437,-58.848033,41.102721,2.326581,1.597672,2.06958,2.188623,0.435875,1.252302,2.436406,2.434619,1.645161,1.472696,0.856552,2.064811,0.774979,1.329265,2.204421,0.014895
-0.73434,-0.298793,1.588732,1.426716,2.184269,1.505921,-0.217737,2.014199,-1.161554,1.19629,-1.711292,-1.981488,-13.387811,-8.93426,-8.103335,7.246492,-8.204206,0.80357,0.345377,1.247425,1.47552,1.056109,1.268894,2.299178,2.29075,2.38925,1.880284,2.190888,2.495521,1.463349,1.251649,0.464138,0.015116
-0.859043,0.830171,-0.697091,-1.007181,-0.788565,-2.170441,0.002202,-0.68727,-0.880934,0.466015,0.326177,1.543254,15.137872,22.218653,-71.093166,37.15883,-71.53982,1.828636,0.384768,1.799291,2.182313,2.388804,1.136211,2.049922,0.291898,2.428052,1.511986,1.956423,1.59747,0.934961,1.39638,0.71362,-0.028518
-0.254756,1.880368,2.068094,-0.127723,2.209145,0.190933,-0.133745,-0.047761,-1.61604,1.421357,1.647734,-1.249126,-11.560839,-53.019327,54.172148,-28.715826,73.115706,2.21002,2.309088,2.346194,0.473319,0.579903,0.92578,2.328911,0.262919,1.380692,0.284212,1.499593,0.65674,0.831114,2.040353,1.454398,-0.01031
-0.622547,-1.640975,1.748049,-2.291506,1.021033,-2.017903,0.165481,0.937879,-0.006747,-0.294806,-2.077064,0.162332,-5.067026,38.489705,-53.526816,74.811009,48.62773,0.418937,2.329296,2.22866,0.594175,2.298834,1.003444,0.377586,0.329721,1.36771,0.352226,1.606029,0.772131,0.713441,2.051346,1.728684,-0.055459
-1.658517,-0.92082,-0.742499,-0.783006,1.712962,1.773295,-2.08852,0.829947,0.247472,-1.777714,-1.499787,-0.355123,65.093822,-68.13553,-53.85326,-11.746982,-31.529435,1.89667,0.838777,0.323623,2.374801,2.031482,0.869894,1.308545,0.467172,0.759567,1.03546,0.731298,0.681435,1.883782,2.470376,1.858409,-0.017098
1.163396,1.494355,-1.409731,0.543658,-0.05601,1.109718,-0.597964,1.5513,-0.952897,2.075953,0.023019,0.470994,-26.277796,-50.92,-62.441329,-51.409855,-45.431559,0.351693,1.659361,1.638842,1.023006,0.654939,2.05784,0.610698,1.00145,0.625358,2.14443,2.432366,2.018265,1.484771,1.303385,1.495197,0.064795
0.134376,1.226794,2.026763,-2.061248,2.087683,-0.76653,0.600968,1.820363,2.016538,0.459755,-1.222684,1.077673,-62.540282,-64.523106,60.165782,56.306456,-7.388964,1.580205,1.0111,0.808669,0.544108,2.330286,0.870147,1.062695,1.719406,0.561032,1.017732,2.020661,1.255251,2.4994,1.418781,1.458368,0.037989
-0.341322,-1.618892,0.611662,-2.224534,0.358824,-1.095307,-2.229834,0.811029,-1.981598,-2.266516,1.614483,0.678568,22.583557,61.845836,-57.030592,-13.154471,12.803418,0.4306,0.349306,2.028313,1.604292,0.836039,1.559666,2.311619,2.13604,0.92542,0.784033,0.493993,1.542271,2.441205,2.086939,1.438379,0.000817
0.06634,-1.862467,1.925604,-1.052632,-1.285301,-0.46599,0.094819,0.831091,0.630676,1.616969,0.056405,0.807639,73.683933,5.86906,-58.713654,49.625014,47.611299,0.671442,0.419997,2.141522,0.803371,1.509289,1.621007,0.511867,0.45425,1.824356,0.459016,0.935031,0.317876,0.296092,0.910331,1.441215,-0.014786
-1.253798,1.22574,-1.546719,-2.175852,-1.413537,-2.166822,-0.438642,-2.085194,0.182281,0.537901,2.14366,2.279589,42.514384,-60.75263,-19.452314,64.955364,4.807836,0.704411,1.03804,1.345526,1.002028,1.330019,1.376923,2.192762,0.253262,1.078518,2.154376,0.845841,2.05598,0.850772,1.681689,1.148454,-0.015136
-0.282176,-1.867787,2.042156,2.182485,-0.210035,-0.4865,-0.612619,0.284322,0.237896,2.220208,2.342653,0.96317,29.89346,69.383572,29.694874,31.754442,-3.090877,0.649511,0.833599,1.053839,1.370991,1.486495,1.014289,0.412194,1.489462,1.386591,0.434165,1.769509,1.135552,2.227351,1.088833,2.26933,-0.039039
0.392596,1.010768,-0.190888,0.876858,1.720156,0.162913,0.187962,1.778487,0.347388,-0.098751,-0.948876,-1.026671,47.789873,-45.611804,52.404108,-44.158727,24.272023,0.473271,2.010787,1.799335,0.670285,1.231462,0.928857,2.296812,0.763015,0.496608,0.489983,1.64717,1.493466,1.182198,0.957773,2.291591,-0.014753
1.48347,-0.573546,1.962718,0.677957,-0.139318,0.539581,2.100029,-0.598922,-0.419707,0.425831,-1.183759,0.263732,-57.629803,-34.098651,53.979939,40.838345,-29.930756,2.181639,2.299364,0.908993,1.44422,1.508695,0.630987,2.247196,1.629299,0.382237,2.005834,1.808408,2.411719,1.515624,2.347675,0.618687,-0.045812
-0.119937,1.11453,0.165771,1.088568,2.072391,1.411924,-1.380831,0.893497,-1.387469,-2.296595,0.31034,-0.737407,-0.78739,-33.672153,22.130413,-54.153357,44.533305,0.943739,0.413478,0.572514,0.498776,0.927369,2.041069,2.243017,1.139059,0.423529,0.759303,1.098719,1.919582,1.168902,2.47927,0.588172,-0.030604
0.799816,-1.93783,-1.783905,-1.868127,1.031552,0.40933,-0.473324,-0.647764,-1.34806,0.323254,-0.46105,-1.702573,-48.397386,35.139505,39.662287,4.053225,22.557426,2.465002,1.532896,2.387634,1.720832,2.030237,2.442877,0.937029,2.395595,0.512002,0.475712,0.299685,0.552887,1.380119,1.918725,0.258658,-0.001612
-0.777424,1.290625,0.413722,-2.055872,-1.811748,1.402872,1.980552,-1.178473,-0.420674,-1.687205,2.306014,-2.2236,60.783619,-59.715334,14.385102,-29.584272,27.145218,0.320293,0.407206,0.907038,2.330842,1.20709,0.807981,2.491542,2.098906,2.309213,2.183762,1.988124,1.15442,2.083381,2.381174,1.146224,-0.006061
2.061937,0.074079,0.969449,-1.903349,-1.895313,1.225928,1.599258,-0.739203,-1.933839,-0.682876,2.285677,-0.023274,-1.27667,-6.996035,17.641957,-41.63092,59.121178,2.119607,1.47694,2.429431,2.191712,0.605842,0.393666,0.587235,0.413484,0.67685,1.311914,0.840821,0.92064,1.446251,1.888712,2.087069,-0.01189
2.331246,-2.257906,0.23819,-2.271455,-1.278976,2.172775,1.525097,1.614931,-1.221401,-0.916692,-2.044267,0.029275,61.76291,49.221396,13.996956,46.847766,20.406617,2.485299,0.675997,0.485051,1.995646,1.56839,0.424566,2.427537,1.863868,0.779369,0.855458,1.685811,0.680958,0.610125,0.377669,1.737252,-0.009795
0.296923,-0.043195,-0.265672,2.194467,-1.455808,-1.038102,-2.108917,2.021138,-2.347614,0.477805,0.558597,1.259054,72.881335,16.600405,3.004909,-46.492584,-50.857552,0.431773,2.065223,0.953265,0.774681,0.810289,0.770494,2.434985,1.048407,2.329606,0.684067,1.106869,1.649186,1.616,1.86082,1.297838,0.004959
0.210237,-0.840997,-2.183439,-1.693959,1.884836,1.758379,1.687203,-2.339981,1.534164,-1.497248,-0.087977,1.06252,-69.62732,73.641052,35.153193,-30.27885,53.37392,2.206978,0.682333,1.22408,0.616402,2.365221,0.769562,0.276927,0.559309,1.312498,1.652793,1.483515,0.439023,2.404993,0.968792,0.734433,0.006424
-0.234856,1.753572,1.010876,1.631397,2.206281,-0.829389,-0.294102,0.325566,0.710643,-2.129033,-1.485793,-0.781999,-6.281702,23.437189,8.829777,52.06682,-12.961553,0.702702,1.568014,0.865688,0.375941,1.946719,0.500112,0.888352,1.036177,1.518843,2.447818,0.728618,0.636697,1.460284,1.488034,2.146273,0.030563
-1.454361,-0.286131,2.342039,0.073431,-0.496959,-2.042851,0.268232,-1.575625,2.096045,-1.589493,-0.069997,1.659444,-74.802403,-53.994078,21.523735,-50.583976,35.122296,2.131488,0.922932,1.725872,1.226822,1.690811,1.459163,0.649414,1.449682,1.061155,0.581172,2.004465,1.298559,1.388645,1.199651,1.790502,0.041897
-0.367947,-1.429545,2.114821,-1.758382,-1.72744,-0.052625,1.456287,-0.327832,-1.085672,-0.518108,0.652693,-0.623668,-52.010009,67.786429,36.511099,-7.954501,-41.301105,2.160032,1.39865,0.603229,1.476487,1.575951,1.501122,1.60652,2.273512,0.661169,1.020563,2.356022,1.403034,2.28715,0.377356,0.970301,-0.021374
-1.461559,1.26159,-2.209122,0.192518,-1.758829,0.182229,-0.337614,-0.568568,0.796395,1.828159,1.100501,-0.008512,-53.866283,69.380775,-17.312647,26.337518,4.662423,2.295201,0.685728,2.035426,1.909815,1.259261,2.394254,0.47308,1.061541,0.328258,1.52679,1.012497,1.786274,1.653283,0.720649,1.705092,-0.000729
-1.138887,0.451382,-0.5641,0.504936,-0.545262,1.379851,1.484645,0.336133,-0.759629,-1.224866,2.110278,1.998449,-62.791673,60.359796,17.087292,-63.875659,-8.198709,2.189494,1.583052,1.610301,0.575481,0.859579,1.187446,1.397996,0.870272,0.913982,2.037069,0.272778,0.574352,2.1307,1.16927,1.914318,0.055633
0.355315,1.177154,1.812553,-2.00936,-2.329151,-0.223085,1.679586,1.59402,0.764033,-0.162878,0.413639,1.258177,54.044641,-71.713864,-44.919854,-17.982925,10.977081,1.252016,2.125625,1.386048,0.304168,1.646417,2.329346,0.816266,2.228644,0.325034,1.345838,1.742019,0.358199,0.747193,2.330251,0.284919,0.001879
1.841389,1.96938,-0.442708,0.267015,1.534314,1.02109,-1.055017,1.05411,-2.154617,2.055603,2.00029,0.686454,41.293207,-35.062827,49.074242,-59.207732,-4.353125,1.93036,2.316264,1.448785,1.725488,1.522632,0.877103,0.967996,0.863158,0.593279,0.746308,0.941668,1.61096,0.403141,2.34509,2.178528,0.006998
-0.343597,-2.152915,-2.315417,-0.298737,-2.181202,-1.79355,0.951524,-1.578473,1.356129,-1.364361,-0.32217,-0.175133,56.581083,-41.7333,-11.574584,15.961514,65.164848,0.25905,1.608836,0.710736,1.585938,0.616189,1.033483,1.250818,2.251224,1.826435,1.636296,0.981169,1.764905,0.251348,0.404862,2.014965,0.010741
0.484829,0.805949,2.178943,1.526878,-1.44029,0.596634,-0.339215,0.806094,-0.100782,-2.089853,1.985862,-1.464086,38.249411,-42.151709,6.224846,70.986604,-28.148693,1.448637,1.492061,2.326503,0.285389,1.036722,1.694027,1.50433,1.522152,1.814319,0.502118,0.843193,0.287496,0.442571,1.295719,0.894501,-0.009696
-0.088029,0.193974,-0.843955,-0.067846,0.111909,0.611197,-0.626804,2.210375,2.017213,-2.344097,-1.672211,-0.159404,71.30313,41.70998,69.640186,-7.392599,-47.413457,2.455526,2.031381,1.418199,0.665731,1.196362,0.502732,2.172262,2.216456,2.473487,2.399528,1.373558,1.897352,1.042572,1.015232,0.507668,0.008992
-0.899546,-1.322814,0.517757,-1.847628,1.55606,-1.058113,0.850633,-0.801697,-1.398268,-0.009294,-0.693653,0.218075,-33.331856,41.495497,64.81881,-40.265558,56.766438,2.477931,0.58343,1.706271,0.300424,1.718152,1.989003,2.415424,0.776971,1.044055,1.178702,0.697144,0.401888,1.526846,1.957625,1.552645,0.013186
1.327043,-0.130674,-0.269336,1.870623,-1.492803,-0.785384,-0.540116,-1.661983,2.100765,2.336453,0.427132,1.843621,56.709136,10.441548,-8.905537,24.632991,6.672504,0.546592,1.315439,1.587062,1.499907,1.433693,2.329383,1.445658,0.931798,2.227242,1.510122,2.116868,0.446484,1.801707,2.29135,1.212228,-0.015912
-0.591784,1.744825,0.067914,1.029186,-1.651856,-2.065532,0.782377,1.839055,0.446065,-0.399234,0.509723,-0.209973,18.020081,13.501444,-31.224634,57.584764,27.129868,0.950343,1.16076,0.648641,1.962871,1.977795,0.800102,0.569656,1.958884,2.459464,0.713022,1.760731,2.104279,0.370638,0.560892,0.914139,0.010958
1.822933,-1.910712,1.589547,0.977083,-0.849388,-1.830376,-0.659946,1.256853,-1.703933,-0.809649,1.609254,2.337441,-57.625102,44.917939,-14.20341,-66.707709,-56.468831,1.050374,1.635419,1.986806,1.503537,1.694284,1.327227,1.702318,1.352934,1.767148,1.959969,0.448804,0.298099,0.891797,0.434089,0.485084,0.042702
0.589668,0.397305,0.044419,1.996431,1.802003,-0.252449,-1.764516,-1.15871,1.862408,1.799962,-1.570271,-2.162311,-0.404056,-40.96389,19.903255,14.005536,41.045881,1.496724,1.939293,1.698294,1.233262,1.941231,0.527212,1.84665,1.655394,2.455846,0.652649,1.828353,2.370775,1.866501,2.288837,1.737676,-0.005364
0.454206,-0.233377,-1.660566,2.340902,-0.193636,1.822104,-1.708623,0.468601,1.377927,2.138993,-0.760588,1.512644,-10.661684,59.068908,71.130877,-3.346186,10.659253,2.126074,2.169425,1.777905,0.499968,0.705606,0.862995,2.349393,0.255474,2.243733,1.917958,0.873541,1.849159,1.071306,2.446851,2.478992,0.007304
-1.424884,0.337941,1.343282,-0.510908,-0.865744,1.293286,-1.9857,-0.5283,-0.99706,-0.333974,-0.639092,-1.680992,-53.008674,-66.785568,-15.044032,54.950497,3.005998,0.952141,2.1289,2.427463,0.615226,0.596035,2.065539,1.767814,1.8976,0.704661,0.738465,1.873729,2.261858,0.543797,1.602393,0.416503,-0.024232
1.242209,1.925219,1.895049,-0.952744,-0.079077,-0.157146,-2.221447,0.394014,1.28904,2.038879,-1.046148,-0.681151,-54.408879,-50.027951,-69.777228,-45.867959,-52.794358,0.403451,0.797978,0.868939,1.006601,1.694273,1.137803,1.810347,1.24842,2.443343,2.01133,1.924878,2.415491,1.909339,2.253354,1.629251,0.052837
1.709609,1.956262,0.560966,-1.333987,1.219775,1.869769,-1.720192,-0.763777,-0.25226,1.416941,-1.892813,0.834676,-12.255902,-34.953138,-57.384955,31.055221,-54.903208,2.001726,0.264969,2.080037,2.429357,0.957509,2.359728,0.695566,0.878731,1.335679,2.001084,0.720026,2.4827,1.986032,1.995947,2.128096,-0.015143
-0.299943,1.118304,2.335061,0.597037,1.721241,-0.461763,0.450442,-2.236519,1.55348,-2.011023,-2.001058,0.539375,-43.085518,61.702124,-72.396846,26.206573,53.872909,2.004639,1.968662,0.301432,0.66812,0.835211,1.147573,1.758834,1.721247,2.255451,0.871755,1.09131,1.147083,0.281702,2.060471,2.090424,0.026131
-2.330943,-2.072218,1.491156,1.366664,1.335165,-0.284796,1.22732,1.444327,1.288594,-0.747208,0.193521,0.960234,-40.942201,-65.574205,-55.66635,-34.346499,-61.610578,0.79034,0.751108,0.625068,1.773618,0.456075,0.995549,0.447318,2.318277,1.524953,1.641368,0.717867,2.198674,0.607977,0.271585,0.785233,0.023151
-2.271105,-0.109415,-1.106379,0.181172,0.749217,0.582778,-2.302928,2.246914,-1.198916,-0.004535,-0.826309,-0.366899,64.862655,-53.359673,33.977077,2.729575,-24.02985,0.329565,0.995152,0.525952,0.929601,1.3028,0.657938,0.720202,0.930625,0.515657,1.141335,0.424025,2.335082,0.477546,1.861893,1.339056,-0.008155
1.59933,0.46588,-1.946904,1.220471,-0.574458,0.775393,2.275623,0.641802,0.104788,-1.260464,2.283228,1.231433,-3.710406,39.198013,1.004198,-72.43841,-72.349711,2.401016,1.624512,0.916224,1.469664,1.637805,1.591987,1.022813,1.916759,0.969151,2.269627,0.612742,1.598961,1.233689,2.354795,1.044499,0.069541
0.068929,-0.764652,-0.821166,1.250437,-1.158616,-1.271073,-1.667186,-0.536144,-0.886206,1.392545,-1.93852,0.752819,-4.385386,-55.189579,28.750148,53.735449,-18.301353,2.262485,2.091135,2.205842,1.835349,0.702028,1.481708,1.569354,0.890171,2.352893,0.576326,1.566716,1.550422,2.188929,1.076902,1.985151,-0.017141
-0.004244,-0.651094,-0.772938,1.282412,-0.969094,-1.546207,1.721936,1.793159,1.899566,-0.433229,-0.640946,0.147791,15.48045,-70.074879,51.503114,-37.166599,-59.026324,2.04353,0.861491,1.830409,0.929087,1.662271,1.039655,1.476451,0.95744,1.201263,1.873512,0.862236,0.849164,1.645027,1.467047,0.403324,0.031591
0.271522,1.882038,1.85872,1.08968,1.913151,1.706855,-1.912598,-1.836836,-0.837347,-2.100317,0.477074,-2.307147,64.622787,-34.821091,61.928401,-19.360146,-35.975281,1.576692,0.458702,2.407339,2.139286,1.486083,0.840494,2.186584,2.162148,0.966469,2.195216,0.996604,2.427942,1.914239,1.371176,2.34794,-0.022111
1.369264,-2.090912,-1.666692,-1.658885,2.328879,0.357927,-2.036083,0.923456,-2.076075,-2.057628,1.672397,-1.430796,-1.854173,36.913381,3.195031,-1.119846,-71.254875,1.664792,0.654429,2.493999,0.648316,0.99535,1.600154,1.033004,2.190869,2.184909,1.024497,0.976523,2.422365,0.436921,0.826801,1.550803,-0.002143
1.637311,-2.070233,1.873751,-0.757762,1.886738,0.743742,-1.89384,-2.295608,-1.96236,0.627473,-0.382091,1.17958,5.66036,33.668476,66.080793,19.892856,-10.771768,1.508376,2.026007,1.100064,2.027832,0.277684,2.041542,1.201801,1.91504,1.332171,1.542808,2.475021,1.176384,2.232978,1.158283,1.759899,0.020646
-0.364774,0.057867,1.822275,1.168087,0.221084,-2.32068,0.773767,-1.493279,0.648079,1.927305,-0.745931,-1.913884,3.536322,34.965885,-28.37523,-52.488811,-29.446493,0.516918,2.089536,2.3299,1.131074,1.202181,1.556417,1.706476,1.48456,2.249981,1.176131,2.486136,1.229458,1.004903,2.409373,0.335691,0.054593
-0.396665,1.280588,1.366912,0.790169,0.864599,-1.699136,-0.297811,-0.753008,1.666564,-0.497062,0.948675,-2.338637,18.196254,-25.554143,-38.489771,52.426819,37.552868,0.640664,0.631922,2.214176,2.400635,1.974013,2.484627,0.619909,0.556117,1.652024,2.072724,1.015083,0.257319,1.767376,1.296126,0.997965,-0.027207
2.269836,2.339302,1.18737,-0.844577,-1.083349,0.825339,-1.793122,-1.27709,0.879908,1.143418,0.308965,-0.272235,9.046906,-48.648244,18.970294,-66.263019,67.435976,1.321653,0.266029,1.895415,2.230912,2.442667,1.903241,1.025995,1.391208,1.527534,2.255155,0.389459,1.892111,0.715454,2.137781,0.939258,0.041866
2.274681,-1.056287,-1.439899,-2.261132,-2.136724,1.20038,1.041927,0.427946,1.386058,2.137891,-0.440695,1.116892,68.78253,-22.025719,13.73287,-41.661551,-5.695826,0.928659,1.222346,0.720212,1.106859,1.48357,1.361981,0.807695,2.187734,1.250503,1.462561,1.51475,1.156527,1.49851,0.453799,0.995406,-0.028963
-1.944932,1.373262,-0.870278,0.493993,-0.696526,-0.936788,-0.499948,-0.435218,-1.082993,2.088836,-0.233847,-0.138738,27.734726,-62.45201,69.066539,-48.677324,-19.782553,2.344545,2.018013,1.750449,0.302137,1.269815,2.039508,0.760626,0.839797,1.715919,0.446385,2.386622,0.449424,1.724214,0.356446,0.532099,0.034569
-1.495319,-0.657351,-2.255967,-0.149435,0.150785,-1.017444,1.083777,1.650838,-0.916971,-2.020805,-1.477611,0.084374,-11.051957,-50.242474,74.736937,3.700868,-49.506317,1.334912,0.37095,1.312488,1.479974,1.681846,1.540101,1.972105,1.919039,1.03716,2.306136,2.22088,0.336635,0.570416,1.237007,1.870588,-0.000176
-2.169733,-2.244084,1.635413,-0.981097,-0.641472,0.718793,-1.8113,-0.486475,-0.197524,-2.270709,1.830219,-1.986849,-31.14247,-61.495034,-47.033216,12.741825,-48.147972,1.78054,2.039372,0.719863,1.992283,1.299323,0.720071,0.981766,0.533504,1.859137,2.261548,2.082703,2.244611,0.929984,0.982812,2.368534,-0.004365
-2.192319,-0.138972,1.643531,-1.206103,1.724013,-0.996008,-1.506516,-0.347597,1.292186,-1.626529,-0.510566,0.177721,-22.366762,-18.174754,-63.092996,-53.986314,2.025312,1.216273,2.149417,0.743835,2.131587,0.328597,0.479185,2.404929,2.146894,1.101854,0.605802,1.96472,1.552576,2.396178,1.319255,0.471301,-0.023663
-0.544514,-0.186537,-1.380426,-1.723842,-0.853095,1.82564,1.171294,2.296967,1.23655,1.054328,1.499062,2.310345,-3.460716,35.743385,-10.920486,59.393968,-15.57658,0.691423,0.988036,2.427885,0.966963,1.497681,2.27436,1.421998,1.515651,0.538366,0.314231,2.02476,0.382423,0.626542,1.797781,1.555806,-0.03187
-0.850709,-0.485078,-0.267224,-0.319119,-0.734685,-1.391052,-1.243122,1.586679,-0.104129,-1.805611,0.878473,0.576443,-12.811877,70.776373,38.497986,-64.343839,73.104679,1.680053,0.646166,0.868822,1.288547,1.860146,1.22326,0.334248,0.951448,1.731032,2.460436,1.298283,1.234446,1.577607,2.34519,1.600957,0.051897
-1.974001,-1.813492,0.375407,-0.420901,-0.788632,1.405316,0.647362,-0.689271,-1.533203,-1.199766,-0.15997,2.165161,25.381498,-13.171068,33.852834,14.579906,-55.515435,0.656382,1.559551,0.372497,0.314232,2.044852,0.572809,0.954306,0.267332,1.302496,2.303486,0.446321,1.322226,0.895815,0.455888,2.365191,-0.001488
0.698634,-1.323766,-1.34578,0.950068,2.22605,1.569351,0.848669,-0.825589,2.312006,-0.479043,2.194667,1.897957,25.270921,-71.632844,-33.203214,-46.416776,23.250319,1.646605,0.992968,2.060216,2.295614,0.883261,0.965148,2.488071,2.265233,1.016234,1.599197,0.705473,0.888056,0.550447,0.85744,1.244354,-0.028401
0.580989,0.614763,-1.948106,-0.137643,0.41389,0.769167,1.312726,-0.425183,-2.065245,0.883756,-0.162843,1.001484,-22.830188,-6.970789,-8.045955,71.629713,-19.412293,1.188966,2.20764,0.562804,1.543702,1.743297,1.595914,1.781812,0.917223,0.259897,2.330643,2.358411,1.070146,0.947828,1.643647,0.775382,-0.067902
-0.657646,2.213715,1.60363,2.047719,1.433826,-0.845547,1.450467,0.815459,1.795429,2.342677,1.359824,-0.526839,-0.330397,-2.9798,18.500197,-17.183533,-53.638816,1.261167,0.67774,0.520706,0.507392,1.741223,0.484863,1.091322,1.341332,0.266719,2.245667,0.672036,1.40683,0.837428,2.408054,0.666142,0.004844
0.446234,-2.268217,1.305422,-0.664599,-1.558129,-0.727063,-0.526731,1.803312,-1.819255,-2.232427,-0.362945,-2.18258,-44.202982,30.479715,22.574288,56.061956,-66.703581,1.568609,1.853912,2.20269,0.610248,2.432027,0.821453,1.661666,2.128261,0.678833,0.89275,0.697205,1.416132,1.93631,1.057046,1.263854,0.001566
0.827998,0.476398,0.478965,1.208893,-1.959338,-0.424807,-0.463366,1.779556,-0.537963,1.534625,1.546674,1.40873,47.09528,-19.633156,25.550818,-17.406941,-58.463517,2.180132,1.732728,1.714783,1.609754,0.389063,1.980572,2.472472,1.07811,2.041069,2.242911,1.613299,1.472858,1.317526,0.656361,1.213633,-0.000792
-1.175929,-0.078328,-1.701036,0.747658,-2.046504,0.142734,0.320518,0.677857,-1.809469,2.006378,-0.666216,-0.463319,-68.01163,-71.458321,50.00298,-49.91065,-48.29055,1.835987,2.428646,0.254155,0.328217,0.836082,2.276542,2.094169,1.44454,2.380879,0.681062,2.358063,1.961504,1.502109,2.439473,2.220915,-0.020427
-0.367804,0.968857,2.274574,1.86878,0.519093,1.767375,2.091735,1.361263,0.099035,1.011382,0.717328,1.843745,-27.096216,-6.100116,-74.650944,-58.416214,-51.310188,1.070122,0.545331,0.385394,1.065971,0.519362,0.412701,1.021658,0.508811,0.839047,0.357567,1.385846,1.412117,1.959044,0.659837,1.136638,0.057479
-0.905137,-1.039481,-1.732,-1.298104,1.123641,-2.212183,0.592855,2.123078,0.358475,-2.253139,0.243579,-1.226221,-57.908406,-66.577029,39.869045,29.035136,43.52509,1.017875,2.175163,1.458555,1.689242,2.0928,0.936294,1.290166,2.075279,1.209504,0.890956,2.044131,1.959597,0.947703,1.791339,1.292037,-0.005734
-2.019403,-1.473806,-1.946891,1.429917,-0.559855,1.164753,0.739851,-1.313174,2.315931,-0.476438,-1.143965,-0.067826,14.433001,25.442723,-34.159256,-64.608324,-22.097359,1.520423,2.001157,1.945266,0.835163,0.327137,0.685387,0.804223,2.326784,0.515449,2.154547,1.471727,0.313149,1.838072,1.467816,2.080281,0.055923
0.761062,1.739581,1.480238,1.666121,1.484561,-1.078839,1.225324,0.877843,-0.580314,1.301814,-0.031827,2.302723,-31.471813,-46.761608,-72.345559,-11.806117,24.590541,2.023246,1.939898,0.614126,2.362806,0.68414,2.335895,0.633054,0.981179,1.922262,1.200116,0.60547,0.884517,1.826746,2.362552,0.910531,0.020735
1.04069,-1.505953,-0.301988,-0.273021,1.207733,2.113413,-1.850848,-0.718021,0.643337,2.346636,1.927703,1.222396,-38.487192,-54.231922,74.092936,-20.022247,-63.905457,0.489861,1.847585,1.614431,2.499211,0.493925,0.391923,0.556722,0.572064,1.936713,1.084754,1.205111,1.299361,1.367214,1.012623,1.648583,0.016749
-1.642323,-2.06069,2.036,-2.316116,2.083529,0.113431,-2.085351,2.261816,-0.497033,1.423886,1.734754,0.451847,-69.511668,67.388338,-54.205805,63.034856,-23.174238,2.283848,1.129595,1.105239,1.25391,2.458717,1.658608,2.475744,2.072754,1.532305,1.445124,0.956304,2.357395,1.986384,1.147362,0.460712,0.032022
-1.943869,0.382173,0.203085,1.479416,1.974833,1.663036,1.466079,-0.698813,-1.680515,1.644148,-0.26178,1.632942,-2.912862,-56.467831,-4.82952,-19.739135,44.35996,2.24275,1.153399,0.684869,1.085703,1.401557,2.225761,1.368135,0.74862,1.562293,1.464921,0.675278,1.889254,2.193506,1.50314,1.775313,-0.008046
1.372858,1.772398,1.686523,0.368902,-1.361184,1.230337,0.306077,-1.688841,-1.636375,-1.056923,2.000591,1.040799,10.224142,-62.847555,21.140309,-44.831294,-29.556584,2.012306,0.322017,2.392728,1.826147,1.295174,0.743478,0.630978,2.10317,1.972268,2.416394,1.332119,0.67613,0.460553,2.015313,1.370006,0.011203
0.368212,1.164549,2.026411,1.450158,0.323659,1.634221,-2.161445,0.404079,0.795755,0.494485,-1.845231,-0.561402,-40.768752,-0.412879,-39.261456,-17.298486,-35.66181,1.854305,2.046328,0.63138,2.109923,0.721097,2.481514,2.30315,1.547547,1.128064,2.376158,2.334033,0.851574,1.656349,0.508301,1.25839,0.022822
-1.83921,1.671089,0.158544,2.151305,-1.168322,0.541472,0.895198,-1.071548,1.242681,0.422458,-1.324016,-0.843382,4.733467,55.387295,-5.727371,40.07629,62.208907,2.051434,0.952109,1.603825,1.991487,1.426357,0.529359,1.945198,1.936524,2.400775,2.081374,2.402949,0.359994,1.665728,0.639687,2.22184,-0.006245
0.803794,-1.060631,0.942817,-1.832979,-1.998629,-1.054157,1.372853,1.6837,0.044818,-0.718716,-1.613614,-0.207913,70.216273,74.897213,-2.534053,10.178689,73.218585,1.146328,1.086519,1.621058,1.363771,1.658258,1.09148,1.755201,1.415207,2.134788,2.376089,1.174195,1.444638,1.78112,0.528688,1.901682,0.007832
1.124509,-1.768819,1.915633,1.009455,1.309458,1.198241,-1.906768,1.910434,-1.555204,1.303131,-1.460992,1.35898,-18.282452,-73.173722,19.256382,-57.990625,51.569474,1.797263,1.855722,1.125433,0.89858,1.935418,1.81543,1.177799,1.271687,1.993189,0.778524,2.398761,1.971836,1.892825,1.452566,2.274657,0.008679
-1.240296,1.960921,-1.258401,-0.737109,0.281184,-0.663146,-0.695,1.155139,-0.615679,0.692219,-0.756358,1.920933,17.08747,-60.897334,-51.493431,49.904991,-46.822142,0.778884,1.699256,1.652009,1.816966,2.241705,1.580995,0.789715,1.495575,0.630715,2.170602,1.303078,0.830398,1.25279,1.642055,1.024167,-0.052344
-0.861513,1.720237,1.516147,1.999982,0.22567,-0.639195,1.293643,-0.711066,-0.267703,1.049875,2.071775,0.476416,24.575361,-61.89939,56.956647,-29.63227,-29.564054,2.379146,0.811163,1.968016,0.692691,2.057618,1.386201,0.634798,1.041875,0.539161,2.432178,1.116864,0.887078,2.114126,1.619151,0.828401,0.036745
-0.265823,-0.350831,-1.215056,2.045186,1.283039,0.145029,1.190046,1.716487,-0.240483,1.437406,-1.930406,0.463197,2.779624,67.147926,-44.802944,-3.073919,-63.356557,1.620181,2.388779,0.702916,0.657588,1.586643,1.201473,0.903038,0.35951,0.292861,0.608209,1.919816,0.593476,1.793708,0.593915,2.428603,0.007072
1.684339,1.357766,-2.128349,0.587712,0.505114,-2.270372,-1.929358,-0.777833,-0.873134,-0.379359,-0.017673,-0.152498,16.263149,34.750321,-51.362392,2.278171,39.220055,2.447004,0.551064,2.225462,0.836885,2.280557,2.069374,0.964425,1.594994,2.06043,1.400332,1.879835,1.386978,2.432396,0.279235,1.106768,0.004904
-1.663229,0.009127,-2.118331,-0.682985,0.444951,-0.263635,-1.273014,-1.294609,-1.391126,2.21233,1.872448,0.909102,54.2537,-8.070081,-33.855652,-61.946658,12.514034,1.725653,2.055523,2.169389,1.163956,0.353754,0.301599,1.230083,0.257496,2.478403,1.770008,0.526663,1.617864,1.696571,1.52146,1.430274,0.057566
1.621816,1.394449,1.788958,1.975855,-0.009095,-2.063601,0.249478,-1.051204,-0.844495,0.288952,-2.051296,-0.292539,-53.737227,-11.571116,74.250747,-67.696619,-27.078001,1.375624,0.618198,1.049357,0.299578,1.013057,2.207389,0.83748,1.028026,1.775135,1.186741,0.807376,1.32483,1.921361,1.810706,0.526939,0.071828
-1.431881,0.553038,2.083687,-1.938776,1.162055,-2.185338,-0.613121,1.273406,-1.530222,1.776607,1.742415,1.977847,15.377892,6.236946,-25.649104,15.507313,-68.59629,1.407356,0.680711,0.960046,2.249173,1.097559,0.416192,1.185471,1.960307,1.622918,1.128733,2.372586,0.800409,1.215825,1.362059,2.133132,-6e-06
1.792514,0.479701,-0.569486,-0.485271,1.193746,-2.069313,-1.513194,0.514495,-0.1105,-0.495569,-2.240564,-0.455225,62.291872,-60.507187,55.715397,-41.327854,52.760996,0.685998,2.071643,0.849703,1.704341,1.606605,1.460063,2.283912,2.205367,0.599024,0.544571,1.097938,2.296035,1.20596,2.078715,0.462246,0.024157
0.143165,-1.850452,1.220949,-1.969785,-1.64456,-1.958407,1.094999,1.770894,-0.028961,-1.371089,-0.304318,-1.7263,8.366108,59.173681,32.053395,71.410013,38.085951,2.28365,2.307155,1.347839,1.627038,0.628026,1.976941,2.195663,1.751085,1.981281,0.884039,0.546486,1.784836,2.247384,0.277337,0.701566,-0.01019
0.752464,-1.392748,-1.477758,2.332308,1.452551,-1.855689,-1.983299,2.131574,1.786981,1.728686,2.147177,0.130938,-0.305582,-35.916887,-55.115437,74.853313,9.633812,2.357062,0.896918,0.996559,1.668187,1.469033,2.290017,1.313071,2.283159,0.81067,0.426997,0.53895,1.136346,2.060608,2.139692,1.553394,0.000167
1.515032,2.102241,-1.133708,-2.040557,1.128429,-1.852036,-1.839729,-2.339813,-0.345108,0.716678,0.334443,-0.889191,-52.58079,74.657354,16.152448,-25.805791,-67.930547,0.494459,0.373158,2.409537,0.832307,1.826091,0.355294,1.423193,1.354428,2.120852,2.155577,0.779269,1.423591,1.293984,0.986232,1.3434,0.016294
1.310758,-0.516419,0.759094,1.66129,0.392181,-1.24394,1.974537,1.394254,-1.480128,0.194557,-0.48106,1.286703,14.667581,68.041587,-25.041605,25.751865,61.587681,0.687215,2.277487,2.218875,0.379805,1.625614,1.450625,1.160891,0.595123,2.49042,1.244877,1.397602,0.993987,1.182965,0.351572,1.864108,-0.025647
2.34311,-0.793295,-1.565747,-1.523264,0.904993,-1.37382,0.906544,1.136668,-0.046307,-0.729196,1.318691,0.871825,61.677139,-42.327733,47.799742,-29.734256,56.362466,1.884454,0.268347,0.349772,0.874784,2.497244,1.180504,1.734454,1.461681,2.469038,1.875731,2.164927,0.422648,1.696915,0.543781,1.329959,0.022121
1.233073,-0.821213,0.465132,-0.376939,-1.761753,-1.842766,-1.538876,-2.290284,-2.005149,-2.251499,-0.464719,-2.097339,-41.649977,38.828581,-58.031766,-39.893772,5.376439,2.302147,0.442213,2.021021,0.545762,0.87024,0.379433,2.124601,2.173666,1.061691,0.595617,1.787884,1.719986,1.309857,2.267964,1.911891,-0.004891
0.679267,-1.674369,1.268784,0.898601,-0.413299,-0.250339,0.70989,-0.642935,-0.306649,1.500466,2.340262,-1.533248,-62.403752,-19.854726,51.612884,7.73834,8.273102,1.315394,0.823627,2.199056,0.279132,1.61429,2.366334,1.479529,0.939587,0.383018,1.630016,1.17591,1.016305,0.542212,1.951093,2.024246,-0.005268
1.818842,0.014822,-0.642998,-1.357607,0.082928,-1.096301,-0.092008,-0.712618,1.916347,-1.127664,0.577819,-0.825736,-5.288156,71.961778,11.596279,48.666682,-9.076595,1.370142,0.721933,0.775677,1.806111,2.052152,1.769009,1.735567,2.172986,0.87466,0.40795,2.161617,1.048963,0.421726,1.941599,2.211926,-0.053993
1.964744,1.742369,1.219133,0.504893,-1.277569,2.254841,0.074333,0.538674,1.001551,0.407488,1.554689,-0.535959,70.793184,21.038526,44.499697,6.401774,44.61443,1.145884,0.381045,2.224463,2.055598,1.185411,0.959832,0.904193,1.766877,1.906284,0.416573,0.841939,1.722351,0.560632,1.04581,1.430759,0.000643
-0.745302,-0.763397,1.416004,1.219554,-1.845797,-0.657391,1.789468,1.125922,-1.576996,-2.096513,-1.567985,-1.449563,7.585961,-2.755189,43.535713,4.736194,-48.787356,0.3386,2.097086,0.975908,1.081937,1.113746,2.473662,0.830989,2.180561,2.188044,1.953286,0.627212,1.798418,1.006627,2.121528,2.265849,0.00555
0.921659,0.706743,-1.699025,1.561871,-2.348485,-0.01686,-0.618396,2.151179,1.421904,1.409176,-0.451812,-1.953901,45.614557,-6.13383,-41.283992,39.953327,-54.439769,1.836977,1.079748,0.316848,1.009927,1.345357,0.42124,0.52647,0.626392,1.513358,0.259449,1.564522,0.675497,1.076331,1.395109,1.848677,0.016819
1.060472,1.103525,-1.011557,1.067787,1.521925,0.144263,-2.257015,1.08042,1.790064,1.714529,-0.16937,-0.312366,-10.502821,29.093087,-32.48756,-18.4197,20.108421,1.55846,2.284352,0.597464,1.335494,1.149746,2.286679,1.461786,1.980218,1.021504,2.413988,1.39981,2.1075,0.507919,1.600513,0.314516,0.011446
-1.304556,1.065328,-2.103307,2.065049,0.537345,2.218614,-0.881591,-1.150868,1.722086,-0.391634,1.007853,-2.05829,-1.180747,-44.818361,37.811822,-46.715733,-51.321008,0.592226,1.036199,1.889132,2.395189,0.433227,1.750388,1.526587,2.104017,0.4682,2.279301,1.219733,1.796801,0.825726,1.481569,1.47682,0.040508
-2.140969,0.539235,1.003899,2.17005,-1.855166,2.10402,0.497202,1.403699,1.748368,-1.635401,1.186228,-1.181385,-71.359585,59.460534,53.191167,-16.06345,21.602224,2.403634,0.628521,1.306383,2.384174,2.066686,0.799697,0.499897,1.765092,1.143698,1.879104,0.346668,0.455838,1.527111,1.896462,1.833604,0.010323
1.866853,1.11764,0.592082,-1.436248,-2.167388,-0.517592,-0.096628,1.743681,-0.294047,1.243089,-2.130487,2.343993,-2.596977,2.608063,33.713919,-70.168484,-21.706285,1.111967,1.832773,2.423241,1.659149,0.31642,0.567114,1.988471,2.483284,0.560701,2.195999,0.651602,2.225484,1.214781,1.832657,0.472356,-0.053305
-2.319996,-1.860802,1.631295,0.487447,-2.330833,-0.228321,-1.50943,-2.19737,-0.210519,0.802832,1.620709,1.645227,-30.92511,-8.318435,-7.936214,-33.954888,70.198485,0.264136,1.59129,0.56259,2.45529,0.305705,0.477773,1.185037,1.423759,1.870827,0.744735,1.518849,0.300005,1.434634,2.386487,0.440394,-0.028135
-0.821902,-1.689474,1.862718,2.308839,-1.870897,1.612636,-2.096387,0.553588,1.902184,1.162699,-0.798887,-1.29322,-51.184777,-12.555195,34.832332,-22.999065,4.719701,0.985204,2.074053,0.857116,0.29247,0.786812,2.196192,1.657004,0.263076,1.765365,1.230981,1.853059,1.366476,2.110301,0.320318,0.827523,-0.00721
1.044474,0.825724,-0.035385,-0.952937,1.391149,-1.832014,0.095781,-1.841766,1.123759,-0.237727,0.625964,-2.181553,55.430017,-37.696341,37.603264,48.054222,47.313934,2.204206,1.340509,2.186773,0.84639,2.279606,1.843308,1.733266,1.755731,1.313008,1.229012,0.255794,0.873841,2.400044,1.034796,0.814623,0.0063
-1.489062,0.828185,-1.085329,0.526869,0.508936,0.695951,0.704082,0.692911,1.437785,-0.278628,1.220582,1.286147,17.162633,2.370233,-63.495003,-60.510461,0.676846,1.011309,2.066694,0.924195,0.437262,2.056754,0.370671,1.123933,0.439925,1.818071,0.567594,1.054038,2.460847,1.448358,1.301904,1.354091,0.063461
2.226825,0.448301,-0.514131,1.517058,-1.549756,-1.366248,0.936065,-2.215543,0.664184,-0.716826,1.882879,1.857854,20.89222,-14.466087,18.475741,21.774771,-31.425874,1.004933,0.665835,0.691922,0.381964,1.922002,1.342617,1.613859,1.87587,2.254819,1.498627,2.425921,1.696298,1.431148,2.301194,2.424642,0.001331
1.437855,0.890755,-0.340875,1.182243,-2.195264,2.198792,0.544851,1.13212,-1.09285,1.364233,-1.813935,-2.356133,-42.279515,-41.815331,-40.268967,-0.528454,-31.733827,2.118493,0.761972,0.964124,1.036203,1.96089,2.432284,0.639525,1.748785,1.586195,0.436057,2.058524,0.870174,1.518654,1.51229,0.310399,-0.009286
-1.345472,1.408897,-0.415589,-1.047691,1.647878,1.179186,-1.724854,0.999789,-0.92771,1.267665,0.933921,-0.552571,33.875756,-50.160806,-52.663857,28.561431,31.967433,1.024628,0.930947,1.427885,1.454503,1.089522,0.350687,0.500988,2.100209,1.705341,0.419202,2.27213,2.192544,1.095452,1.012474,1.394942,-0.00014
1.556238,1.930826,1.873054,1.658767,0.404887,0.250932,-0.178412,-1.493314,0.05201,2.333834,-1.185208,-0.516341,65.922664,62.21047,71.361681,-24.221915,2.276837,1.627104,1.728239,0.513238,0.991745,1.754668,1.45079,1.673795,1.222783,1.309288,1.707699,1.801589,0.31074,1.858605,2.318244,0.977779,0.024724
2.058828,-0.357913,2.284033,0.624797,1.767795,-0.275773,2.069886,1.725837,1.382219,-1.124365,-0.525732,-0.245963,-36.075081,-13.879036,-14.958669,-10.3551,-38.168533,2.147049,1.458792,1.165535,2.141826,1.420907,1.181467,2.162604,1.880067,0.793326,1.42821,2.419084,1.54184,1.949086,2.041988,1.936893,-0.001124
0.270074,1.097797,1.669815,2.308584,-1.440122,-1.292264,0.313201,0.224827,-0.674988,-1.800538,1.318719,1.338294,15.168804,-57.910464,48.830027,36.268563,-34.269232,1.930142,0.900459,2.01689,0.865217,1.449365,2.481621,1.846273,2.064802,0.630248,1.083833,1.484099,1.247631,0.439504,1.490177,2.14582,0.00746
-2.08649,1.962405,0.131978,-1.379714,0.822218,2.289188,-2.269033,1.72957,-1.837275,1.197237,0.058013,-0.439304,29.546009,-70.232111,-41.084554,-58.101158,-6.155057,2.154317,2.111092,2.379555,0.93891,0.258165,2.477191,1.645026,1.455918,2.35659,1.950725,0.331995,1.339608,0.538927,0.753008,1.05686,0.038512
1.90081,1.623999,0.398504,1.35326,2.259293,-0.494765,1.857555,0.353194,-1.483759,0.417472,-0.293231,0.827386,-12.165053,-8.051583,-22.954699,0.379771,-67.182832,2.247063,1.634814,0.817664,0.983509,0.580324,1.259538,0.305373,1.657414,0.40086,2.252727,2.329307,2.409262,0.710174,1.147249,0.813888,0.00719
2.00872,1.001488,-0.646088,-1.461211,-2.313657,1.006736,-1.985868,1.364655,0.561373,0.796689,2.062826,0.877842,-18.946258,20.24807,-40.695597,29.099948,-67.1664,1.889676,0.27626,0.609881,0.763425,0.637403,2.08651,0.964644,0.765307,0.758091,0.989268,0.635578,0.656389,1.67461,1.42529,0.595876,0.026424
-1.609751,-1.2594,1.310543,0.595878,1.090602,-1.439089,1.928526,0.918515,-0.296902,0.389728,-0.068637,0.951558,-32.164266,15.188208,-31.793875,-59.652725,16.658841,0.402181,1.950803,1.641266,1.263302,0.564376,0.968915,0.554815,2.279651,0.337355,1.432132,0.837008,2.087063,1.260697,1.791419,0.370221,0.036669
0.598467,2.19926,-1.018617,0.216474,0.306009,1.883633,0.39016,-2.231714,2.197204,2.125714,2.250778,-2.233586,-31.460036,1.171966,47.239255,0.155389,61.616964,1.319663,0.577864,0.412688,0.802933,0.889361,2.248206,0.597668,0.25667,2.104997,1.191394,0.257879,2.17016,0.63594,2.238775,1.838386,7.6e-05
-0.051417,-1.80206,-0.704573,0.473017,0.204425,0.43595,-0.749305,-2.067345,-1.422621,0.669893,0.9927,-2.255562,61.683146,58.638301,33.92013,-54.373948,-62.948123,1.088525,1.584192,0.512262,0.334726,2.243858,1.771164,1.950846,2.37311,0.611871,0.468055,2.092751,2.369186,2.153164,0.729418,0.571806,0.06822
2.137268,-1.477626,-0.165162,-0.274988,1.128335,1.279195,1.515241,0.905265,-1.515929,1.673282,-0.693971,-0.402808,54.197973,-44.6693,-6.922768,49.034287,19.263958,2.415242,2.228232,2.393297,2.392257,0.664204,0.272856,1.88269,2.118513,1.088784,1.436197,1.664346,2.158437,1.593392,2.132488,1.976108,-0.0217
-1.807461,-1.934433,-1.240023,1.828696,0.696458,-0.201062,-0.460624,0.739637,-0.207589,-1.781629,-1.315664,-1.84282,72.12855,-35.454921,59.149626,-72.236884,14.695897,0.534024,1.58979,2.353231,1.749542,0.80339,1.8255,1.675146,1.422601,0.410192,1.602241,2.371761,0.440421,1.158748,0.578601,1.541079,0.055435
-1.138252,1.69953,2.21137,-0.114344,0.88272,1.276496,-1.437166,1.252418,-0.846574,-1.660344,1.367904,-1.381735,-5.117216,-55.058288,-14.638693,-32.510074,53.188652,0.499989,1.066474,2.221753,1.494096,0.519069,2.241474,2.21182,1.065511,1.792106,0.669107,1.685263,0.472158,1.315929,0.820375,1.542651,0.026739
-2.027026,2.337234,-0.582243,1.877679,-0.715805,0.201307,-0.134049,-0.445073,-1.778128,0.973827,0.982451,-0.163742,0.524809,-29.529035,55.512662,1.307718,-71.178447,0.682657,2.172548,0.265298,0.861163,0.814603,1.279062,2.188137,1.268879,2.045005,0.903774,1.473004,1.529275,2.275702,1.467506,1.36887,0.007158
1.992943,-0.269448,-0.008053,1.318654,0.253664,-1.383963,0.080157,-0.547562,0.424612,1.888856,-1.358998,0.266884,-21.407241,58.507947,-56.931852,-3.63822,52.438645,0.419606,2.310492,1.189615,1.861567,0.356725,0.730039,2.022609,2.494519,0.374761,2.352588,2.19023,0.452674,2.340803,2.131941,1.780322,-0.000965
-2.322554,2.25716,1.358698,-0.604338,-1.912528,-0.648349,-1.755213,-0.302504,0.479436,-0.308031,1.84065,-1.033818,-25.746437,29.641567,35.810473,66.613185,-32.198039,2.088465,2.333375,1.038759,2.165137,1.711613,2.328762,2.247497,2.1752,2.08904,0.741917,1.401951,2.082271,1.736045,1.20837,2.076742,0.014723
1.073325,0.353819,-0.393536,2.039307,1.434308,-2.173641,-1.943123,-1.210805,-1.902091,0.402268,-1.354843,-0.588735,36.341964,-0.617038,-20.559313,59.629039,35.25993,0.829671,0.279167,2.216106,1.096091,0.506384,0.550131,2.302506,1.965608,0.718718,0.747574,1.968635,2.09602,1.049996,2.039315,2.025721,-0.004564
-1.910712,1.592977,2.075137,0.42906,1.253704,1.919395,-1.743975,0.063917,-0.176216,-2.280513,1.990795,1.326659,-59.223671,27.763169,-34.426767,-60.679022,17.675962,0.323428,1.347652,0.733262,2.181022,0.936167,1.409508,0.846297,0.710985,1.270391,0.458651,1.541752,0.47434,1.981955,0.959216,1.796085,0.010291
0.927489,-0.270879,-0.490977,-0.45489,-1.847394,0.783694,0.418962,1.190751,-0.555505,-1.130887,-1.75837,-1.525886,-23.573284,-46.182066,68.010435,51.384858,-74.698899,1.909,1.067495,1.39328,0.359318,1.560087,0.379248,1.263121,2.017345,1.77628,2.429232,1.097101,1.734773,2.325817,2.265383,1.285425,0.009707
-0.652046,2.076763,-0.512731,1.486526,-1.044251,-1.797137,1.939202,1.28399,1.989903,0.474656,-0.538246,1.481745,-41.216736,-29.688466,-74.044035,-58.099803,16.612634,2.25301,0.332734,0.266037,2.036465,1.370699,1.089586,1.425244,2.073531,1.083143,1.139129,1.594515,0.758933,1.644828,0.381646,1.069347,0.016035
-0.684647,0.796611,0.746916,-0.386402,-0.585299,2.34809,-1.914808,-1.271254,0.001496,1.581698,1.017457,-0.860389,56.109621,-15.596424,70.901571,42.707365,32.683015,1.42657,1.866715,1.375189,2.297946,1.829782,1.65126,0.482528,2.344878,0.858553,1.954814,1.551493,2.190701,1.615304,1.405563,2.047096,-0.042941
-0.532037,2.175522,0.567385,-1.835305,1.325797,-2.218551,1.952649,1.098586,0.795092,-1.217735,-0.56799,1.086267,34.58567,31.354747,29.226464,-40.825615,-56.104134,0.742212,1.859188,0.880357,1.658334,2.369231,0.660453,2.490221,2.387288,0.403995,0.943613,0.554532,2.012241,1.488321,2.466932,2.485097,0.024665
-0.649036,0.831411,1.289437,-0.712005,-1.917625,-1.492182,0.225472,0.755056,-0.229691,-0.971343,-1.651821,-1.473999,-14.908574,-68.396643,57.618573,-4.649897,-0.816588,0.259094,2.345487,2.106391,2.120186,2.215868,1.600129,0.620012,2.290442,1.708761,1.651023,0.99898,1.860322,1.927807,2.144841,0.338939,-0.011931
-1.567633,-0.248101,0.63571,1.390372,-0.759203,1.216238,-1.035412,0.676641,1.311349,0.006134,-0.586156,2.082935,-14.466727,7.719962,-0.607474,-9.820167,-47.547408,2.43562,0.457775,0.330723,2.465296,1.986859,2.387155,0.422294,2.496017,0.8135,0.739148,2.111422,1.176512,2.142216,1.230383,0.790154,0.002372
-0.740981,1.180133,0.042349,0.196834,0.093568,-1.332207,-1.835113,-0.15826,-2.083082,-2.023321,-1.348804,1.960747,17.250695,-17.564337,-3.80411,-35.676055,-57.452261,0.622812,2.096219,2.154803,1.271239,1.208403,0.377985,0.286252,2.038552,0.447993,2.419163,0.626187,0.319853,2.026889,2.417823,0.600577,0.04106
2.13011,0.734689,1.461347,-0.118645,-0.720805,0.98606,-0.765683,0.705876,-2.145487,0.007365,1.258712,1.262951,57.587793,-71.963905,-47.344395,32.755306,18.42667,0.580732,1.363988,0.790411,1.943771,0.451488,0.407569,0.264341,0.52805,2.442462,0.709103,1.138873,1.790477,0.301953,0.426138,1.848771,-0.024131
0.8557,-0.46623,0.782691,-2.3098,-0.142007,-2.245756,1.816572,-0.437989,-0.524886,-0.172035,2.008316,-1.071397,-29.443679,-9.906809,-3.74163,-35.575307,-14.189488,1.63417,1.254056,0.418547,0.268306,1.917411,0.67388,0.908215,1.872127,2.340942,2.207623,0.266562,1.858229,0.509543,1.885783,2.359533,0.044637
-2.17783,-1.66137,-1.743202,-1.075759,1.163148,2.038096,-0.072326,0.215828,-1.113524,-2.098687,-0.394533,-0.583274,-42.173787,-64.833104,-49.971499,-20.980613,28.841978,0.58179,1.145661,1.124482,0.664608,0.318208,1.37589,0.579081,0.622265,1.91563,2.238564,0.543328,0.468202,2.327181,0.435036,0.65126,-0.008148
0.168364,2.258079,-2.043516,-1.483967,1.648009,-1.327614,-0.055045,-1.520947,2.153435,1.64041,-1.817077,1.375661,55.875188,-55.717069,13.224536,-35.22755,-19.43775,1.520964,2.09178,1.801746,0.690993,0.519408,1.193605,1.414852,0.674452,1.511235,0.573366,1.305019,1.953356,1.812196,0.836267,0.891756,0.002474
1.108258,-1.587263,-0.287423,-0.514324,-1.72374,0.860539,0.750218,-1.440828,0.976224,-1.134163,-0.266868,0.938513,39.071266,-29.230597,-28.649065,-4.841213,-66.259267,1.082495,1.498145,1.081211,2.404897,1.608172,0.79686,2.330153,0.876877,1.669364,1.004807,0.788381,1.577664,1.053824,1.118666,1.92532,0.010722
-0.335823,1.25781,0.236426,1.073059,0.590011,1.445195,1.745492,1.8685,0.527324,-1.271539,-0.070526,2.189103,-66.0174,-4.43912,-58.286458,29.492736,-65.580885,1.106024,0.952772,1.492678,1.43808,1.806552,0.474344,2.051159,0.832108,0.736146,1.16363,1.635018,2.002716,1.155258,0.423276,0.992315,-0.02598
-2.147027,-2.326243,1.52936,-2.134333,-1.035359,1.565286,-1.501922,1.468097,0.238176,2.208216,-1.295201,-1.925039,36.195467,-62.785372,16.251746,-6.908462,-10.525562,0.578256,2.499054,2.342576,0.421012,1.197215,1.34356,1.713736,2.007502,0.59167,0.700647,0.774688,0.931899,1.670415,0.658284,2.033482,0.001507
-0.78687,-1.961732,1.74912,1.570533,1.850292,0.804925,-0.891114,-0.987237,-0.169518,1.90267,-0.093329,0.636959,-37.74252,11.473181,-70.243032,-74.640697,-36.192263,0.874609,1.797294,2.365477,0.576188,1.490031,1.94446,0.793904,2.146482,0.928675,1.488793,1.391325,1.251152,1.112649,2.039386,0.968454,-0.011758
