JohndKim/Relevance-Aware-Algorithmic-Recourse/all_datasets/kinematics32fh.csv
"theta1","theta2","theta3","theta4","theta5","theta6","theta7","theta8","alpha1","alpha2","alpha3","alpha4","alpha5","alpha6","alpha7","alpha8","a1","a2","a3","a4","a5","a6","a7","a8","d1","d2","d3","d4","d5","d6","d7","d8","y"
-0.0013923374,-0.15322909,0.15630204,-0.031471692,0.099482915,0.053745227,-0.22602161,0.068680575,0,0.39269908,-0.39269908,0.39269908,0.39269908,-0.39269908,0,-0.39269908,0.28958654,0.30131723,0.28244663,0,0.31596188,0.30019176,0.28502391,0.29749806,0.28199747,0.31420628,0.29455228,0.28774909,0.31180793,0.30995856,0,0,2.8892811
0.24475291,-0.039345699,-0.29206713,0.2804859,-0.14739352,0.21707524,-0.26206763,-0.057699612,-0.39269908,-0.39269908,0.39269908,-0.39269908,-0.39269908,0.39269908,0,-0.39269908,0.31818054,0.31812148,0.28250078,0.3132386,0.31800729,0.27938962,0,0,0,0,0.29574685,0.27197549,0,0.2908154,0,0.29820034,2.0775127
0.26555963,0.31413154,-0.15189233,0.0038507955,0.0035116507,-0.041628016,0.30478115,-0.22423698,0,0,0.39269908,0,0,-0.39269908,-0.39269908,0,0,0.30925645,0.28487934,0.27063653,0.29927228,0,0.2917042,0,0.27986221,0.31426801,0.28730962,0,0,0.29480538,0.30962077,0.30743418,2.2817474
-0.13817942,-0.11622321,0.078817476,0.18985694,-0.30419622,0.0019941796,0.21529374,-0.044519024,0,0.39269908,0,-0.39269908,0.39269908,0,0,0,0.30737716,0.29478902,0.29011962,0,0,0.30640949,0,0.2917522,0.32698622,0.32117947,0,0,0.30953554,0.32057669,0,0,1.7097512
-0.11574732,-0.090978205,0.2566134,0.12297701,-0.29339319,-0.015594397,-0.086198698,0.16101025,0,0.39269908,0.39269908,0,0.39269908,0.39269908,0.39269908,0,0.30066391,0,0.3149845,0,0.28209847,0.30074352,0.30405821,0.29833653,0,0.29612819,0,0.29023392,0,0,0,0.28929347,2.1501801
0.051556996,0.067186217,0.110349,-0.16071032,0.08308484,0.28313003,0.31010263,-0.0073082781,-0.39269908,0,-0.39269908,0.39269908,-0.39269908,-0.39269908,0,-0.39269908,0.29754654,0.3316614,0.32280328,0.31662293,0,0,0,0.28709433,0.29644732,0.28706505,0.30042577,0,0,0,0,0.29591424,1.4878828
0.13609,0.18515336,-0.18921997,-0.29999172,0.29533549,-0.012792949,-0.12616114,0.18470934,-0.39269908,-0.39269908,0.39269908,-0.39269908,0,-0.39269908,0,-0.39269908,0.30719017,0.30057349,0,0,0.31619148,0,0.29083936,0.30262676,0.28869242,0.2997339,0.29703299,0.30903254,0.27986056,0,0.29741663,0.29606613,2.3841627
0.20562352,0.16258296,-0.025459359,-0.010526243,0.27125203,-0.14637227,-0.2117007,0.1141541,-0.39269908,-0.39269908,0.39269908,0,-0.39269908,0,0,0.39269908,0.30251164,0.2929843,0,0,0.30902385,0.31042809,0,0.27090573,0.28462539,0,0.29635173,0,0.29952178,0,0,0.29243917,1.4618789
0.098662712,0.091598364,0.11329855,-0.22472734,-0.16974166,-0.28199342,-0.056691839,-0.28884474,-0.39269908,0,0,-0.39269908,-0.39269908,0,-0.39269908,0,0.29561619,0.2981243,0.30764055,0.29259672,0.30901998,0,0.31070528,0.31092667,0.29242738,0.31696546,0.32457461,0,0.3093092,0,0.31698473,0,2.3153908
-0.15870751,-0.18502999,-0.25065442,0.12690911,-0.17994125,-0.17553024,-0.18124388,-0.077717649,0,-0.39269908,-0.39269908,0.39269908,0.39269908,-0.39269908,0,-0.39269908,0.30081271,0.29509744,0.31123076,0.28709634,0,0,0.28285425,0,0,0,0,0.30822111,0,0.31834106,0.29778788,0.30169814,2.0054377
-0.040695947,0.26209166,-0.16660591,0.27013816,-0.017642884,0.042389156,-0.078668674,-0.20221782,0,0,0.39269908,0.39269908,0,0.39269908,0.39269908,0.39269908,0.29153221,0.3081477,0.31089466,0,0.32284208,0.32713429,0.30689057,0,0.32663881,0.29865171,0,0,0,0.31983688,0.28109475,0.27520892,1.9749579
0.082518317,0.18635717,-0.063000758,-0.13702076,-0.12055662,0.13212057,0.072710321,-0.037174457,-0.39269908,-0.39269908,-0.39269908,0.39269908,0.39269908,0,0.39269908,0.39269908,0.28581095,0.2956093,0,0.30553785,0.30157629,0.30170484,0.32622496,0,0,0.31440303,0,0,0,0,0,0.31577267,1.816641
0.032178869,-0.15200232,0.040075242,-0.012865967,-0.096728528,-0.25633684,0.12686313,0.303805,-0.39269908,0,0.39269908,0.39269908,0,-0.39269908,0,0.39269908,0.30862729,0.28621277,0.29321739,0.29738172,0.27261294,0,0,0.29946762,0,0,0,0.2705318,0,0.29126395,0,0.29765472,1.7125342
-0.04177865,0.28635385,-0.17073417,0.001520142,-0.21203279,0.18763323,0.020921784,-0.22594709,0,-0.39269908,-0.39269908,0.39269908,0,0,-0.39269908,0,0,0,0.28119934,0,0.30814339,0,0,0,0.28982698,0,0.30287642,0,0,0.31153791,0.27836105,0,0.99045495
0.2473714,-0.012515151,0.14457325,0.1348414,-0.065486419,0.18381503,-0.062978756,0.23276677,0.39269908,0,0,-0.39269908,0,0.39269908,-0.39269908,0,0.33097501,0.32144029,0.30121872,0.30128838,0.31161788,0,0,0.30170621,0,0.29291481,0.29263827,0.30319751,0,0,0,0,1.3180041
-0.19460589,0.28503994,-0.26254348,0.11280418,0.26288415,-0.042069174,-0.19825532,-0.10391402,0.39269908,0,0.39269908,0,0.39269908,0,0,0,0.29002514,0,0.32076903,0.32406906,0,0.31334607,0,0.29088908,0,0,0.30040889,0.27747163,0,0.30180063,0,0.31037393,1.5404919
0.21807353,0.17979311,0.19900456,0.13012712,-0.1303365,-0.24721154,0.18606349,0.027821399,0.39269908,-0.39269908,-0.39269908,0,0,0.39269908,0.39269908,0,0.33099692,0.30670641,0,0.28901578,0,0.30447164,0.2717269,0.31284275,0.31252738,0,0.27494944,0,0,0,0.28394648,0.30802158,1.5596731
-0.11884356,0.020879121,0.31364667,-0.13295918,0.2840503,0.069141449,0.29937699,0.054329181,0.39269908,0.39269908,-0.39269908,-0.39269908,0,0,0.39269908,0,0.31992684,0.30120543,0.31364992,0.30017325,0.31201297,0.32490256,0,0.30482151,0.32614907,0,0.26483983,0.2867573,0,0.31164104,0.32268088,0,2.4765258
-0.076268492,-0.074741703,-0.17506226,0.14433071,-0.17158469,0.15813551,-0.0038320081,0.31224783,0.39269908,0.39269908,0.39269908,0.39269908,-0.39269908,-0.39269908,0.39269908,0,0,0,0.2945349,0.29395226,0,0,0.29871081,0,0,0,0.29628793,0.28916884,0,0.27347689,0.29121421,0,1.6448612
-0.16673758,-0.057878042,-0.11916115,-0.29031524,0.1934129,-0.22939208,-0.03013964,-0.13218849,0,-0.39269908,-0.39269908,0.39269908,-0.39269908,0,-0.39269908,0,0,0.29342518,0.29326582,0.30690501,0.28051618,0.29197258,0.2892529,0.30177913,0.30159681,0.29391781,0.30046103,0,0.29389886,0.30923275,0.28046959,0,2.449955
0.25192964,-0.057035734,0.21450419,-0.11979764,-0.30630745,-0.29552918,-0.10088949,0.18198965,0,0,0,0,-0.39269908,0.39269908,0,0.39269908,0.31562525,0.28496962,0.31810069,0.29674356,0.303518,0,0.30516867,0.29915643,0.30258812,0.30140228,0,0.28004806,0,0.29697483,0.31185093,0.29595967,2.2004877
-0.11343148,-0.12438473,-0.11845704,0.23402273,-0.053914006,-0.097381194,0.084044509,0.076009925,0.39269908,-0.39269908,0,-0.39269908,0,0,0.39269908,0.39269908,0.28608408,0.29526993,0.30127979,0.32794428,0.30591037,0.31191362,0.32130598,0.28765765,0.25762421,0,0,0.32087596,0.29354039,0.27780889,0,0,2.0915462
-0.16299646,-0.012661443,0.19911112,0.03610293,-0.17375083,0.19433183,0.13541875,0.21323711,0,0.39269908,-0.39269908,0.39269908,0.39269908,0.39269908,0.39269908,-0.39269908,0.300034,0.31358224,0.30795691,0.29407436,0.30927095,0,0.31437972,0.28265177,0.30119358,0.2912765,0.29393773,0,0,0.28742279,0.32246515,0.30823848,2.9389294
-0.15264813,-0.13250341,-0.22395796,0.1949643,0.083874657,-0.26542026,0.14328744,-0.11296509,0.39269908,0,0,0.39269908,-0.39269908,0,0.39269908,0.39269908,0.29305438,0.30261755,0.31645149,0.29782049,0.30577642,0.30137399,0.28437864,0,0,0.32115383,0.33947195,0.33218514,0,0,0,0,2.0816036
0.19715616,-0.14828791,0.26474528,-0.17796021,-0.18111127,0.26617209,-0.073604056,0.095810409,0,0,0,-0.39269908,0,0,0,0,0.29423707,0,0.29810869,0.30123544,0.31613489,0.30378444,0.31280787,0.31161273,0,0,0,0.30763815,0.30244037,0.31706783,0.28474207,0.3306988,2.6278522
0.29685051,-0.31094263,-0.2875682,-0.13253302,-0.09319222,0.11646086,0.14538389,-0.063728845,0.39269908,0.39269908,0.39269908,-0.39269908,0,0,0.39269908,-0.39269908,0.29923885,0.3014467,0,0,0.32817297,0.3150536,0,0.31600167,0,0.31688129,0,0,0.27441805,0.28456194,0,0,1.5067846
0.0066901922,-0.026956022,-0.032208524,0.28190259,-0.21323532,0.082834436,-0.15549195,-0.17650073,-0.39269908,0.39269908,-0.39269908,-0.39269908,0,0,0.39269908,0.39269908,0.30080247,0.32718079,0.28480598,0.2863477,0.29296407,0.3060465,0.2985617,0.29253558,0.29108566,0.29151951,0,0.3032362,0.29945773,0,0,0.25837883,2.5472994
-0.08215969,0.18621602,0.077976099,-0.12816598,-0.20974934,0.2381537,0.26011177,-0.14179272,0,0,-0.39269908,0.39269908,-0.39269908,0,-0.39269908,0,0.26797435,0.27774729,0.29724351,0.30152672,0.28486423,0,0,0.30858393,0.31325027,0,0,0,0,0,0,0,1.7749267
-0.011585551,0.060380465,0.080046229,0.10699998,0.10109579,0.14363992,0.15641043,-0.094717542,0.39269908,0,0.39269908,0,0.39269908,0.39269908,-0.39269908,0,0,0.28839792,0.28903999,0.29846945,0.28991962,0.30743143,0,0.29687122,0,0,0,0.28907281,0.32855919,0.29812374,0.29314309,0,1.5726946
0.2356827,0.19919996,0.27252749,-0.07263869,-0.015557049,-0.08681421,-0.13079287,0.2507061,0.39269908,0,-0.39269908,0.39269908,0,0,-0.39269908,0.39269908,0.27514451,0.30410253,0,0,0.28256362,0,0.3045239,0,0.28799814,0.33754413,0.31286415,0,0,0.31823793,0,0,1.1599404
-0.29038343,0.30409167,0.12585225,0.27856644,0.26485019,-0.29957623,-0.26130062,0.26697337,0.39269908,0,0,-0.39269908,-0.39269908,0.39269908,-0.39269908,0.39269908,0.29342295,0.31432535,0.32386546,0.28934067,0,0,0.30099892,0,0,0.27190912,0.27750131,0,0.31037354,0.29799948,0,0,1.3168705
0.17901822,-0.25815443,-0.26210199,-0.0068474024,-0.10200086,-0.27548642,-0.021091254,-0.10905106,0,-0.39269908,0.39269908,-0.39269908,0.39269908,0,0.39269908,0,0.29437178,0.30199168,0.29043221,0.30150863,0.33115157,0,0.2896519,0.29152966,0,0,0,0.30050893,0.30623085,0.30277557,0.27809165,0,1.9583847
-0.125325,-0.21351032,-0.14089894,0.044028306,-0.17548557,-0.058844395,-0.024380261,-0.095371451,0,0,0.39269908,0.39269908,-0.39269908,0.39269908,0.39269908,0.39269908,0.31008644,0.31048526,0.3076393,0.33004733,0.31875759,0,0.29317552,0.28573699,0.30087447,0,0,0.30934993,0.31704912,0.29649792,0,0,2.624177
0.0083409203,0.070815605,0.16257054,-0.23425932,-0.15254027,-0.20475312,0.014947506,-0.1046778,0,0,0.39269908,-0.39269908,0,0,0,-0.39269908,0.29945363,0.29545339,0.28495121,0.3096804,0.28609543,0.29300056,0.27695068,0,0,0,0.32111865,0.29299549,0,0.29234294,0.29955622,0.30303062,2.5744109
0.16681245,0.059558151,0.082424861,-0.12771397,-0.15259882,0.067818035,0.04790291,0.22816659,0.39269908,0.39269908,0,0.39269908,-0.39269908,0.39269908,0,0.39269908,0.30616556,0.31662922,0.2934314,0.30327717,0,0,0,0,0,0,0,0.29324321,0,0,0.3012781,0.3089566,1.5296869
-0.27699689,-0.27480846,0.063660862,-0.078344184,0.224935,-0.11005655,0.049362711,0.25861752,-0.39269908,-0.39269908,0.39269908,0.39269908,0,0,0,0,0,0.32188536,0.29627985,0.30290018,0.35437354,0.3026658,0.3085791,0.29255494,0.29219842,0.28185861,0,0.30655506,0.31419618,0.30665272,0,0,2.1653099
0.13393437,-0.23032411,0.013130102,0.13782279,-0.22277852,-0.088464893,-0.22781213,0.13464378,-0.39269908,0,-0.39269908,-0.39269908,0,-0.39269908,-0.39269908,-0.39269908,0,0.30799514,0,0,0.31830165,0.2822319,0.30367207,0,0.31175418,0.29408147,0.28300749,0.29907393,0,0.28938708,0,0,2.0790365
-0.10658982,-0.11903887,-0.12005585,-0.2477987,-0.25755698,-0.27387289,0.07987263,-0.29740802,-0.39269908,0.39269908,0.39269908,0,0,0,0,-0.39269908,0.30757058,0.30593616,0.29741738,0,0.322226,0,0,0.32240869,0,0,0.31211028,0.30583546,0.30485577,0.33831705,0,0.30219333,1.7382498
0.26897566,-0.077910051,-0.018405276,-0.20475526,-0.021112176,0.16763517,0.063990191,-0.19818506,-0.39269908,0,0,-0.39269908,-0.39269908,0.39269908,0.39269908,0.39269908,0.28876498,0.29426423,0,0,0,0.29305441,0.29838413,0,0.2969549,0.29113721,0,0.31226958,0,0.31428865,0,0.29453587,1.8360848
0.15037126,0.19266989,-0.15090277,0.29905834,-0.27476963,0.088045681,0.09362397,0.22846966,0.39269908,0.39269908,0.39269908,0,-0.39269908,-0.39269908,0,0,0.30570166,0,0.29264161,0,0,0.30922437,0,0,0.29135171,0,0,0.29738616,0,0.28624393,0.31941312,0.29167958,1.6263029
0.27700467,-0.22286318,-0.25469773,0.029461051,0.036888437,-0.1664265,0.14394725,0.29515955,0.39269908,0,-0.39269908,0.39269908,0,0,-0.39269908,0.39269908,0.26248934,0,0,0,0.2962925,0,0.33164824,0,0.2939352,0,0,0.31353782,0,0.30093838,0,0,1.0348895
-0.26347363,0.1877374,-0.11313047,-0.09192143,0.11179057,0.19167725,0.13035368,-0.092432838,0.39269908,0,0.39269908,0,0,-0.39269908,0,0.39269908,0.30444819,0.32495331,0,0.29734174,0.31278835,0.30059157,0,0.30707012,0,0,0.29822539,0.29024225,0,0,0.32889302,0,1.5999613
0.17784422,0.11650826,0.31384516,0.061526847,-0.13058908,-0.094056582,0.040446285,-0.059939205,-0.39269908,0.39269908,0.39269908,0,-0.39269908,0,0,0.39269908,0.29745493,0.31303564,0,0.28596931,0.28756003,0,0.31052997,0.28865119,0,0,0.29623436,0,0,0,0.30995108,0.30376017,1.3271234
-0.0070271365,0.018800519,-0.063904148,-0.24064108,0.031666795,0.038024587,0.079288479,-0.062129046,0,0.39269908,0,0,0.39269908,0.39269908,-0.39269908,0.39269908,0.30459004,0.30138475,0,0,0.30102629,0.29382435,0.30841346,0.30266208,0.29198014,0,0,0.28627791,0,0.29670659,0.28636933,0,2.1725442
0.27752127,0.2914621,0.23216775,0.18521896,0.28499868,0.30064422,-0.010225847,0.29346736,0,0,-0.39269908,0.39269908,-0.39269908,0.39269908,-0.39269908,0.39269908,0.3072288,0.29125568,0,0.3090583,0.31064899,0,0.2932952,0.28067714,0.3119657,0,0,0.27990073,0.31896938,0,0,0.30373081,1.8687901
-0.25612616,-0.10206895,-0.16326357,-0.10386947,-0.26525597,-0.23718495,0.31354737,0.083076846,0.39269908,0.39269908,-0.39269908,-0.39269908,0.39269908,0,0,0,0.32126076,0.31492015,0.29335011,0.31819669,0,0.31141354,0.31130668,0,0,0.29494105,0.30119483,0,0.28994915,0,0.28346875,0.30849672,2.0052357
-0.19989544,-0.023408312,-0.09609622,-0.31055111,0.0094769971,-0.31301731,0.029098307,0.22342064,0.39269908,-0.39269908,0.39269908,0,-0.39269908,-0.39269908,-0.39269908,0,0,0.30820798,0.28882248,0.2907819,0.32178014,0.29213915,0.29724927,0,0.29972309,0,0,0,0,0.30340727,0.29888191,0,1.8445318
0.063511383,-0.077362292,-0.23700342,0.22303258,-0.039763498,0.22580471,0.055770382,-0.11843321,0,-0.39269908,0,-0.39269908,-0.39269908,-0.39269908,0,0.39269908,0.31825296,0.27607379,0.29066552,0,0.31528549,0.29818474,0.29367634,0.33946967,0.31589404,0.31077919,0.32080892,0,0.31974778,0,0.29205314,0.29106588,2.523401
-0.19129915,-0.058970396,-0.25713065,-0.019974259,-0.1852768,-0.00061088753,-0.21409016,0.16688296,0,0.39269908,-0.39269908,0,-0.39269908,-0.39269908,0,-0.39269908,0,0,0,0.28690705,0.30889319,0.3040177,0.31439941,0.28903658,0.3093877,0.31190164,0,0.2829524,0.30578644,0,0.31085495,0.32226804,1.7423614
0.1664155,0.29946521,0.28043692,0.2860226,-0.083284557,0.13014261,0.12998853,0.053731993,0.39269908,-0.39269908,0.39269908,0,0.39269908,-0.39269908,0.39269908,0,0,0.30541208,0,0.29239417,0,0.30300861,0,0.29123653,0,0,0,0,0.29833342,0.2921974,0.31282489,0,0.99183914
-0.20841315,0.075931477,0.065391258,0.10176853,0.14065976,-0.29397254,0.30048324,-0.2024851,-0.39269908,-0.39269908,0.39269908,0.39269908,0,0.39269908,-0.39269908,0.39269908,0,0.27307481,0.27909448,0.30673866,0,0.285055,0.31440983,0,0,0,0,0.2849642,0,0.29737098,0,0.28288765,1.2196523
-0.22687235,0.22152918,-0.17474389,-0.15978679,-0.10321885,-0.011790139,-0.23653119,-0.0083394442,0,0.39269908,0.39269908,0,0,-0.39269908,-0.39269908,0,0.30560861,0.30378004,0.31089575,0.29098232,0.30380226,0.32924965,0.30151251,0.28058588,0,0.33027316,0.30386904,0.30369142,0.27647278,0,0,0.30753677,2.8244232
-0.007337657,-0.17356852,0.11689747,-0.056212129,0.23382136,-0.29680744,-0.22183062,0.13490441,-0.39269908,-0.39269908,-0.39269908,0.39269908,0.39269908,-0.39269908,0,0.39269908,0.3109847,0,0.30659643,0,0.29340571,0.28837221,0,0.31573283,0.30844575,0,0,0.31719514,0.29032411,0.3078852,0.28785288,0,1.8918771
0.06943612,0.22536269,0.16662464,0.04469684,-0.24917379,-0.12083585,-0.16257657,0.13285653,-0.39269908,0,0,0,0,0,-0.39269908,0.39269908,0,0.30913226,0.30520894,0.31265941,0,0.30300979,0,0.32086649,0.31868553,0,0.30243861,0.28965784,0.30689241,0,0.29713734,0,1.6740682
0.28255681,0.10078403,-0.06961845,-0.14817912,0.20820683,0.22633949,0.24747058,-0.23060667,0.39269908,0,0,0,0.39269908,0,0.39269908,0.39269908,0.29400405,0.29887009,0.27425858,0.31058009,0,0,0.3026269,0.27727954,0.29005584,0.29100948,0.3116228,0,0.28764303,0,0.32464867,0,1.7094726
-0.22778581,-0.051384294,-0.30616382,0.23342398,-0.064025765,0.22860525,0.00067693506,0.067513985,0,-0.39269908,-0.39269908,-0.39269908,-0.39269908,0,0.39269908,-0.39269908,0.30957842,0,0.29337034,0,0.29466662,0.31417619,0.28120558,0.31897785,0,0,0,0,0.30881359,0,0.31571694,0,1.5251433
-0.025068962,0.26769002,0.30553279,-0.15777453,-0.21240653,0.18941672,-0.16311438,-0.10958687,-0.39269908,0.39269908,0,0,0,0,0,0.39269908,0.30873718,0.28221172,0.29925255,0.29183539,0,0.29822207,0.31316207,0,0.30203129,0,0,0.30808765,0,0.31155012,0,0,1.8555864
-0.18652898,-0.31140095,0.1776533,0.049335089,-0.20561461,-0.012910449,-0.21603002,0.23621301,-0.39269908,0,-0.39269908,-0.39269908,0,0,0,-0.39269908,0,0.31143498,0.29851643,0.30537347,0.32883336,0,0,0.30131997,0.2913731,0,0,0,0.27073485,0.28355802,0,0.28780247,1.5705861
-0.22676459,0.14769605,-0.15899693,-0.022693318,-0.01724096,-0.11397038,0.24295161,-0.15450212,0.39269908,-0.39269908,0.39269908,0,-0.39269908,0.39269908,-0.39269908,0,0.29494314,0,0.29438722,0.29760997,0,0,0.3099522,0.31265966,0.29745276,0,0,0,0,0.31115656,0,0,1.3894142
-0.14258302,0.014059349,0.047704476,0.034678806,-0.23291068,-0.10532817,-0.27733038,-0.2248741,-0.39269908,0,0,-0.39269908,-0.39269908,-0.39269908,0,-0.39269908,0,0.29494923,0.30420342,0.30739116,0,0.26621256,0.31812862,0,0,0.32629382,0,0,0,0.30104633,0.30711042,0,1.7051721
0.11220822,0.2996603,-0.21068883,0.15615624,0.031479941,0.039169585,-0.15460638,0.25597017,0,-0.39269908,0.39269908,-0.39269908,0,0.39269908,0,0.39269908,0.30116939,0.30896463,0,0.3078481,0.28973746,0.29197058,0,0.3074461,0,0.29143934,0.29474479,0.29342807,0.29476109,0.29921959,0.29607197,0.27425894,2.4525117
-0.099409295,-0.073052806,-0.064102851,0.1896656,0.24989751,-0.28196439,-0.19719905,0.055840624,-0.39269908,0,-0.39269908,0.39269908,-0.39269908,0.39269908,0,0.39269908,0.28857543,0.28107445,0,0.29591304,0,0.2737435,0.30862327,0.30389415,0.2999228,0.29166814,0,0.32062082,0,0.30691726,0.26425405,0,2.1541404
-0.1643068,-0.044399146,0.22596169,0.18091132,0.14319117,0.15395674,0.13519372,0.20105664,0,0,0.39269908,0.39269908,0.39269908,0.39269908,-0.39269908,0,0.30214571,0.32486373,0.31564274,0.28478746,0.28585904,0.2889479,0.29247987,0,0,0.30119119,0,0,0.28857799,0,0,0,2.2550389
0.22586288,-0.22309019,-0.30019394,0.038269958,-0.19498826,0.14175858,-0.047440433,0.0048517068,-0.39269908,0,-0.39269908,-0.39269908,0,-0.39269908,0,0,0.2924195,0.30944925,0,0,0.31522775,0.2936428,0.32371958,0.29309488,0,0,0,0,0.31538162,0.29041834,0.29621347,0.32289408,1.7991908
0.089492117,-0.10054943,0.24260454,0.29563014,-0.087176062,0.070747393,0.27277723,-0.27336509,-0.39269908,0.39269908,0.39269908,-0.39269908,0.39269908,0,-0.39269908,0,0.29305677,0,0.28957083,0,0,0,0.28134777,0.29153242,0.27391756,0,0,0,0,0.29426614,0.30042299,0,1.3226292
-0.20957695,-0.006110171,-0.27772296,0.088548886,-0.24547061,-0.085010753,0.020619927,-0.27271527,0,-0.39269908,0,-0.39269908,-0.39269908,0.39269908,-0.39269908,-0.39269908,0,0.29683754,0.28954205,0.28598087,0.32097879,0.27389697,0.2858222,0,0.27780516,0.31098661,0.30930394,0.32602098,0,0,0.31873637,0,2.0162614
-0.12732996,0.018254695,0.18721803,-0.045808758,-0.21759628,0.30153688,-0.086844924,-0.018693789,0,0,0.39269908,0.39269908,-0.39269908,0.39269908,0,0,0.27953031,0.27446525,0.32695714,0.29164575,0.31436449,0.29736063,0.31121367,0.30868047,0,0,0.30600184,0,0.29006089,0,0,0,1.9714514
0.16593749,-0.19456164,-0.2279209,0.19159037,-0.073123942,-0.0030510144,0.24372045,0.2011459,0.39269908,0.39269908,0.39269908,-0.39269908,0,-0.39269908,0.39269908,0.39269908,0.29549023,0.2831987,0.31036659,0.29424956,0,0.30785609,0.2916582,0,0.27558277,0,0.31991442,0,0.30569152,0.30204241,0,0.31345605,2.0243299
-0.13449598,0.21610545,-0.22514057,-0.20335316,0.29624428,0.18159863,-0.24317903,0.10202312,0,0,-0.39269908,0.39269908,-0.39269908,0.39269908,0.39269908,0.39269908,0,0.29346276,0,0.32117036,0.31196332,0.29123078,0.28135844,0.307245,0,0,0,0.28887275,0.31118906,0,0,0.30768063,1.6846133
0.2542442,-0.11206922,0.15158727,-0.1043864,-0.15685386,0.18169265,0.080348364,0.15842499,-0.39269908,-0.39269908,0,0.39269908,0,0.39269908,0,-0.39269908,0.28687254,0.30596246,0.2961134,0,0.30276619,0.30513953,0.31195974,0.31470087,0,0,0,0.30206735,0,0.29142812,0.30726985,0.32185483,1.8615806
-0.14165738,-0.13659281,0.16054044,0.20343962,-0.099823205,-0.11812689,0.12798023,0.22940363,0.39269908,0.39269908,0.39269908,0.39269908,0.39269908,0,-0.39269908,0,0.30309992,0,0,0.28728509,0.3048493,0,0.3123928,0.30176829,0.28421916,0,0,0,0,0.31065385,0,0.33061407,1.8002877
-0.1146059,0.24322142,-0.017974851,0.11789919,-0.18488002,-0.24329631,0.015876758,-0.1947076,-0.39269908,0.39269908,0,-0.39269908,0,-0.39269908,-0.39269908,0.39269908,0,0.30528969,0,0.30684676,0,0.29320001,0.30422194,0.29350486,0.29549791,0,0,0,0.28547527,0.3136227,0.2961496,0,1.7278807
-0.14048238,0.13371352,-0.17227844,-0.19189843,-0.077928653,0.2972616,-0.31318428,-0.26388513,0.39269908,-0.39269908,0.39269908,-0.39269908,0,0.39269908,0,-0.39269908,0.29017894,0.3276008,0.27462428,0.30498282,0.28256652,0.31153155,0.2986124,0.33019085,0.29901124,0.29761154,0,0,0.28896551,0,0.30996714,0.30843863,2.1691863
-0.014337582,0.30256741,0.26859567,-0.18125678,-0.29441013,-0.14254554,0.015622269,-0.073673441,0.39269908,-0.39269908,-0.39269908,0.39269908,-0.39269908,0.39269908,-0.39269908,0,0,0.30976405,0.28037543,0.29420125,0,0.30160455,0.29759561,0.2825298,0,0.31412255,0.30920502,0,0.32947693,0.29189314,0,0,1.6697784
0.2419739,-0.25048398,-0.15006073,-0.00012874279,-0.27882446,-0.20314019,0.10576177,0.024897736,0,0,0,0,-0.39269908,0,-0.39269908,0,0,0.31665846,0,0.3033916,0,0,0,0,0,0,0.30204162,0,0,0,0,0,0.52061107
-0.091309589,-0.28640445,-0.05125849,-0.076737631,0.20857829,0.18630313,0.28545161,-0.25510758,0,0,0.39269908,0.39269908,0,0,0,-0.39269908,0.31035381,0.29755816,0,0.32279277,0,0.30762209,0.32755334,0,0,0.28594543,0.31361687,0.29033079,0.32610675,0,0,0.29966461,1.9050278
-0.20060832,-0.066852994,-0.16474349,0.15587408,-0.31265235,-0.12020878,-0.30483292,-0.017553342,0.39269908,-0.39269908,0,-0.39269908,-0.39269908,0,0,0.39269908,0.31517276,0.31000814,0,0,0.27744339,0.27507549,0.28449169,0.28153851,0,0,0,0,0,0.30283023,0,0,1.40088
0.21013336,-0.067054304,0.22175853,-0.089981819,0.03827084,-0.18016214,-0.11809433,0.046836512,0,0,0,-0.39269908,0.39269908,0.39269908,-0.39269908,0.39269908,0.29603062,0.27978816,0.29413765,0.28946934,0,0,0,0.30072574,0,0.31274785,0.30885252,0.3009226,0.2903268,0.30164672,0.31397912,0,1.9211472
-0.28038302,-0.008447967,0.015006271,0.25467407,0.20132567,0.18532817,0.2356348,0.022359347,0,0,0,0.39269908,-0.39269908,-0.39269908,0.39269908,0.39269908,0,0,0.30815334,0.32242671,0.29171551,0.29701424,0,0.3057882,0.33812991,0.29828683,0,0,0,0,0.30967945,0.3210417,1.5282662
0.080566202,0.049724629,0.058193515,-0.23355062,-0.179425,-0.29535068,-0.24244744,-0.16845338,0,0,0,0.39269908,-0.39269908,-0.39269908,0.39269908,-0.39269908,0.29653782,0,0.33085866,0.30298666,0.30578393,0,0.30362083,0.32948281,0,0.30423939,0.30717506,0,0,0.29893407,0,0,1.7917937
-0.039627741,-0.005805724,-0.18743041,0.24615568,0.2893504,-0.073184196,0.24090056,-0.068853464,0.39269908,0.39269908,0,-0.39269908,0.39269908,-0.39269908,0.39269908,-0.39269908,0.30349685,0.28503476,0.31159644,0.30610985,0.3064642,0.29371091,0.29094896,0.29593809,0.2792634,0.29142025,0,0.30974559,0,0,0.30484518,0,2.6092367
0.22947374,0.14601776,-0.091752763,-0.19500855,-0.19916351,-0.28828383,-0.22221159,0.015167814,-0.39269908,0.39269908,0,0,-0.39269908,-0.39269908,0.39269908,0.39269908,0.28633491,0.31630552,0.29769663,0,0.28400074,0,0.28455403,0,0,0.26970617,0,0,0.31326395,0,0.32088828,0,1.6844138
-0.11081075,-0.060088112,-0.19301168,0.061328999,0.31410116,-0.034143089,-0.18807999,0.01017631,0.39269908,0.39269908,-0.39269908,0.39269908,0,0.39269908,-0.39269908,0,0.30499574,0.30569138,0.30605476,0.30206287,0.27981147,0.32103802,0,0.32571795,0.30647165,0,0.32792106,0,0.31836464,0.33570732,0,0,1.8194162
-0.13562376,0.11108371,0.24964028,-0.20704611,-0.19592127,0.16871713,0.02726226,0.15259097,-0.39269908,-0.39269908,0.39269908,-0.39269908,0.39269908,0.39269908,0.39269908,-0.39269908,0,0,0,0,0.30253913,0,0.31420354,0.3116703,0.29711774,0,0.29931988,0,0,0,0.30802757,0.30216334,1.2930803
-0.092414564,-0.0081746588,0.2102676,0.30409779,0.22870077,-0.27885324,-0.05853674,0.11983216,0.39269908,0,0.39269908,-0.39269908,0.39269908,-0.39269908,-0.39269908,-0.39269908,0.32186951,0.30896035,0.28246852,0.29595151,0.33012909,0.30787246,0,0,0.30435583,0,0.30936727,0.31003734,0.30409194,0.31214478,0,0.3080143,2.5191123
-0.1041267,-0.19040653,-0.13633693,0.062957617,0.040265791,0.048096465,-0.2886676,0.23937425,0,0,-0.39269908,0.39269908,0,0,0,0.39269908,0,0.31054291,0,0,0.27276513,0.28633087,0.32374194,0.28394745,0.28558293,0.33438896,0,0.30549514,0,0.32466745,0.2957885,0,2.0058608
-0.12487539,-0.19675669,-0.049181538,0.27307383,0.3133304,0.20644596,0.16238276,-0.24863872,0,-0.39269908,0,0,0,0.39269908,0,0,0,0.3088026,0,0.29850847,0.28693039,0.30719258,0.29674077,0.28451541,0.28744655,0,0.30397349,0.29899571,0,0.29778586,0,0,1.9664931
-0.013829834,0.039840876,-0.18195252,-0.049736329,-0.25483262,0.27560255,0.087926783,-0.01973558,0,-0.39269908,-0.39269908,-0.39269908,0.39269908,0,0,0,0.33043753,0,0.28869874,0.27479247,0,0.3044859,0,0.27774706,0.28942388,0,0.30399584,0.29745547,0.3010269,0.30434689,0,0,1.8168755
0.12066273,-0.23369796,-0.14254078,0.095584969,-0.11390279,0.12231008,-0.19279668,-0.095114906,-0.39269908,-0.39269908,0.39269908,-0.39269908,0,0,0.39269908,0.39269908,0,0.29633731,0.28298785,0.30594788,0.30004801,0.29443956,0.31822076,0.28131536,0.30440862,0,0,0.27590075,0.31602195,0.27933592,0.29195835,0,2.0874465
0.0047900483,0.081570223,-0.040301914,-0.026891578,-0.20573234,-0.10660019,-0.29324455,-0.030635287,-0.39269908,0.39269908,-0.39269908,0.39269908,0,0,-0.39269908,0,0.30281041,0.30091232,0.31293549,0.31352711,0,0.28839823,0.29000283,0,0,0.32720511,0,0.32095602,0,0.28367866,0.29456103,0.29026301,2.1732857
-0.085033665,0.26384289,-0.26471367,0.080824938,7.7134258e-05,0.039758405,-0.31139789,0.22902101,0,-0.39269908,0,0,-0.39269908,0,0.39269908,-0.39269908,0,0.29098702,0,0.28649771,0,0.2977887,0.28507687,0.27825881,0.31443047,0.29352461,0,0,0.28056449,0,0.30782612,0,1.5481088
0.2077299,-0.24965015,0.041086993,0.027021677,-0.12097671,-0.016770776,0.24859329,-0.21078964,-0.39269908,-0.39269908,-0.39269908,-0.39269908,0,-0.39269908,0,-0.39269908,0.3068456,0,0,0.31457567,0.30761941,0.28554721,0.29417653,0.28607001,0,0.3124188,0.29513279,0.28087865,0,0,0.31318201,0,1.9084768
-0.27551544,0.11949955,-0.30536379,-0.14338918,0.28796989,-0.027676891,-0.20979149,0.15809839,0,-0.39269908,0.39269908,0.39269908,0,0.39269908,0.39269908,0.39269908,0.33286068,0.30095711,0,0.30225385,0.31073237,0.29028383,0.32132306,0,0,0,0,0.31388209,0,0,0.3221347,0,1.7885007
-0.21818554,-0.17735648,-0.087294628,-0.037050519,-0.044401056,0.19387039,-0.080221268,0.092716677,0,0.39269908,0.39269908,0,0,0.39269908,-0.39269908,-0.39269908,0,0,0.30081433,0.2961919,0.30458287,0.28955006,0.28429721,0.31770495,0.31914072,0.29115735,0,0,0.29751909,0,0,0,2.2337905
-0.21456379,-0.25350997,-0.11403219,-0.16745818,-0.23090744,0.26219761,-0.27090758,0.28077354,0.39269908,0.39269908,-0.39269908,-0.39269908,0,0,-0.39269908,0,0.30307801,0,0,0.28897094,0.30950462,0.28815743,0,0.30117107,0.29057624,0,0.27589265,0.30225733,0.29523452,0.31044533,0.3090495,0.28977544,1.9976646
0.2738333,-0.11696415,0.19226496,-0.045089727,-0.07089492,-0.2389861,0.20106112,0.13722654,-0.39269908,0.39269908,0.39269908,0,0.39269908,-0.39269908,0,-0.39269908,0,0.33443967,0.31556065,0.31260118,0,0.31303642,0.30651505,0,0.27372923,0.30089024,0,0,0,0,0,0,1.3850008
0.092363238,-0.22614114,-0.055330179,-0.022884675,-0.091785396,-0.11515812,-0.24138686,0.063818944,0,-0.39269908,0,0.39269908,0,-0.39269908,-0.39269908,-0.39269908,0.3060909,0,0.29439836,0.30887239,0.25156741,0.30945924,0,0.31577888,0,0.30772798,0.27770477,0,0,0,0.30149669,0,1.9489845
-0.10879798,-0.16067024,0.12828524,-0.2992251,-0.014766675,0.0023168677,-0.016153645,-0.060704011,0.39269908,0,-0.39269908,0,0.39269908,-0.39269908,-0.39269908,0.39269908,0.29693433,0.30631508,0.31227911,0.30261753,0.28893922,0.29727728,0.2932493,0.30022585,0.28345103,0,0,0,0,0.2924666,0.31318378,0.2876671,2.4266467
0.22465653,0.23619286,-0.023041189,-0.20905349,-0.0048186627,0.065826338,-0.12566378,-0.2526507,-0.39269908,0,0.39269908,0,0.39269908,0,0.39269908,-0.39269908,0,0.29366555,0.27143691,0.2967327,0,0.32231299,0.31986198,0.30740179,0.29800789,0.2960999,0.29088647,0.3025603,0.29885505,0,0.32075612,0,2.2248442
-0.29137941,-0.099034287,-0.053469972,-0.17431487,0.13935732,-0.19294885,-0.1393785,-0.16292721,-0.39269908,0,-0.39269908,-0.39269908,0.39269908,0,0.39269908,0.39269908,0.27350183,0.30416648,0.31122363,0,0.28830529,0.30329133,0.31109697,0.30568269,0.31849373,0,0.3332089,0,0.31281286,0,0.32042764,0,1.9652422
-0.1852065,-0.075682382,-0.27708849,0.070635252,0.2729715,-0.14986249,0.19009385,-0.092327827,0.39269908,0,0,-0.39269908,0,0,-0.39269908,0,0.26762339,0,0.30602892,0.27586791,0.31673141,0,0,0.30919494,0,0,0,0,0.29256166,0,0.29692155,0,1.3763928
0.16602607,0.037486378,-0.16993117,0.30293766,0.20816663,0.17892132,-0.0017805403,0.23374915,-0.39269908,0.39269908,-0.39269908,0.39269908,0.39269908,0,-0.39269908,0,0.3005125,0.29290959,0.30021362,0.32458213,0.28054482,0.28543642,0.3067415,0.3010526,0.27970627,0,0,0,0.30938307,0,0,0.30036294,1.7752178
-0.23506075,0.20096908,-0.15310313,-0.23998406,-0.23537075,0.017318689,0.16372843,-0.25144204,0,0,0,0.39269908,0.39269908,-0.39269908,0,-0.39269908,0.29641617,0.30128122,0,0.29469596,0,0.2806808,0.31205713,0.31192817,0.30373996,0.27727917,0,0,0,0,0,0,1.4206373
-0.11557099,-0.26901382,0.06493864,0.034433972,0.050394505,0.0070665741,0.015709336,0.13302019,0.39269908,0,0.39269908,-0.39269908,0.39269908,-0.39269908,-0.39269908,0.39269908,0,0.31974895,0.28265443,0.31746467,0,0.29915567,0.32048542,0.27560821,0.2597949,0,0.28493182,0,0.30920426,0.32682129,0,0.28123586,1.9797405
0.084583639,-0.28761865,0.27606472,-0.31263512,0.16934068,-0.17411662,-0.29867468,-0.18867009,0.39269908,-0.39269908,-0.39269908,-0.39269908,0.39269908,0.39269908,-0.39269908,0.39269908,0,0.30076225,0,0.30912162,0.3145373,0.2946166,0.29410941,0.29694429,0.29988066,0.30750819,0.30582757,0,0.3008791,0.29944279,0,0,1.9881199
-0.026483308,-0.25544217,0.084046621,0.11149918,-0.30741874,-0.12347211,0.14028925,-0.23797412,0.39269908,0.39269908,0,0,-0.39269908,-0.39269908,-0.39269908,0.39269908,0.29101885,0.31119626,0.29088202,0.29799223,0.32089215,0.30495456,0.30791283,0.29142297,0.28370112,0,0,0,0.31045498,0.30928448,0.30408542,0,2.4529544
-0.28976629,-0.0051810398,0.25853978,-0.17291485,-0.20675962,0.22084672,0.29332979,0.206526,0.39269908,-0.39269908,0,-0.39269908,0.39269908,-0.39269908,-0.39269908,0.39269908,0.30690522,0.30741382,0,0.30640521,0,0.28885375,0.31547209,0.25234056,0,0,0.29519954,0,0.30934025,0,0,0,1.6555007
-0.27548483,0.005782626,-0.2007779,0.22465284,0.17424771,-0.011428128,0.19291725,0.23663671,0,-0.39269908,0,0,0,0,0,0,0.31329285,0,0.30163632,0.30542376,0.26759887,0.31916226,0,0,0.29401254,0,0,0.31704146,0.30359864,0.2851408,0,0,1.357675
-0.17351368,-0.21814992,-0.20703906,-0.077420487,0.041557192,-0.23848239,-0.12960002,0.19276179,0.39269908,0,0,0,0.39269908,0,-0.39269908,0.39269908,0.28842666,0.27738889,0.29701085,0,0.29486148,0,0.31413203,0,0,0,0.29901259,0.32226003,0.30070666,0.28145242,0.31717865,0,1.6968516
-0.27994044,-0.10985088,-0.26396761,0.053521397,-0.21801102,0.24253166,-0.30100358,0.25359889,-0.39269908,0.39269908,-0.39269908,0.39269908,0.39269908,0,0,0.39269908,0.29254215,0,0.29690494,0.3392414,0.29193432,0.27907817,0.29155159,0.29257586,0,0.32879641,0.29984,0.28736701,0,0.31510685,0.28901359,0.30638505,2.6181404
0.033464386,0.090847376,0.057821691,-0.1996119,-0.28454645,-0.23981053,0.16774888,0.090212478,0,0.39269908,0.39269908,0.39269908,-0.39269908,-0.39269908,-0.39269908,0,0,0.30054919,0,0.30532915,0.30465454,0,0.31152436,0,0,0.29849051,0,0,0,0,0.30076732,0.3194668,1.5660524
0.14029015,-0.22289229,-0.11571001,-0.09228216,-0.29612435,-0.050801795,0.059106881,0.037754842,0,-0.39269908,-0.39269908,0,0,0.39269908,0,0,0,0,0.30913625,0,0,0.29965268,0.29115761,0,0,0.31822396,0,0.30682701,0,0.28698546,0,0,1.042151
-0.24148634,0.2767914,-0.037366963,0.29198969,0.30300679,0.11341057,-0.22699186,0.097941324,0,0.39269908,0.39269908,0,0.39269908,-0.39269908,0.39269908,0.39269908,0.28762101,0.31443302,0.31034285,0.28772687,0.2934889,0.30717503,0.2962029,0,0,0.30800458,0.29791578,0,0.30061298,0.29632639,0.27994688,0,2.1560099
0.12496796,-0.13232667,0.23333725,-0.26507416,0.30521169,0.10041396,-0.0061602581,0.13710027,0.39269908,0.39269908,0,0,0,-0.39269908,-0.39269908,0,0.30956467,0.31421271,0.3021338,0,0.30234577,0,0.30147816,0.29900021,0.3145451,0,0,0.3077074,0,0,0,0,1.7379863
0.093595062,-0.25739435,-0.053702177,-0.30708111,-0.10386878,-0.25370488,-0.24832859,0.26133525,-0.39269908,-0.39269908,-0.39269908,0,0.39269908,0,-0.39269908,-0.39269908,0.29509698,0.30883147,0,0.30409684,0,0.30485326,0.30307204,0,0,0.32837076,0.29240639,0,0.28154611,0.30875592,0.28122314,0.31433985,1.9391915
0.22970573,0.27521885,-0.077797832,-0.017296421,0.21053399,-0.24523258,0.14554888,0.19598311,0.39269908,0.39269908,0.39269908,0,-0.39269908,0,0,-0.39269908,0.27696758,0.29343708,0.28289626,0,0.3039023,0,0.30260074,0.32296605,0,0.30300914,0.29219424,0.27929731,0.30750531,0.27353589,0.29806451,0.31198184,2.6452627
-0.13737833,0.15299974,-0.24107886,0.2137897,-0.19018504,-0.18365764,0.19504839,0.24043978,-0.39269908,0,0,-0.39269908,-0.39269908,-0.39269908,0,0,0,0.29014555,0.30764049,0.30394145,0,0.29658533,0.29682921,0.29576652,0,0.31598744,0.29602923,0.27709135,0.29783252,0.2933305,0,0,2.3187512
0.070817257,0.19034431,-0.28111465,0.26143352,0.08172564,0.058525734,-0.30480706,-0.2113264,0.39269908,0,0,0,-0.39269908,0.39269908,-0.39269908,0.39269908,0.30876257,0.32618518,0.29216434,0.2841262,0.29452978,0.32152943,0,0.28704619,0,0,0.3301709,0.29337213,0,0.29568795,0.31775044,0,1.8213869
-0.034577001,0.058992635,0.0025729565,-0.11029917,-0.25848945,-0.23778755,0.2388547,0.10384394,-0.39269908,0,0.39269908,0.39269908,0,-0.39269908,0.39269908,0,0.26975245,0.30824347,0.2947437,0.31292181,0.29403587,0.30503892,0,0,0.30263575,0,0,0.30523854,0,0,0,0,1.4617734
0.28143863,0.15715309,-0.17904387,-0.17281113,0.27985018,-0.15050691,0.04070099,-0.17733445,0.39269908,0.39269908,0.39269908,-0.39269908,0,0.39269908,0,0.39269908,0.29517615,0,0,0.30726353,0.28995366,0.29075347,0.28097572,0.27847021,0.29699843,0.3030977,0,0.30159457,0.32663392,0,0,0,1.5034606
-0.25996458,0.10235143,-0.11560198,-0.16156664,0.14213795,0.045402613,0.30302648,-0.18399781,0.39269908,0,-0.39269908,-0.39269908,-0.39269908,0,0,0.39269908,0,0.28533074,0.29137949,0.30251043,0.28481427,0,0,0.28695452,0.31619899,0,0,0.29827123,0.30378194,0,0.29149197,0.29985337,1.5740559
0.01506193,-0.066515935,-0.15465543,0.059941656,0.24480561,0.21812638,-0.18848643,0.090669388,0.39269908,-0.39269908,0,0,0,-0.39269908,0.39269908,-0.39269908,0.28222493,0,0.3025467,0.32621148,0.28367184,0,0.30185594,0.30198184,0,0.3239567,0.29815947,0.30693048,0.30668039,0,0.33018899,0.30317476,2.1842298
0.18496961,-0.13591555,0.23349067,-0.1998278,-0.14332698,0.076758715,0.14578319,-0.2641586,0,-0.39269908,0.39269908,-0.39269908,-0.39269908,0,0.39269908,0,0,0.28391761,0.27638582,0.30217609,0.33005744,0.29100329,0,0.3137279,0,0.30053147,0.29377206,0.29079663,0,0,0.29658456,0,2.0335071
-0.19303505,0.29685615,-0.21613906,0.28861096,0.065391468,0.10528943,0.2544208,-0.28554635,0,0,0.39269908,0.39269908,0.39269908,-0.39269908,0.39269908,0,0,0.29529737,0,0.28509603,0.32024223,0.32290381,0.27544283,0.31244249,0,0,0,0.29345074,0,0.29261461,0.29475287,0.27646483,1.8525728
-0.0953084,-0.2643494,-0.080018489,-0.26908989,0.042934698,0.29379709,-0.10761659,0.21695458,0.39269908,0.39269908,-0.39269908,-0.39269908,0,-0.39269908,-0.39269908,-0.39269908,0.29976833,0,0,0.30238913,0.31278063,0,0,0.29569872,0,0,0.31367419,0,0.29798059,0.26782988,0,0,1.4301186
-0.064809591,0.24953169,-0.14711462,-0.12202419,-0.028849394,0.19014692,0.17121731,-0.049535104,0,0,0,0,0.39269908,0.39269908,0,0,0.32061529,0.28119694,0,0.29616284,0,0,0,0,0,0,0,0.32044964,0.29387419,0,0,0,0.89887908
-0.10261382,0.10383541,-0.30721913,0.08972974,0.12326346,0.1227552,-0.2514866,-0.036538599,-0.39269908,-0.39269908,0,-0.39269908,0,0,0,-0.39269908,0.30516474,0,0.30871618,0.3056947,0,0.30276644,0,0,0,0,0.29672736,0,0,0.29407913,0.32175003,0,1.3806095
-0.072764868,-0.25127758,-0.29342148,0.13735889,0.14851471,-0.22282405,-0.22541512,0.20874094,-0.39269908,0,0,0.39269908,0.39269908,0.39269908,-0.39269908,0,0.32953838,0,0.30521594,0,0,0.28737045,0.28759438,0.28987216,0.31498551,0.28354363,0,0,0.31170148,0.31234458,0.31965699,0.33422525,2.1887587
0.24463037,-0.21383902,-0.01047079,-0.053375277,0.16057676,0.18559827,-0.25143079,0.27314208,0.39269908,-0.39269908,0,-0.39269908,0,-0.39269908,0,0,0,0.31261345,0.29813721,0,0.32004176,0,0,0.29945275,0.28834477,0,0.29307411,0.30474894,0,0.30043877,0.28827657,0.29615226,1.3929345
-0.0021512247,0.28684135,-0.145484,0.26608944,-0.20614742,-0.17131949,0.21710472,0.23324773,0.39269908,-0.39269908,-0.39269908,-0.39269908,-0.39269908,0.39269908,-0.39269908,-0.39269908,0,0,0.30926437,0.29050654,0.3047875,0.29435352,0.32855773,0.30823767,0.29014059,0,0,0,0.28599188,0.31234268,0.28507039,0,2.0104108
0.22615401,0.27169319,-0.27170843,0.015489468,0.20761802,-0.24513344,-0.073093397,-0.11800222,-0.39269908,0.39269908,0.39269908,-0.39269908,0,0,0.39269908,0,0,0.29717034,0,0,0.2852251,0.28905534,0.29284391,0.29933757,0,0.29854271,0,0,0.31692798,0.29857017,0.28411972,0,1.7015669
-0.29276515,-0.14151005,-0.17373273,-0.12984224,-0.10824528,-0.29621752,0.26811718,-0.055059233,0.39269908,0,0,-0.39269908,0,0.39269908,0.39269908,0,0.28116028,0,0.29563086,0.27189054,0.30748041,0,0,0.28544015,0.26557938,0.30457409,0.28055829,0,0,0.29625857,0,0.31008275,1.6713904
0.11468694,-0.13782731,0.14679404,-0.23945605,-0.15762268,-0.17349804,0.044737111,-0.20065903,-0.39269908,-0.39269908,0.39269908,0.39269908,0.39269908,0.39269908,0.39269908,-0.39269908,0.30575665,0.29878211,0.29365424,0,0.29895738,0,0,0.29969426,0,0,0.30293851,0,0.3162,0,0,0,1.0760461
0.2022017,-0.17103988,-0.10997155,0.22135388,0.02066508,-0.14215281,-0.29515513,-0.097391648,0,0.39269908,0.39269908,0.39269908,0,0.39269908,0.39269908,-0.39269908,0.32101239,0,0,0.28732406,0,0.30751033,0.30413986,0.32540018,0,0.2962438,0.3088068,0,0.29446326,0,0,0.28651666,1.167889
-0.25153488,-0.21971289,-0.086487273,-0.29084376,0.10706421,-0.076017768,-0.25905364,-0.29549125,0,0.39269908,0,0,0.39269908,-0.39269908,-0.39269908,-0.39269908,0.31004602,0,0,0.3100596,0.28068941,0.27935841,0.29739455,0,0.28251356,0,0.32350687,0.29332706,0,0,0.27924501,0.28666963,1.992571
0.052240828,0.25060211,0.25049722,-0.25576273,-0.27710906,-0.2750961,0.25583664,0.26269927,0,-0.39269908,0,-0.39269908,0,0.39269908,-0.39269908,0,0.28569804,0.30606012,0,0.29405364,0.29239241,0,0,0.30080856,0.31860085,0.31542665,0,0.28844436,0,0.30117714,0,0,1.9007824
0.26920199,-0.043910843,0.26473485,0.27515439,0.095440774,-0.024126456,-0.22788786,0.1184916,-0.39269908,0,-0.39269908,0,-0.39269908,0.39269908,-0.39269908,-0.39269908,0.31187565,0.29089832,0,0.29673338,0,0,0.32516917,0.30880378,0,0.29453049,0.30196238,0.28576278,0,0,0,0,1.1117733
0.1385471,0.012614016,0.26042651,0.12141222,-0.20343288,0.21295412,0.21762365,0.15855967,0.39269908,0.39269908,0.39269908,0,-0.39269908,0.39269908,-0.39269908,0.39269908,0,0.29087772,0,0.30225807,0.2852569,0,0.28876431,0,0,0,0.31585545,0.33280786,0,0.31598038,0.29340684,0,1.7697314
0.05767241,-0.19530089,-0.086070208,-0.19273004,-0.23167915,-0.14151359,-0.233229,0.19958596,-0.39269908,0.39269908,0.39269908,-0.39269908,0,0.39269908,0.39269908,0,0.32449673,0.31652904,0.30366615,0,0.28847902,0,0.29144478,0.27523409,0.31940817,0,0.3007045,0,0.2891293,0,0,0.30538974,1.8150171
-0.086236196,0.15910803,0.0049732457,0.018976734,-0.24384281,0.25561503,0.30801366,0.069160323,0,0.39269908,0,0,-0.39269908,0,-0.39269908,0.39269908,0,0.29077541,0.30847961,0,0.30906145,0.27381451,0.31218075,0.32053859,0.29836417,0,0,0.32376543,0.27958309,0,0,0,1.6596292
0.26749833,0.2253677,0.25089503,0.14716014,0.25876297,-0.19164058,-0.14237768,-0.30471951,0,-0.39269908,0.39269908,-0.39269908,0,0,0,0,0,0.30411749,0,0.30623099,0.28796257,0.29911081,0.29251581,0,0,0,0.28525909,0.29227297,0.31457107,0.30974082,0.31419714,0.31682504,1.7182001
-0.073138386,-0.24580107,0.015696314,-0.085826126,0.13964546,0.25149948,0.25302946,0.20631406,-0.39269908,0,0.39269908,-0.39269908,0,0,0.39269908,0,0.28453783,0.3207985,0.30416943,0.31201145,0,0.2918698,0,0.31712365,0.30432032,0.31086347,0,0.29538456,0.3232277,0.3131018,0,0.28649051,2.0976673
-0.28847673,0.30563769,-0.27958233,0.25405774,-0.10421682,0.18004243,-0.008925905,0.15044371,0.39269908,0.39269908,0.39269908,0.39269908,0.39269908,0.39269908,0.39269908,0,0.30973007,0.30813589,0.27304871,0.29318156,0.29665313,0,0,0.2950307,0,0.31160505,0.3223813,0,0,0,0,0.29840331,1.6073954
0.31076118,-0.24887341,-0.099018829,0.20633381,0.16243934,0.074004361,-0.27939297,0.29507499,0,0.39269908,-0.39269908,0,0,-0.39269908,0.39269908,-0.39269908,0.29906485,0,0.32794282,0,0.32342457,0.27799101,0.33294589,0.30620142,0,0,0.26906922,0,0.28926753,0,0.27714623,0,1.777139
-0.17638751,-0.13813316,0.032951809,0.27243102,0.19104254,0.14423992,0.18743611,-0.15039321,0,-0.39269908,0.39269908,0.39269908,-0.39269908,-0.39269908,0.39269908,0,0,0,0.3091745,0,0.29037214,0.3242803,0.29494862,0,0.29527271,0,0,0.28020664,0.31532145,0,0,0.29365222,1.6855427
0.22051497,-0.25591847,0.2469382,0.2463987,-0.024511831,0.20660773,-0.26040923,0.16894862,0.39269908,0,-0.39269908,0,-0.39269908,0.39269908,-0.39269908,-0.39269908,0.29914531,0.28767783,0.3046751,0,0,0.31355468,0,0.31062892,0.31479292,0,0.30842563,0,0.30171956,0,0.29208663,0.29961557,1.8897574
0.086757622,-0.19195348,0.25354867,0.13616973,0.26857137,0.038637791,-0.29600104,0.13665393,0.39269908,0.39269908,0.39269908,0.39269908,-0.39269908,-0.39269908,-0.39269908,0,0.3101036,0.3087025,0.33542594,0,0.28628256,0.30341761,0.28088657,0.29500095,0,0.30351024,0,0.28667416,0.30823167,0.2945851,0,0,2.3688542
0.06020015,0.19108155,0.17152604,0.11266044,-0.26803599,0.16289731,0.23131356,0.28016947,0.39269908,0.39269908,0,0.39269908,0.39269908,0.39269908,-0.39269908,0,0.28455276,0.2922998,0.29548154,0,0.2856156,0.27820989,0.29115004,0,0,0,0.30143384,0,0.32373352,0,0,0.29264412,1.8900896
0.29224948,0.27113589,-0.21346351,0.017638908,-0.10922226,0.24826526,-0.069174287,-0.22295403,0,-0.39269908,0.39269908,-0.39269908,0.39269908,0,-0.39269908,-0.39269908,0.28536677,0.31371233,0.29551925,0,0.30198296,0.29624768,0.31790496,0.27263759,0,0.28206751,0,0,0,0.3104609,0.3097028,0,2.138765
0.27931071,0.20730432,0.13742236,-0.041394062,-0.16139427,-0.10243572,-0.044366019,0.154407,0.39269908,0.39269908,-0.39269908,0.39269908,0.39269908,-0.39269908,-0.39269908,-0.39269908,0.29277382,0.30709279,0.29809758,0.29569045,0.28473729,0.32695182,0.30127792,0.28777366,0,0,0.28380387,0,0.28433421,0,0.30166999,0,2.296351
-0.041575464,-0.068612541,-0.20646842,0.08849176,0.051053459,-0.22762888,0.07293543,-0.023685945,0.39269908,0,0,0,-0.39269908,0.39269908,-0.39269908,-0.39269908,0.31143675,0.26888541,0.30833727,0.32484388,0.32122143,0.29397803,0.28308138,0.29138171,0,0,0,0.2953748,0.30851843,0,0,0,2.0945896
0.21137025,-0.013255247,0.27213382,0.22250612,-0.091508072,0.14759033,-0.050839983,0.045604385,0,0,0.39269908,0.39269908,-0.39269908,-0.39269908,-0.39269908,0,0.29959417,0.30478179,0.32154218,0.2913144,0.29941067,0,0.31455943,0,0,0,0,0,0.31138633,0,0,0,1.2841126
-0.064617201,-0.28687396,0.22570324,0.23539267,-0.27716264,0.081027489,0.26275348,0.27511969,0.39269908,0,-0.39269908,0.39269908,0.39269908,0.39269908,0,0,0.29805171,0.31263949,0,0.31307365,0.28955437,0,0.31063102,0.28867618,0,0,0,0,0.29921255,0.30276951,0.31088417,0,1.8856648
-0.15864641,0.21367625,-0.21190786,-0.22598197,0.10657364,-0.15301429,-0.0034660685,0.1794093,0,-0.39269908,0.39269908,-0.39269908,0,0.39269908,-0.39269908,0,0.30127187,0,0.32423737,0,0,0.32140903,0,0.31183478,0.27564637,0.31254957,0.30415738,0,0,0.30070185,0.30409909,0,1.769216
-0.28260219,-0.23527553,-0.26735514,0.29621419,0.30424074,0.11787282,0.00017439871,-0.21047359,0,-0.39269908,-0.39269908,0,0.39269908,0,-0.39269908,0.39269908,0.29420079,0.31806965,0,0.29426514,0,0,0.30913031,0.27123175,0,0,0,0,0,0.30224897,0.29810112,0,1.7972595
0.2051632,-0.034154369,0.25065107,-0.18327296,-0.25116549,-0.29457957,0.15120265,-0.28549772,0.39269908,0.39269908,0,-0.39269908,0.39269908,-0.39269908,0.39269908,0,0.26897312,0.31117458,0.30405493,0.3084311,0.30517604,0.3040479,0,0.28271693,0,0.33282191,0,0,0,0,0,0.29469583,1.4748894
0.10654825,0.048592269,-0.12383061,-0.23014975,-0.19803439,-0.16071558,-0.0053653842,0.30185685,0.39269908,0.39269908,-0.39269908,-0.39269908,-0.39269908,-0.39269908,0.39269908,0.39269908,0.32165564,0.29388611,0,0.32276918,0.29386335,0.27503002,0,0.29052098,0.30220892,0,0,0.30123433,0.29886511,0,0,0.27430963,1.7337527
-0.038765188,0.039794401,0.2935865,0.12283498,-0.16723754,-0.29255761,0.20509247,0.033624543,0.39269908,0.39269908,0,0,0,0,-0.39269908,-0.39269908,0.28250719,0.28469481,0,0.29125507,0.31986791,0.28611189,0.30226081,0.3096959,0,0.30587441,0.32047022,0,0.31175276,0.3092613,0.29019763,0.30166623,2.2440836
-0.09090996,0.14696729,0.15913461,-0.1766537,-0.21375286,0.18106234,0.16807999,0.00033364173,0,0.39269908,0,-0.39269908,-0.39269908,0,0,0,0,0.29268715,0.32176852,0.28700332,0,0.31548927,0.30517846,0,0.28823352,0.26748138,0,0,0,0.30710337,0.28053861,0.31188076,1.6496739
-0.12566345,-0.24704972,-0.23579418,-0.1878234,-0.075555454,-0.028764532,-0.26854574,-0.23617762,0.39269908,0.39269908,0.39269908,0,0,0,0.39269908,0,0.30167663,0.29620996,0.31378692,0.30334857,0.27912192,0,0,0,0,0,0,0.3138382,0,0.29291919,0,0.31457384,1.781993
-0.049340923,0.10757044,0.26397397,0.053349605,0.036269702,0.11590349,0.20255681,0.14247469,0,0,0,-0.39269908,0.39269908,-0.39269908,0.39269908,0,0.30325461,0.32724294,0.27501814,0,0.3137471,0.309485,0.27408352,0.28258465,0.28948415,0,0.28539282,0,0,0,0.29266364,0,2.0279891
-0.092654968,-0.27872302,0.24520691,0.051376266,0.17124367,-0.2348649,-0.27729261,-0.21834455,0.39269908,0.39269908,0.39269908,0.39269908,0.39269908,0.39269908,0.39269908,-0.39269908,0.29635368,0,0.28926279,0.28220846,0.29210325,0.31211089,0.26802845,0,0.32172231,0,0.30286101,0,0,0,0.28602429,0,1.4325028
0.26446148,0.078865316,-0.26273724,-0.0021863034,-0.30272682,0.19378674,-0.22958724,-0.16861588,-0.39269908,-0.39269908,0,0,-0.39269908,-0.39269908,0.39269908,0.39269908,0.29003444,0,0.30595186,0.33470057,0,0.30129415,0.30265924,0.29342966,0,0,0,0.29354412,0.28539257,0,0.27041677,0,1.4520918
0.071960834,-0.067434619,0.11298785,0.20818317,-0.17137426,-0.075000988,-0.13463007,-0.15253383,0,0,0,0,0,0.39269908,-0.39269908,-0.39269908,0.30410107,0.30207605,0.30772047,0.31200465,0,0,0.30392641,0.30673803,0,0,0.31294241,0.3235329,0,0.2914134,0,0.2965155,1.8394289
0.0017525675,-0.075568616,-0.24997615,0.2168934,-0.17675059,0.042871824,-0.13460565,0.25783253,-0.39269908,0,-0.39269908,0,0.39269908,0.39269908,0.39269908,-0.39269908,0.28313581,0,0.28836447,0.2991443,0,0.32598168,0.28482373,0.30754594,0.30196377,0.28368125,0.28915123,0.28897456,0.31520222,0,0,0,1.9767563
-0.15174028,0.046024469,0.073146039,-0.25388673,-0.16306073,0.16374892,0.092927183,-0.17271071,0,0.39269908,0,0,0.39269908,0,-0.39269908,-0.39269908,0.30375049,0.31139854,0,0,0.30468141,0.32604491,0,0.296925,0.29304737,0,0.31992467,0,0,0.30017579,0,0,1.8318198
0.080019187,0.28082294,-0.13770869,0.25554102,-0.30756701,-0.10220573,0.051180028,0.014661366,0.39269908,0,0.39269908,0.39269908,-0.39269908,0,0.39269908,0,0.29544556,0.29672674,0.29463703,0.28342619,0.26100906,0.30073759,0,0,0,0.29895706,0.31201999,0.30706939,0,0.29414287,0,0.28750093,1.9544307
0.040599467,0.0013240203,0.26166059,0.12808732,0.14437346,-0.081389602,-0.065599582,0.16685231,0,-0.39269908,-0.39269908,0,-0.39269908,0,0.39269908,-0.39269908,0.28669293,0.31904315,0.30030707,0.29815139,0.33501437,0,0.27872919,0.30299269,0.31677759,0,0.31836001,0,0.28063494,0.30774719,0,0,2.1882161
-0.13283598,-0.1585877,-0.056337822,0.0062441324,0.015939041,0.22376681,-0.26597801,0.19399391,0.39269908,0.39269908,-0.39269908,0,0.39269908,0,-0.39269908,0,0,0.29798235,0.28258282,0,0.30173413,0,0.29578801,0,0,0.28929602,0,0,0.30812665,0.30661006,0,0,1.5974822
0.30337158,-0.03870438,-0.19483369,0.2264338,-0.052511283,0.23040518,0.092760668,0.17026611,0.39269908,0,-0.39269908,0,-0.39269908,0,0,0,0,0.2823737,0.28547903,0,0.28996799,0.31071129,0.30467995,0.29692862,0,0.30780125,0,0.32061936,0.31181486,0.31943538,0,0.31806619,2.0866904
0.24244574,0.13984855,-0.10498641,-0.18808116,-0.0095918508,0.26762679,-0.12883483,-0.14125395,-0.39269908,-0.39269908,0,-0.39269908,0,0.39269908,-0.39269908,0.39269908,0.30524585,0.3148342,0.31976386,0.31056658,0.30072989,0.30849891,0.30151104,0,0,0.3320445,0,0,0.27899588,0,0.30286375,0.29924903,1.8421206
-0.28589884,0.278323,-0.056815087,0.15300155,-0.21074801,-0.21027676,0.17023562,-0.21255168,0.39269908,0,-0.39269908,0,0,-0.39269908,0,-0.39269908,0.30077798,0.28510965,0.30012698,0.29440656,0,0.29084778,0,0,0.29071171,0.28527267,0.29393646,0.28068336,0.30001616,0.2882598,0,0,2.3622161
-0.041637644,0.14296253,0.081129323,0.089322265,0.18633892,0.25865066,-0.19424925,-0.0041342552,0.39269908,0,0,-0.39269908,-0.39269908,-0.39269908,0.39269908,0,0,0,0.30430937,0.29554033,0.29224622,0.30205552,0.2945753,0.30524087,0.30792465,0.29076163,0,0,0,0.29406059,0,0.28736951,1.776243
0.11036481,0.10507309,-0.23992659,0.10221156,0.046824807,-0.29858739,0.021790316,-0.079863737,-0.39269908,-0.39269908,0,-0.39269908,0,-0.39269908,0,-0.39269908,0.2938541,0,0,0.29455413,0.29759534,0.30195585,0.29885274,0.28536696,0.28765647,0.30778345,0,0,0.29877348,0,0,0,1.5242943
0.29963348,-0.033187618,0.16256283,0.26450891,0.24768064,0.15828102,-0.071587992,0.050598798,0.39269908,-0.39269908,-0.39269908,-0.39269908,-0.39269908,-0.39269908,0,-0.39269908,0,0,0,0.27689409,0.28805334,0.27740232,0.29296552,0.28503591,0,0.29529995,0.29817668,0.27712356,0,0.29927611,0.3251263,0,1.2227185
0.2699322,0.29065688,-0.10635687,0.026306224,-0.20753762,-0.28857004,-0.0059550452,-0.18379801,-0.39269908,0.39269908,0,0.39269908,0.39269908,-0.39269908,0,0.39269908,0.30695114,0,0.29504745,0,0,0,0.29496178,0.30457412,0.29168187,0,0,0.27767645,0,0,0.30683838,0.30440898,1.4451412
-0.13241341,0.032136411,-0.23727013,0.13868932,-0.11033054,-0.15742021,0.087904686,0.23719232,-0.39269908,0.39269908,0.39269908,0.39269908,0.39269908,0,-0.39269908,0,0.3024131,0,0.31901595,0.29817527,0,0,0.31396633,0.29892985,0,0.29195802,0,0,0,0,0.29073763,0.29106966,1.4556058
-0.20486853,-0.039894356,-0.088570482,-0.11748659,0.20807143,-0.16439882,0.29392902,0.22467287,-0.39269908,-0.39269908,0.39269908,-0.39269908,0,0,0.39269908,-0.39269908,0.30318365,0,0.28627155,0.31152641,0.26947812,0.30254244,0,0.28150969,0.29324249,0.27687361,0.2967852,0,0,0,0.26849533,0.29242639,2.2145507
-0.23698657,-0.1221636,0.14128796,0.21099233,-0.081614297,-0.072129898,-0.26074795,0.13101302,0.39269908,0,-0.39269908,-0.39269908,0.39269908,0,0.39269908,0.39269908,0,0.28951784,0.32545302,0,0,0.28482584,0.29263472,0,0.30117376,0,0.3134565,0.34900426,0,0.30288438,0,0,1.2842909
-0.10738542,-0.29599565,0.22718424,-0.0061661329,0.038362731,0.10761046,0.3082253,-0.14371627,-0.39269908,-0.39269908,0,-0.39269908,0.39269908,-0.39269908,0,-0.39269908,0,0.32166939,0.29857259,0.30321974,0.281493,0.31618642,0.26940844,0,0.29628931,0.31416303,0,0.28499105,0,0.30562041,0,0,1.4773806
-0.21562712,0.096238426,0.18732626,-0.11169036,0.23583953,-0.30667732,-0.22878121,0.18362351,-0.39269908,0,0,0,0.39269908,0.39269908,0.39269908,0.39269908,0.29753691,0.29017694,0.30639486,0.32186581,0.29774972,0,0.33121684,0.30801009,0,0,0.29217374,0,0,0,0,0.29266593,1.8852837
0.17829961,0.23055371,0.075782301,0.071477467,-0.023250353,0.045439506,0.29475449,0.27545682,0.39269908,-0.39269908,0,-0.39269908,-0.39269908,-0.39269908,0.39269908,-0.39269908,0,0.27455278,0,0.29369165,0.31050034,0.29789982,0.29695801,0,0.28366034,0.28846458,0,0.30829072,0.31568753,0.28050083,0.32378275,0.28569785,1.7812593
-0.18852508,0.06927438,0.020268886,0.11052488,0.2821325,-0.11906616,0.049538097,0.064747711,0,0.39269908,0,0,0,-0.39269908,0.39269908,0.39269908,0.28383572,0.31480897,0.28884457,0,0.30593978,0.29401283,0.29748882,0,0.29331781,0.28934774,0,0.31334998,0.29597028,0,0.30286764,0,1.6376108
-0.24547899,-0.2259597,-0.14753165,-0.21952815,-0.12321496,0.064043256,0.06535516,0.12337665,0.39269908,-0.39269908,-0.39269908,0.39269908,-0.39269908,0.39269908,-0.39269908,-0.39269908,0,0.30924121,0,0.29859807,0.31756377,0.31612672,0.3107221,0.31358627,0,0,0.29966386,0,0.2915346,0.31769766,0.30939822,0.29114958,2.7778051
-0.24759803,-0.026534281,0.14449102,0.0093791706,-0.072231744,-0.087528181,-0.19246164,-0.11893268,-0.39269908,-0.39269908,0.39269908,0.39269908,0.39269908,0.39269908,0.39269908,-0.39269908,0.29783973,0.317565,0.27942921,0.30117683,0.31000033,0.30648245,0.29133022,0.30362298,0,0,0.30569958,0,0,0.29136787,0.31560474,0,2.6261413
-0.20408334,-0.037757937,0.00407129,-0.060548068,0.24463274,-0.17395356,-0.07141792,-0.23259162,0.39269908,-0.39269908,-0.39269908,0,-0.39269908,-0.39269908,0.39269908,0,0.31772593,0,0.31981483,0,0.29103876,0.30930755,0,0,0,0,0,0.28655479,0.30672662,0.28331858,0.29782989,0,1.295522
0.13484342,-0.03156583,-0.22606064,0.041015815,0.087380152,0.21781443,0.22328395,-0.21315378,0.39269908,0,0,0,0,0.39269908,0.39269908,-0.39269908,0.31658629,0,0.29137828,0.34120959,0.28626074,0,0,0.27207344,0.32741842,0.3085733,0,0.30119736,0.30014549,0,0.27731463,0.29990539,2.1665031
0.11086143,0.28365927,-0.2195785,0.28726616,0.082716021,-0.26074263,0.22045165,-0.063442789,0,-0.39269908,-0.39269908,0,-0.39269908,-0.39269908,-0.39269908,-0.39269908,0.30070423,0.30410031,0.316948,0.30436597,0.27554143,0.31509419,0,0.29647756,0,0,0,0,0,0,0,0.27989529,1.6571784
-0.30520561,0.0018690597,-0.0026403622,0.23404853,-0.24867056,0.16884051,0.21602111,0.24240842,0.39269908,-0.39269908,0,-0.39269908,0.39269908,0,0,0.39269908,0.273005,0.32374602,0.31093066,0.3147888,0.30387268,0.30450991,0.2821253,0,0.29732371,0.30968898,0.28932925,0.30156872,0,0.30574798,0,0,2.1851483
-0.17160702,-0.2170563,-0.047914677,0.20237199,0.17777632,0.23197172,0.032142798,-0.12992213,-0.39269908,-0.39269908,0,0.39269908,0.39269908,-0.39269908,0,0.39269908,0,0.31579721,0.31802863,0,0.30911796,0.30871038,0.28536149,0,0.30423388,0.31471335,0,0,0.28786116,0.30466754,0,0,1.8064494
0.0028507634,0.16057291,0.12082066,-0.092644148,-0.096880529,-0.29774339,-0.24443016,-0.19115262,-0.39269908,0.39269908,0.39269908,0.39269908,0,0.39269908,0,0,0,0,0,0.28411291,0.30507504,0.29662989,0.29651822,0,0.31537231,0.33859267,0.3135409,0.29735384,0,0,0,0.31795235,1.4447833
0.015169757,-0.13922296,-0.06215717,0.21815843,-0.27813242,0.11826926,-0.24831854,-0.19798518,0,-0.39269908,0.39269908,-0.39269908,0.39269908,-0.39269908,0.39269908,0.39269908,0.2963241,0.27748869,0.28145825,0,0,0,0.32580117,0.29283346,0.28127307,0.29635546,0,0.29279192,0,0.29063976,0,0.30498829,2.2757339
0.30889352,-0.22268091,0.29539965,-0.19110145,0.12228277,-0.023463361,0.23533684,0.041165407,0,0,0.39269908,0,0,0,0,0.39269908,0.31135154,0.28994844,0.27779896,0.28600391,0.30102962,0,0,0.30284072,0,0,0.29031193,0.28785842,0.32941416,0,0.30417774,0,2.2144374
-0.163531,-0.20030966,-0.073788324,0.14042569,0.17017689,0.057059168,0.17935428,-0.26498241,0,-0.39269908,-0.39269908,0,0,0,-0.39269908,0.39269908,0,0,0.30412048,0,0,0.33961779,0.30326299,0.29032083,0,0,0,0.31150002,0.30399854,0,0.32695076,0.29237131,1.7359786
0.17754255,0.072936435,-0.0067944948,0.15889869,0.25650594,0.20184069,0.044701992,-0.16258728,0,0.39269908,0,-0.39269908,0.39269908,-0.39269908,0.39269908,0,0.28883015,0.28508776,0.30750197,0.31011224,0,0,0.29221855,0.29388011,0,0,0.29741841,0,0.31461444,0.29142424,0,0,1.5860974
0.11757771,0.066787935,-0.30038279,0.0058730103,0.061674733,-0.1583465,0.22760568,0.16541434,-0.39269908,-0.39269908,-0.39269908,0,0,-0.39269908,-0.39269908,0.39269908,0.29468272,0.29427034,0,0,0.30278523,0.29888586,0.29036675,0.31735168,0,0.29734816,0,0.32691657,0,0.3098588,0,0,1.6940263
0.078211822,0.063732635,-0.12869073,-0.23264813,-0.090970103,-0.23554086,0.29975674,0.15357475,0,0.39269908,0.39269908,-0.39269908,0.39269908,0,-0.39269908,0.39269908,0.30897818,0,0.2924155,0.2908085,0.28663792,0.29772563,0.32383844,0.30633105,0,0.27083405,0,0.29873803,0,0.28962424,0,0.29901673,2.0015953
0.1141952,-0.23430678,0.30642693,-0.20958506,-0.1424613,0.17479856,-0.17809305,0.099565505,0.39269908,-0.39269908,0,-0.39269908,0.39269908,0,0,0,0.30729799,0.29642544,0.29289519,0.31112496,0,0.27364417,0,0.32647363,0.34425433,0.28634939,0,0.32078548,0,0,0.29846137,0.32091313,2.1164822
-0.21036768,-0.10115694,0.085185568,-0.2240886,-0.11589983,-0.14091654,-0.25169255,0.27189886,0,0,-0.39269908,0.39269908,0,-0.39269908,0.39269908,0,0,0.29152976,0,0.2904411,0.30949596,0.31119791,0.2895875,0.27037831,0.27446723,0.30246614,0.28568765,0,0.32900477,0.30354514,0.27703069,0,2.0125665
-0.033849012,-0.2720718,0.19147865,-0.065838705,-0.082187112,-0.27465258,0.17031218,-0.18245361,-0.39269908,0,0.39269908,-0.39269908,0.39269908,-0.39269908,0.39269908,0,0,0.29336897,0.27672927,0.32918955,0.28918757,0,0,0.29618429,0,0.27930415,0,0,0,0,0.28899874,0,1.4003394
0.20280499,-0.084643674,-0.09307988,0.1195957,0.05397742,-0.093452058,0.14759414,0.013165583,0.39269908,0,0,-0.39269908,0.39269908,0,0,0.39269908,0.29431185,0,0.27800842,0.31177783,0.32689234,0.28958616,0.27017091,0.29077654,0,0.28142208,0,0,0,0.32349479,0.33929449,0.30575535,2.5107057
0.15858636,0.033810971,0.26103787,-0.28484742,-0.27167882,-0.11523201,-0.22668693,0.19629358,-0.39269908,-0.39269908,0,-0.39269908,-0.39269908,-0.39269908,-0.39269908,-0.39269908,0.29919161,0.3291609,0.29734092,0,0.33292201,0.29816588,0.33185896,0.28936584,0,0,0.29100612,0,0.29848536,0.3194855,0.3017627,0.29392241,1.999835
0.2044978,0.092135838,-0.27815298,-0.22720639,0.26231216,-0.2306017,-0.25413749,0.020646364,0.39269908,-0.39269908,-0.39269908,0,0.39269908,0.39269908,0.39269908,-0.39269908,0,0,0,0.27213764,0.27530074,0.31133236,0.29544131,0.29688602,0.3028042,0,0,0.32721191,0.28839336,0.28412569,0.28771755,0,1.8458671
0.19416424,-0.16808312,-0.052856955,0.075552224,-0.025529064,0.074571937,-0.16491728,-0.25165651,0.39269908,0.39269908,0.39269908,-0.39269908,0,0,-0.39269908,0,0.32118088,0.31982694,0,0.29562754,0.29798866,0.29325173,0.27301718,0.28924509,0,0,0,0.28484253,0.30713098,0.32586799,0.32914823,0,1.9972816
-0.26240307,-0.04069251,-0.30844679,0.19091404,-0.13039241,0.069724871,0.051838811,-0.22290588,0.39269908,-0.39269908,-0.39269908,0,0.39269908,0,0.39269908,-0.39269908,0.31175106,0.3286992,0.30027025,0,0,0,0.31027196,0,0.33061743,0.28068447,0.27267541,0.3178837,0.28058585,0.30632249,0.30004395,0.28035542,2.843616
0.19192036,-0.18184646,-0.15207593,0.059643447,0.25935315,0.30282636,0.22260676,-0.28507134,-0.39269908,-0.39269908,0,0,-0.39269908,-0.39269908,-0.39269908,-0.39269908,0.29072903,0.30497008,0.29350653,0.29481112,0,0,0.33875985,0.31862594,0,0,0,0.30136783,0.31310411,0,0,0.306223,1.3444504
-0.11292998,0.13610654,-0.16508813,0.018364977,0.15576843,-0.20335456,0.27278311,-0.17452429,-0.39269908,0,0.39269908,0.39269908,0.39269908,0.39269908,0,0,0,0.30463487,0.27927494,0.28767685,0,0.30527768,0.28084498,0.28642551,0,0.29172456,0.29322128,0.28286911,0,0,0.27260232,0,1.8808805
0.13287884,0.25054324,-0.11051675,-0.14550599,-0.1034178,-0.21398673,0.020242022,0.28734256,0.39269908,0,-0.39269908,-0.39269908,0,0,0.39269908,-0.39269908,0.30742805,0.30827753,0,0.28648563,0,0,0,0.2923182,0.31637588,0,0,0,0.29870222,0,0,0,1.0950539
0.111722,0.29585023,-0.15811038,-0.20208716,0.21109496,-0.24173889,-0.19782142,0.27709093,0,0.39269908,0.39269908,0,0.39269908,0.39269908,0,0.39269908,0.27949259,0.3051176,0,0.31701186,0,0.29757469,0.32840123,0,0.29474588,0.28418901,0.29683476,0,0,0,0.30595173,0.28327338,1.7938649
-0.24803282,0.20588433,0.14781496,-0.045445599,0.23115808,0.18042717,0.17428026,-0.092743958,0.39269908,-0.39269908,-0.39269908,0,0.39269908,0.39269908,0,0,0,0,0,0.2845983,0.28730109,0.30165716,0.29820298,0.31318991,0,0,0.29785181,0.31834375,0.29600224,0.29463549,0.29491389,0.29677849,2.0298707
0.020603663,0.082246979,0.024205049,0.29216714,0.14387878,-0.22730423,-0.12549126,0.13370042,0.39269908,0.39269908,0,-0.39269908,-0.39269908,0.39269908,-0.39269908,-0.39269908,0,0.26929331,0.28362188,0,0,0.29587954,0.31153074,0.31571418,0.30723023,0.3164368,0.31691413,0,0,0,0.28033265,0,1.3381972
-0.096146719,0.097348342,-0.0078772525,0.18222656,0.25729129,0.20653418,-0.23986737,-0.15920189,0.39269908,0.39269908,0.39269908,-0.39269908,0,-0.39269908,-0.39269908,-0.39269908,0,0.30940627,0,0.32101125,0.29492524,0,0.30008247,0.27191024,0.31390191,0,0.31308873,0.30724373,0,0,0,0,1.6479745
0.1143801,-0.26836921,0.21739508,0.086794427,-0.2017007,-0.20518147,-0.27281271,0.3054818,0.39269908,-0.39269908,0,0.39269908,-0.39269908,0.39269908,0.39269908,-0.39269908,0,0,0.30382959,0,0,0,0.2945358,0.30682366,0.28937871,0.28519628,0.30281229,0.29206201,0,0,0,0.29787407,1.5265034
-0.016529294,-0.091060985,0.12197028,-0.24885309,0.24256711,0.29487368,-0.23459454,-0.13160413,-0.39269908,0.39269908,0,0,0.39269908,0.39269908,-0.39269908,-0.39269908,0.30109285,0.314576,0,0,0.307498,0.29700641,0.31427915,0.31991835,0.3037845,0.30238161,0.29878091,0,0,0.30625745,0.29328766,0,1.9041196
-0.18889545,0.12774136,-0.01543137,0.14052206,-0.095043499,-0.21038616,0.21645725,0.032654345,0.39269908,0.39269908,0.39269908,0,0,-0.39269908,0.39269908,0.39269908,0.29528776,0.31545428,0.30908064,0.30170231,0.27817955,0.3071934,0.31388067,0.28638641,0.30183516,0,0,0.28585182,0.32436648,0.28756536,0,0,2.2047765
0.29666756,-0.24423323,-0.02299955,-0.13753981,-0.047633932,-0.10568357,0.032782326,-0.062798254,0.39269908,0.39269908,-0.39269908,0,0,-0.39269908,0.39269908,0.39269908,0.26379039,0,0.30761112,0,0.2968308,0.29512594,0,0.26847068,0,0.28817647,0.29684985,0.30637964,0,0,0.30404788,0.28728448,1.5631787
-0.19411887,0.30229433,0.077145367,-0.26725755,0.051514334,-0.021518885,0.24357469,0.26451059,0.39269908,-0.39269908,-0.39269908,0.39269908,0,-0.39269908,0.39269908,0,0,0.29257889,0.31738964,0.29503454,0,0.32402826,0.30907906,0.28620663,0.30619865,0.29976011,0,0.30185353,0.28764197,0.31311274,0,0.28777362,2.1342113
-0.17458356,0.021673733,-0.1543164,0.10314876,0.090441539,0.14842505,0.15527647,-0.30359096,0.39269908,0.39269908,0.39269908,0.39269908,-0.39269908,0,0.39269908,-0.39269908,0,0.32183707,0.26475574,0.29283767,0.2826546,0,0.28264319,0.29956109,0.28058275,0,0.31054004,0,0.30060917,0.306184,0.33067726,0.32782539,2.1767151
-0.13016592,0.10658112,-0.027275023,0.2612086,0.071394133,-0.16720221,0.30127891,-0.024348125,-0.39269908,0.39269908,-0.39269908,-0.39269908,0.39269908,0.39269908,0.39269908,0.39269908,0,0.28462908,0.29755778,0,0.29642248,0.2701718,0,0.29980355,0,0,0,0,0.29629822,0,0.29827441,0,1.3357325
0.038047298,-0.16732261,0.16263874,0.28364598,0.18527623,-0.0091158342,0.099896443,0.092406948,-0.39269908,-0.39269908,0,0,-0.39269908,-0.39269908,0.39269908,-0.39269908,0.29488912,0,0.31601693,0.31924973,0.32284185,0.31431253,0,0,0,0.29983634,0,0,0.29983095,0,0.29579807,0,1.3610926
0.26220467,-0.15226911,-0.045526886,0.12160381,-0.1249299,0.14371957,0.23844171,0.074294261,0.39269908,-0.39269908,0.39269908,-0.39269908,0.39269908,0.39269908,0.39269908,-0.39269908,0,0,0.2921164,0,0.2697107,0,0.30159888,0.29289924,0.30896936,0.31736986,0,0,0.3256888,0,0.30270456,0,1.5640578
0.21238697,0.11031269,-0.14258867,-0.080940923,-0.06446869,-0.30412279,-0.020475322,0.18981844,0.39269908,-0.39269908,-0.39269908,-0.39269908,-0.39269908,-0.39269908,0,0.39269908,0.3076926,0.31134626,0.28738072,0.3152097,0.29240573,0.30467657,0.28992987,0.28230399,0.30666161,0.29927932,0.30490054,0.28776048,0.30128544,0.29849237,0,0,2.4232138
-0.15758508,-0.16975669,0.093784405,-0.21669182,-0.20523229,0.12961362,0.035821092,0.11594787,-0.39269908,0,0,-0.39269908,-0.39269908,-0.39269908,0,0.39269908,0.28213785,0.3184774,0.30653181,0.29745642,0.31250471,0,0.30026831,0.2937896,0.30751661,0,0,0.2936497,0,0.26801416,0.30472733,0.28275483,2.4458062
0.036566624,0.079728989,-0.19830819,0.26406555,-0.29235474,-0.1551356,0.15783926,0.04358871,0,0.39269908,0,0,-0.39269908,0,-0.39269908,0,0.29452629,0,0,0,0,0,0.29156127,0.31287577,0,0.31009008,0.32693284,0.29031812,0.29494962,0.30247606,0.30849359,0,2.2797408
0.13937844,0.16199781,0.19305602,0.055577695,-0.21534222,-0.14193521,0.22046516,0.16357142,0.39269908,0,0.39269908,0,0,0.39269908,0.39269908,0.39269908,0.31487918,0,0.30650262,0.28875994,0.26377938,0.30540332,0.29428648,0,0,0.3188341,0.30739847,0.32531804,0.29400429,0,0,0.28609451,1.9134306
-0.15979972,0.30781711,-0.092659066,0.28072167,0.045237799,0.04626008,0.26313669,-0.1958634,-0.39269908,-0.39269908,0.39269908,0,0,0,0.39269908,-0.39269908,0.2828072,0.29593734,0.2955184,0,0.30512457,0,0,0.31563023,0.28000596,0,0,0.30958664,0.28856145,0,0.32421928,0.30243623,1.7331415
-0.21774389,-0.29439198,0.16238079,-0.28175777,0.13393808,-0.16804457,-0.03331091,-0.024656863,0.39269908,0.39269908,-0.39269908,0,0.39269908,0.39269908,0.39269908,-0.39269908,0,0.3048645,0,0,0.29524111,0.28911284,0.30474596,0,0,0,0.29068087,0,0.3074922,0,0,0.29856387,1.6065979
-0.034692191,0.0079421289,0.27983123,0.15927869,-0.26828392,-0.23410334,-0.044276032,-0.2181368,0,0.39269908,0,0,0.39269908,-0.39269908,0.39269908,0,0.31094759,0.29603066,0,0.30738534,0.3047404,0.30535695,0,0.28521542,0.27195735,0,0.30000956,0,0.29345484,0.26122167,0.31057727,0,1.7353277
0.042546082,0.045518278,-0.26627036,0.30702328,-0.23983576,-0.25617981,0.25283511,0.081552595,0.39269908,0,0,0,0.39269908,0,0.39269908,0.39269908,0,0.3197467,0,0.2953851,0,0.31716974,0.31245918,0,0,0,0,0,0,0,0.27168281,0.2789241,1.5024438
0.21934781,0.23376345,-0.013491653,0.068777535,-0.16205948,0.027183603,0.087244595,-0.17553506,-0.39269908,0,0,-0.39269908,0,-0.39269908,0,-0.39269908,0.31605184,0.30944857,0.30776035,0.28770149,0.30691881,0.31253778,0,0,0.30095452,0,0,0,0.29010966,0.32293266,0,0.27562284,2.0774976
-0.020141006,0.15379555,-0.060586427,0.22825354,-0.25574601,0.003879108,-0.14895972,0.28330393,0,0,0,0,-0.39269908,-0.39269908,-0.39269908,0.39269908,0.28618468,0.31717953,0,0,0,0.28397864,0.29701573,0.3075998,0.28849713,0,0.29360402,0.29883212,0,0.31396991,0,0,1.3377761
-0.079221886,-0.075266246,-0.1945926,-0.11983445,-0.29675201,0.081536049,0.013658126,0.21585607,0,0.39269908,0.39269908,-0.39269908,-0.39269908,0,0,0,0.29306296,0.29357532,0.32063672,0.281357,0,0.28453148,0.3140177,0.29643901,0,0,0,0,0.27629279,0.30578378,0.28086052,0,1.6094013
0.1833137,0.30768095,0.13222429,-0.069018076,-0.11080008,0.11911862,0.20384267,-0.23727514,0,-0.39269908,0.39269908,0.39269908,0,0,-0.39269908,0.39269908,0.30421595,0.319275,0,0.29148505,0,0.27382293,0.2945299,0,0.29665768,0,0,0.27274997,0.29675183,0.28369183,0.31047986,0.2991946,1.9430166
-0.19091,0.19828769,0.019647718,-0.27634736,-0.039497865,0.29207141,-0.20849931,-0.11544429,0,-0.39269908,0.39269908,-0.39269908,0,-0.39269908,0.39269908,0.39269908,0,0.29409322,0,0.32329546,0.30559027,0.29841832,0.30194769,0,0.28908946,0,0,0,0.31261951,0.27122842,0,0,1.5917016
0.15744516,-0.29683333,-0.028716502,-0.089610292,-0.00065909653,0.2322982,-0.13555965,-0.067977155,-0.39269908,-0.39269908,0,0,0.39269908,0.39269908,0.39269908,0,0.30652496,0,0,0.31924138,0.3002953,0.29175302,0.30477159,0,0.30614403,0,0,0,0,0.29155789,0.30907481,0,1.7316374
0.24075685,0.029061258,0.22907162,0.29910227,-0.16466377,0.23910522,-0.083811866,0.064107915,0,0,-0.39269908,0.39269908,-0.39269908,0,0.39269908,-0.39269908,0.278855,0.29195168,0.30684025,0,0.32616689,0.29634263,0.2812509,0.2833869,0,0.29598404,0,0,0,0,0.30715582,0.27604723,2.2663477
-0.2817167,0.19581847,-0.011385654,0.27846535,-0.17761072,0.038012796,-0.11888979,-0.12772547,0.39269908,0.39269908,0,-0.39269908,0.39269908,0.39269908,0.39269908,0.39269908,0.30534863,0.3057184,0.29309971,0.31757198,0.28034031,0,0.33495159,0.29390551,0.29089747,0,0,0,0.29261859,0,0,0.29096409,2.074642
0.23488266,-0.052511947,0.21924256,-0.27843678,0.029471621,0.21453142,-0.29045867,0.2961664,0.39269908,0.39269908,0,0,0.39269908,-0.39269908,-0.39269908,-0.39269908,0.29905561,0.28974564,0,0.31650249,0.2996792,0.30540556,0,0.31270564,0.31655867,0.30497715,0,0,0.30011513,0,0.27924661,0,2.1134143
-0.17007666,-0.25743803,-0.15948559,-0.067505113,0.18482858,0.0070823778,0.28132063,0.058934381,0.39269908,0.39269908,0,0.39269908,0.39269908,0,0,-0.39269908,0.29556154,0.28947985,0.30296308,0,0.29435785,0,0,0.31197531,0.29086267,0.3052094,0.28767873,0.3019894,0.28274273,0,0,0,2.2005005
0.21248099,-0.19446369,0.16175608,-0.09989134,-0.006636736,0.29707579,-0.29448889,-0.20978022,-0.39269908,-0.39269908,0,-0.39269908,-0.39269908,0,0.39269908,-0.39269908,0,0.29518145,0.30421442,0.30242754,0.31053891,0,0.3188842,0.31010898,0,0.29748418,0.32353481,0.28922816,0.2914103,0,0.28394326,0,2.0706125
-0.16865948,0.31328035,-0.0063756479,0.28695479,-0.1239628,0.061453601,-0.10499208,-0.28344533,0,0,0.39269908,-0.39269908,0.39269908,0.39269908,0,0,0,0.30024542,0,0.30950396,0.30624791,0,0.30198262,0,0,0,0,0.30648587,0.30734079,0.3005783,0,0,1.1622501
-0.2945578,-0.11119838,-0.2918492,0.17325095,0.20058075,0.23174094,-0.076675454,-0.0030508658,0.39269908,0,0.39269908,0.39269908,0,0,-0.39269908,0.39269908,0,0.25931205,0.28552228,0.27549547,0.29486057,0,0.29365297,0,0.31854669,0.28467222,0.28963226,0.29995571,0.27940894,0,0.27989901,0.29009898,2.2170753
0.29890238,0.24570756,0.29762168,0.083789301,0.18494715,0.11495897,0.035905406,0.27636828,-0.39269908,0,-0.39269908,-0.39269908,0,-0.39269908,0,-0.39269908,0.3155947,0,0,0.29468905,0.30416649,0,0.32155481,0,0.32480912,0.29295216,0,0,0.31097531,0,0.31277105,0.32786698,1.5936726
0.057706905,-0.24386157,-0.059588779,0.031124872,-0.2736172,-0.021029476,0.30093582,-0.13583407,-0.39269908,0,0,0,0.39269908,0.39269908,0.39269908,0,0,0.32244609,0.32004792,0,0.28221948,0.31283462,0.29759267,0.28509897,0,0.30347817,0.31849388,0.31028375,0,0.28903358,0,0.30626767,2.031542
0.18169288,0.084257739,-0.11015507,0.27852834,0.25270492,-0.22175341,0.17602249,0.28636824,0,0.39269908,-0.39269908,0.39269908,0,0,0,0,0.29231433,0,0.31407753,0,0.33766707,0.28450619,0.29912175,0.31408767,0.30134347,0.30474299,0.30663098,0,0,0,0.28925237,0.31338735,2.1305724
-0.2555279,-0.10025785,0.11658326,-0.31064925,0.24500089,-0.26969483,-0.071176271,0.058895248,0.39269908,0.39269908,-0.39269908,0.39269908,0.39269908,0.39269908,0,0.39269908,0.29358665,0,0.29531111,0.32608636,0,0,0.31257726,0.29672528,0,0,0,0,0.28946912,0,0,0,1.1721362
-0.15765795,-0.13794403,0.070123604,-0.15815539,0.29810797,0.088651709,0.22604262,0.28441713,0,0,-0.39269908,0,0,0.39269908,0,0.39269908,0,0.30464861,0,0.2789476,0,0.29706058,0,0,0,0.30163513,0.29555488,0.29633862,0,0.30556385,0.30365465,0.29187824,1.7926147
-0.14577678,-0.2563497,-0.08919008,0.150332,0.16111542,-0.18595725,-0.12705809,0.18943034,0,0,0.39269908,-0.39269908,-0.39269908,0,0,0,0.29039488,0.30945738,0.29047508,0,0.32037891,0.28779387,0.33097319,0.25994745,0,0,0,0,0,0.30970429,0,0.33207738,2.2848391
0.0013709168,-0.20678746,-0.24712267,-0.20530923,0.093122865,-0.025461732,-0.050406786,-0.21347174,-0.39269908,0,0.39269908,-0.39269908,0.39269908,-0.39269908,0,0.39269908,0,0,0.29528841,0.29309033,0,0,0,0,0,0.28414659,0.31194723,0,0.30260741,0,0.29304218,0,1.2135782
-0.18860956,-0.093889963,-0.300775,-0.30282163,-0.14301287,-0.29886347,-0.22000487,0.032762678,0.39269908,0.39269908,0,-0.39269908,0.39269908,0.39269908,0.39269908,0.39269908,0.2933524,0.28824353,0.29232921,0.33305324,0,0,0.29220104,0.28661811,0,0,0,0,0.30824864,0,0,0,1.7344093
-0.059776292,0.021190848,-0.10201834,0.059068391,0.0191677,-0.17586809,-0.20468775,-0.14303224,0,0.39269908,-0.39269908,0.39269908,-0.39269908,0,0,0.39269908,0,0.3158387,0.30806281,0,0.30073746,0.31384068,0,0.30670583,0,0,0,0.27414311,0.31652499,0.29638306,0.29039603,0.28645804,1.8566895
-0.22295657,0.060587251,-0.21440599,-0.11470343,-0.1392269,-0.12827232,-0.11206165,0.2788362,-0.39269908,-0.39269908,-0.39269908,-0.39269908,0.39269908,0,-0.39269908,0.39269908,0.26977068,0.31031033,0.29063729,0.27789897,0.30965956,0.28104414,0.30252241,0,0,0.30571808,0.2996302,0.3004523,0,0,0,0.29543859,1.8743049
0.0025549447,0.21529605,-0.0057645782,-0.12421247,0.26350279,0.30245397,0.24688269,-0.058285849,0,0,-0.39269908,-0.39269908,0.39269908,0,-0.39269908,0,0.30759347,0.27836129,0.30665414,0.29053138,0.32165323,0,0.31063219,0,0.28824279,0.31111726,0.29650327,0.30813732,0,0,0,0,1.7778778
0.13724187,0.066794049,-0.19763753,0.22612722,-0.17859305,-0.13581726,0.00056811122,0.12346725,-0.39269908,0,0,-0.39269908,-0.39269908,0.39269908,0,-0.39269908,0.28724406,0,0,0.28429031,0.3134036,0,0,0.3066106,0,0,0.28527817,0,0.29491356,0.31986238,0,0.29148111,1.5316335
0.079120045,0.24858436,0.26743347,-0.23637045,0.17987274,0.28075556,-0.013546262,-0.22072192,0,0,0.39269908,0.39269908,0,-0.39269908,0.39269908,0.39269908,0.28814027,0.2948603,0,0.31152491,0.31293836,0.28263448,0.29190725,0.29049729,0.32683666,0,0,0,0.30602321,0.30057368,0.28261628,0.27957641,1.8029886
-0.21571898,-0.19099325,0.05578648,0.15211521,-0.027720173,-0.30891175,-0.083804253,0.19206004,0.39269908,0,-0.39269908,-0.39269908,-0.39269908,0,0.39269908,0,0.30156776,0.30348397,0.31154635,0.34101047,0,0.31276733,0,0.30760247,0,0,0.31709098,0,0.30792468,0,0.28169835,0.29651318,1.9521717
-0.1597473,-0.067745177,-0.080020454,-0.30211059,-0.13063665,-0.26524212,-0.0043435628,-0.11731039,0,0.39269908,0,0.39269908,0.39269908,-0.39269908,-0.39269908,-0.39269908,0.29768164,0,0,0.31477316,0,0.29632276,0,0,0.30396433,0,0.27823026,0,0,0,0,0.3075381,1.3078814
0.271758,0.18930686,-0.12463774,0.027538112,-0.23770407,-0.24305325,-0.2972036,0.031368317,0,-0.39269908,-0.39269908,0,0.39269908,0,-0.39269908,-0.39269908,0.28345829,0.29488273,0.29424296,0.27151418,0,0.32020935,0.2904311,0.2721816,0.28590345,0,0.29585351,0,0,0,0.30104111,0.30312245,2.0120928
0.032379871,0.084645944,0.13122948,0.1758148,-0.062717589,0.22396856,-0.016760728,-0.21085499,-0.39269908,-0.39269908,0,-0.39269908,0,0.39269908,-0.39269908,-0.39269908,0.31195195,0.31850191,0.30584908,0.31347091,0.31291214,0.29004692,0.28938412,0.32820014,0.32605759,0,0,0.29389438,0,0,0,0.29763254,2.0500488
-0.3075853,0.21868349,-0.25006046,0.056423821,0.18249097,0.30290469,0.2823669,0.050669496,0.39269908,0,0.39269908,0,0.39269908,0,-0.39269908,0,0.31495913,0.31737223,0.26372419,0.29913297,0.31519745,0,0.29611638,0,0,0.30951774,0.3139047,0,0,0.30290079,0,0,1.4276532
0.085467872,0.12235981,0.014763258,-0.059737964,0.037043887,-0.067062848,0.078163986,-0.11194254,-0.39269908,-0.39269908,0.39269908,0.39269908,0,-0.39269908,0,-0.39269908,0.31314902,0,0,0,0.29476342,0,0.32317636,0.30246742,0,0,0,0,0,0,0.31185275,0,0.8611869
-0.063141091,0.017680704,-0.035067899,-0.0233885,0.23687435,0.12092198,-0.27478909,-0.23904361,-0.39269908,-0.39269908,-0.39269908,-0.39269908,0,0,0.39269908,-0.39269908,0.29116109,0.31356561,0,0.29551612,0.29393932,0,0.30615888,0.2881094,0,0.3289389,0.29245808,0.26100183,0.28813722,0.32964472,0,0.28856365,2.3527874
0.17078667,0.25248022,-0.22830831,-0.036497382,-0.17261642,-0.21743221,-0.082648184,0.14424159,0.39269908,0,0.39269908,0,0,-0.39269908,0.39269908,-0.39269908,0,0.29116373,0.31629844,0.26732695,0.30823315,0.29616755,0.30318729,0.30682922,0.28485253,0,0.299375,0.30441002,0,0.32858087,0,0.30636584,2.1227291
-0.22753369,-0.21220556,-0.20290264,-0.30003225,0.24251796,0.097045384,-0.073130131,-0.10706498,0,-0.39269908,0,0.39269908,0,-0.39269908,-0.39269908,0,0.3018611,0,0.2957014,0.31870123,0,0.28814977,0,0.3012414,0.29432791,0,0,0,0.31350983,0,0,0.30416294,1.7686809
-0.074655419,0.01848211,0.2394659,-0.30507604,0.29457795,-0.17841092,-0.21626602,0.039741164,0,0,-0.39269908,0.39269908,0,0,0.39269908,-0.39269908,0.29306852,0.29658756,0,0.28526255,0,0.31352368,0.2909698,0.30834837,0,0.2837555,0.3314461,0,0.28360886,0,0.30391813,0,1.5135367
0.19900196,0.08641588,-0.28075521,0.019378361,0.22312005,0.17360804,-0.08095664,0.29968427,0.39269908,0,-0.39269908,0.39269908,0.39269908,-0.39269908,0,0,0.31271726,0.28367995,0.29371811,0,0,0.3146778,0,0.31082328,0,0.2916183,0.31045113,0.28651158,0,0,0.30162441,0.30021205,1.7660862
-0.09665639,-0.30055132,-0.31336471,-0.1547332,0.0095099191,0.24030432,-0.036876744,-0.26537095,-0.39269908,-0.39269908,0.39269908,-0.39269908,-0.39269908,-0.39269908,0.39269908,0.39269908,0.30187294,0.29719408,0,0.32880736,0.31546255,0.29835065,0.28567961,0.30794741,0,0.30724375,0,0,0.30620212,0,0.30257138,0.3125817,2.4737443
-0.027703873,-0.034960455,-0.10254231,0.049117248,-0.096958516,0.27649465,0.0017432604,-0.23199279,0.39269908,-0.39269908,0,-0.39269908,-0.39269908,0,0,-0.39269908,0.29517855,0.31289333,0,0.30375947,0,0.31032499,0.31240871,0.28851582,0.29686175,0,0.32199842,0,0,0,0,0.31664594,1.4967414
-0.20389381,0.0060179969,-0.01480973,-0.093002208,0.16838993,0.18283335,-0.22585272,-0.23450421,0.39269908,0,-0.39269908,0.39269908,0,0.39269908,0,0,0.32736895,0,0.29053318,0.29280982,0.26802102,0.30056795,0.30373225,0.29386859,0,0,0,0,0,0.31425468,0.28368411,0,1.9860934
-0.2470743,-0.02061545,-0.2803564,-0.18937172,0.29115418,0.083657473,-0.14572448,-0.0056636986,-0.39269908,0.39269908,0,0,0.39269908,-0.39269908,-0.39269908,-0.39269908,0,0.30200479,0.29542591,0,0.32617691,0,0.32133143,0.30659813,0,0.30006315,0.31411005,0.3178443,0.29080604,0,0,0,1.5109863
0.25966514,-0.10856537,-0.021206423,-0.15975243,-0.15399238,-0.1059488,-0.026747467,-0.29692982,0.39269908,-0.39269908,-0.39269908,0.39269908,0,0.39269908,0,0.39269908,0.29802073,0.31803289,0.29575236,0,0.2845105,0,0,0.31161748,0,0.29235083,0,0.29736475,0,0.30003895,0,0,1.5180904
0.15513292,-0.20291755,0.077737142,0.25392591,0.1933219,0.1261275,-0.12183887,-0.055860193,-0.39269908,0.39269908,-0.39269908,0.39269908,-0.39269908,-0.39269908,-0.39269908,0.39269908,0,0,0.28309374,0.30621288,0.30410789,0.30530791,0.27987941,0,0,0,0,0,0.28846644,0,0,0,1.172289
0.20171967,-0.1043386,0.018221381,0.25563046,-0.060948576,-0.20351594,0.073664015,0.28359975,0,0.39269908,-0.39269908,-0.39269908,0.39269908,0,0.39269908,0.39269908,0,0.29360339,0.3112097,0,0.30232367,0.27447006,0.29379537,0.31950492,0,0.31788859,0.28999577,0,0.30107782,0.29541612,0.32389192,0,2.0511996
-0.29161323,-0.25902355,0.21023436,-0.25458877,-0.024338372,-0.019653342,0.18183392,-0.058700852,-0.39269908,0,0.39269908,-0.39269908,0.39269908,0,0,0.39269908,0.30035509,0.3038186,0,0,0,0.27956837,0,0,0,0.30081525,0.30302945,0,0.30698362,0.27885287,0,0.28505527,1.5614405
-0.2122565,0.19754195,0.052512898,-0.20325101,0.12819768,0.11410405,0.11862129,0.013405421,-0.39269908,-0.39269908,0.39269908,0.39269908,0.39269908,-0.39269908,-0.39269908,0.39269908,0.306363,0,0,0.30812701,0.28876886,0.29532802,0.29616677,0.32327903,0.29762662,0,0,0.2946274,0,0,0,0.30813752,1.4997329
0.017785676,-0.15575943,-0.27378672,0.27147952,-0.092875362,-0.21298153,-0.049898341,0.16381396,0,0,0.39269908,0.39269908,0,-0.39269908,0.39269908,-0.39269908,0,0.30707567,0.30550758,0,0.31105553,0.28118014,0.32390136,0.32435795,0,0,0,0.31147502,0,0.28851896,0,0.29497916,1.9846542
0.10206554,0.10587198,-0.0076730432,-0.15553858,0.29644188,-0.26732061,0.24825836,-0.18503439,0.39269908,0.39269908,0.39269908,-0.39269908,-0.39269908,0,0.39269908,-0.39269908,0.33237145,0,0.29761406,0.3046464,0.30664671,0.29430155,0.31033162,0.28572809,0,0.2894589,0.28864408,0.29674432,0,0,0.28936123,0.31996962,2.4475244
-0.067306518,-0.24729265,0.079484281,0.087116416,0.18343249,-0.20924009,0.00057009698,0.15684201,0.39269908,0.39269908,0,0.39269908,-0.39269908,-0.39269908,0.39269908,0,0.30412578,0.27975489,0.30795303,0.30993042,0.3076133,0,0.29473803,0,0,0.29152244,0.29104825,0.28837055,0.28075302,0,0,0.31814825,2.438454
0.20481985,-0.1500906,0.12611294,0.26171344,-0.24021188,-0.29455223,-0.017643839,0.026343507,-0.39269908,0,0.39269908,-0.39269908,0,-0.39269908,-0.39269908,0,0,0.31508219,0.32647562,0,0,0.30775605,0.28588602,0.31241878,0,0,0.27922084,0,0,0,0,0,1.0311453
-0.004710161,0.0044589551,0.17175394,0.17314997,-0.23995252,0.29463724,0.18969402,0.099157079,0.39269908,0.39269908,-0.39269908,-0.39269908,0,0.39269908,0,0.39269908,0.2892603,0.30850536,0,0.29206528,0.31450549,0.30337449,0.30617958,0.32697029,0.28805921,0.29393408,0.30632627,0.28067439,0,0,0.30224645,0,2.4710394
0.2061578,-0.28260649,-0.307508,0.26133089,0.24181581,0.23400238,0.23225799,-0.1829729,-0.39269908,0,0.39269908,0,0,-0.39269908,0,-0.39269908,0.2992273,0.3082386,0.29497696,0,0.31379325,0.30655625,0.31506633,0.30224192,0,0.31610529,0,0,0,0.29622465,0.29764956,0.31701395,2.10393
-0.30031313,-0.079992293,0.17118441,0.025835526,0.049577274,0.09486628,-0.2548704,0.26891565,0.39269908,0.39269908,0.39269908,-0.39269908,0,-0.39269908,0.39269908,0.39269908,0.3252378,0.30414413,0.29467999,0,0.27649434,0.29443027,0.30631703,0,0,0,0,0,0.29482349,0,0.29412788,0.2924966,1.8148563
0.17989816,0.079616152,-0.20979779,0.052181376,-0.12028119,-0.26526543,0.23216216,0.091364452,0,0,0.39269908,0,0,0,0,0.39269908,0.29751706,0,0.30774229,0,0.28386463,0,0.29956921,0.29863098,0.30037632,0,0,0.31723415,0.29155228,0.28717544,0,0.29318783,1.7493916
-0.1753359,-0.056570933,-0.14174163,-0.29605923,-0.21302039,-0.074691309,0.043596371,0.10480444,0.39269908,-0.39269908,0.39269908,-0.39269908,0.39269908,0.39269908,-0.39269908,-0.39269908,0,0.28081525,0.30158974,0,0.27342771,0,0.2923477,0.32515098,0,0.30046483,0,0,0,0.28909976,0.31650833,0.30218821,1.9271547
0.098703461,0.14815316,-0.016194222,-0.11436734,-0.14556805,0.11021768,0.1454487,-0.23111568,0,0.39269908,0.39269908,0.39269908,0,0,-0.39269908,-0.39269908,0.30781802,0.29187537,0.31393016,0.28669515,0,0,0.29698112,0.28674731,0.29494453,0,0,0,0.31220555,0,0.29320732,0,1.6083991
-0.019219767,-0.070893777,-0.21977361,0.14962588,0.23147043,-0.22476366,-0.15174787,-0.081583432,-0.39269908,-0.39269908,-0.39269908,0,0,0,-0.39269908,-0.39269908,0,0.30419739,0.28897141,0.29561866,0,0.31981655,0.30159118,0.29534057,0.32827316,0.31737694,0,0.2861651,0,0.29311985,0.2753136,0.29855846,1.673812
-0.30962913,-0.20273675,-0.025238469,-0.067937566,-0.17190875,-0.2616903,0.00079502678,0.16732595,-0.39269908,-0.39269908,-0.39269908,0.39269908,0.39269908,0,-0.39269908,0.39269908,0.3175277,0,0.27681359,0.28722628,0.29371588,0.2699993,0.28447886,0,0.31282154,0,0.30128644,0.29112755,0.29171388,0,0.28087543,0,1.5706317
0.17772842,0.055190116,0.18212987,-0.11117671,0.072317686,0.27531421,0.26827609,0.10241396,0.39269908,0.39269908,0.39269908,0,0.39269908,0,-0.39269908,-0.39269908,0,0,0,0,0,0.28606866,0.3225883,0,0.30030193,0.28268367,0.31098542,0,0,0,0,0.30450301,1.2897819
-0.15060108,-0.2853048,0.20919984,-0.048775057,0.19329378,0.2818198,0.28035158,0.10830259,0,0,0,-0.39269908,-0.39269908,0.39269908,0.39269908,0.39269908,0.29262642,0.30243835,0.31183537,0.30371224,0.31461788,0.29074306,0.29164851,0.29526668,0.3114659,0.31177947,0,0.29525001,0,0.28803747,0,0,2.4947731
0.216567,-0.0077253493,0.22199068,0.041973049,-0.16067283,0.084873963,0.19363189,0.30958119,0,-0.39269908,0,0,0,-0.39269908,-0.39269908,0,0.28935663,0,0.28949483,0.31921503,0.30038899,0,0.30163218,0.29131565,0.28899768,0,0.30142404,0,0,0,0.28940167,0,1.5965788
-0.24210266,-0.02865766,0.2710152,0.27142525,0.25161354,0.28502484,0.11194105,0.20762614,-0.39269908,0,-0.39269908,0.39269908,0,-0.39269908,-0.39269908,0.39269908,0.31077188,0.3165588,0.30971098,0.28779412,0.31270124,0.30782865,0.28738943,0,0.3095649,0,0.29528872,0,0.31290742,0.33435456,0,0,1.7946832
0.089736947,0.24439016,0.14713241,-0.20731813,0.25880224,-0.1599976,0.12369707,-0.12936765,-0.39269908,0.39269908,0.39269908,-0.39269908,0,0.39269908,0,0,0,0,0,0.29647538,0.32125427,0,0.30016957,0.29782181,0,0.30789637,0,0,0.31305582,0.33625531,0.28109225,0,1.3387354
0.072125824,0.19227733,0.1629382,0.29013038,-0.15884398,0.034670368,0.25359835,-0.28548876,0.39269908,0,0,-0.39269908,0.39269908,0.39269908,0,0,0,0.29619169,0.30552777,0.29870221,0.29418289,0.28817684,0.30218269,0.29981347,0.29856839,0.31537733,0.3089677,0.31351746,0.29820709,0.33311425,0.30475666,0,3.1029278
-0.27602562,-0.28694664,0.26083027,-0.0041148926,-0.043961727,0.037849326,0.27527279,0.20049966,0.39269908,0,-0.39269908,0,0,0,-0.39269908,0,0.28027453,0,0.31505113,0,0,0,0.31235626,0.31278554,0.30279486,0.31909577,0.31300205,0,0.29425668,0,0,0,1.2333802
-0.088340584,-0.023509207,0.093110184,-0.23859397,-0.12003309,0.13469553,-0.0038575814,-0.11756213,0.39269908,-0.39269908,0,-0.39269908,-0.39269908,-0.39269908,0,0,0.31843882,0,0.31581028,0,0.30317361,0,0,0,0,0.30283844,0.29692982,0.30296058,0.3109691,0,0,0.28114283,1.1563165
0.16246346,-0.14893411,0.085434631,0.19199669,-0.15562826,0.045904232,-0.062725611,0.089151671,-0.39269908,0,0.39269908,0.39269908,0,-0.39269908,0,0,0.28118053,0,0,0.30841579,0.30208098,0.2955501,0.3109903,0.33417374,0.28454028,0.30183938,0,0.30233478,0.31074544,0,0,0.31137283,1.8733314
0.21209333,0.20160201,-0.19692191,-0.31283237,-0.0041822457,0.080672775,-0.044063521,0.21195423,-0.39269908,-0.39269908,0.39269908,0,-0.39269908,0.39269908,-0.39269908,0,0.29875171,0.32042799,0.29774461,0.28574385,0.30294882,0,0,0,0,0.30235536,0,0.31418429,0.29124862,0,0.29253845,0.30952685,1.4681069
-0.19682741,0.01875965,-0.12247018,0.015171766,-0.10544498,0.27277855,-0.2512218,0.015767456,-0.39269908,-0.39269908,0,0.39269908,-0.39269908,-0.39269908,0,0.39269908,0,0,0.31875223,0.29535297,0.28336759,0.29501838,0.29151094,0.26970707,0.27556285,0,0,0.31515675,0,0.28854267,0.31489445,0.29987633,2.2007522
0.13597641,0.16101607,0.02917397,0.23846147,-0.22203228,-0.11272453,-0.18081844,0.16129585,-0.39269908,-0.39269908,-0.39269908,0.39269908,0,-0.39269908,0,0.39269908,0,0.27874771,0.26783719,0.28704014,0.28873364,0.29439921,0,0,0,0,0,0,0,0.29597626,0.3000885,0.30734838,1.2806191
-0.21570934,-0.028938594,-0.052404783,0.1353975,-0.14389782,-0.092576079,-0.20947711,-0.21299974,0.39269908,0.39269908,-0.39269908,0,0.39269908,0.39269908,-0.39269908,-0.39269908,0.31817007,0,0.27992103,0.32331018,0.26829715,0.30441546,0.29808338,0.28851869,0.30201883,0.30058043,0.29024529,0.303727,0.30064879,0.30757463,0,0.29220574,2.6356164
-0.046425547,0.097454445,-0.10955791,0.26175146,-0.22949758,0.081587378,0.24802802,-0.28659449,0,0.39269908,-0.39269908,0.39269908,0,0,-0.39269908,0,0.29216501,0,0.29140811,0.27866401,0,0.3223552,0.2862743,0,0,0.29676794,0.30455284,0,0,0.28764684,0,0.2766395,1.3516476
-0.19715715,0.13175051,0.13638488,0.11468945,-0.095596227,-0.075301122,-0.15242953,-0.22841347,0,0.39269908,-0.39269908,-0.39269908,0.39269908,0.39269908,0,0,0,0.28694446,0,0.28916665,0.30778924,0,0,0.30392682,0,0,0.2947806,0,0.29267673,0,0,0.30319416,1.0771731
0.23221941,-0.20307953,-0.13142339,-0.29336236,-0.12568224,0.065440485,0.3008016,0.12167167,-0.39269908,0.39269908,-0.39269908,0,-0.39269908,-0.39269908,-0.39269908,0.39269908,0.2933123,0.30776437,0,0.29394754,0,0.27815738,0.29997145,0,0.29636611,0.31205889,0,0,0,0,0.30949795,0,1.3214137
0.27595901,-0.20436999,0.17093065,0.15906497,-0.090458932,0.18758041,-0.23838943,0.1761852,-0.39269908,-0.39269908,0,0,0,0,-0.39269908,0.39269908,0.29428019,0.28129542,0.2956605,0.2894642,0.31896973,0.31028383,0.31443791,0.27946857,0,0.2824604,0.28381998,0.28404135,0,0.33185439,0,0,2.4379269
-0.035355557,0.16848731,-0.065357903,-0.1694876,0.2180623,-0.0089141414,-0.28016371,-0.092447957,0,-0.39269908,-0.39269908,-0.39269908,-0.39269908,-0.39269908,0,0.39269908,0.30375817,0.30439533,0,0.32039696,0.29740164,0.30363105,0.29857168,0.30206843,0,0,0.29884142,0.32308547,0,0,0.31378028,0,2.2914145
0.18048414,-0.12485498,0.14627991,-0.084013583,-0.18454877,0.29734148,-0.22727312,-0.23102063,0.39269908,0,-0.39269908,0.39269908,0,0,-0.39269908,-0.39269908,0,0.31628341,0.27695444,0,0.32736851,0.2972,0.2924977,0,0.30106026,0,0.33013994,0.29929784,0,0,0.29671366,0,1.4148234
-0.081387788,-0.035116292,-0.20841175,0.099510663,-0.10821683,0.18189166,0.28352845,0.094895932,0.39269908,0.39269908,0,-0.39269908,0,0.39269908,-0.39269908,-0.39269908,0.28173311,0.26998857,0,0.30096342,0.29434851,0.28554979,0.28809038,0.2887371,0.2940497,0,0.31332047,0.30057884,0.31593441,0.28597918,0.31976233,0,2.6141994
0.17429131,0.092993153,0.30773344,-0.24223649,0.23545222,0.095279486,-0.22160804,0.10588154,0.39269908,-0.39269908,0,0,-0.39269908,0.39269908,-0.39269908,0.39269908,0.3085746,0.31288924,0,0,0.2918918,0.29958234,0.33144913,0,0,0.297548,0.30037745,0.29823977,0,0,0.31985531,0.30337739,1.7810259
0.030378077,-0.25862205,0.046837941,-0.077842935,-0.14703275,-0.0026350105,-0.30432487,-0.27525916,0,-0.39269908,0.39269908,0.39269908,0.39269908,0,-0.39269908,0,0,0,0,0,0.29033009,0,0.30352848,0.3251039,0,0,0,0.3049008,0.30237824,0.29984138,0.29149191,0,1.1893947
-0.2113363,-0.044481396,0.100229,0.026776072,0.14938082,-0.11737361,0.22193616,-0.24609543,0,0,0,0.39269908,0,-0.39269908,-0.39269908,0.39269908,0.28568105,0,0.27622266,0.30452225,0,0.31496277,0.2970261,0.32006049,0.30912129,0,0,0.30163718,0.32284067,0.27459225,0,0.28803784,1.6973118
-0.19614399,0.19529111,-0.078394002,0.015968671,0.093448561,-0.20636262,-0.018258795,-0.25612629,0,0,0.39269908,0.39269908,-0.39269908,-0.39269908,0,0,0.29819619,0.28349354,0.2826992,0,0.28837273,0,0.29497951,0.31144475,0,0,0.30745564,0.29961726,0.2864193,0.2929812,0.30948651,0.30207146,2.6132193
0.19096565,0.1086343,-0.07691809,-0.31111939,-0.11677108,0.29562567,-0.16237867,-0.31088956,0,0.39269908,0,-0.39269908,0,0,-0.39269908,-0.39269908,0.267436,0,0.34923121,0.30386145,0.30293689,0.31521224,0,0,0,0,0,0,0.30724565,0,0.32255558,0.28455099,1.8451967
-0.30318972,-0.046337281,-0.30401873,-0.15648472,0.10265105,-0.10644249,-0.15599193,0.21689728,-0.39269908,-0.39269908,0.39269908,0,0,0,0,0.39269908,0.29709738,0,0.30608785,0.28199883,0.3208173,0.32178637,0.2625524,0.27882188,0.2971305,0.28374876,0.30612816,0.28182482,0,0.2977364,0,0,2.0437935
0.12373433,-0.13146332,0.29232268,0.24475701,0.029641247,-0.076158117,-0.10463247,0.10563083,-0.39269908,0.39269908,0,0.39269908,-0.39269908,0,0,-0.39269908,0.29543741,0.26952448,0.28251959,0.32151732,0.27127643,0.31152381,0,0.30010854,0.28477813,0.29608384,0.30985639,0.29297653,0,0,0.29965538,0,2.4412713
-0.042230065,0.23923494,0.21140001,-0.14136064,-0.17592924,0.024324607,-0.21169314,0.24116207,0,-0.39269908,0.39269908,0.39269908,0,0,0,0.39269908,0.30117063,0.31679106,0.33152866,0.31962273,0.3209654,0.322776,0,0.28857167,0.30678348,0,0,0,0.30591588,0,0.30824733,0.30068918,1.8942802
0.11570459,0.0011371714,0.26288426,-0.040082523,-0.10949501,0.062307752,-0.20059661,0.12997297,-0.39269908,0,0.39269908,0.39269908,-0.39269908,0,-0.39269908,0.39269908,0.28817555,0,0,0.31889009,0,0.29057564,0,0.28470003,0,0.28950251,0,0.27176169,0,0,0.29615519,0,1.3306157
0.28888656,0.29908761,0.21713793,0.16316828,-0.2411472,-0.30645139,-0.20155825,0.30398386,0.39269908,0,-0.39269908,-0.39269908,0,-0.39269908,0.39269908,0,0.2973901,0.33472415,0,0.30086138,0.27816958,0.29021638,0,0.30129892,0,0,0.28825663,0.28130486,0,0,0,0.31728023,1.5079197
-0.119748,-0.10036535,0.19479292,-0.2832738,-0.21332876,-0.23087773,0.13332018,0.12835917,-0.39269908,0.39269908,0,0.39269908,0,0,-0.39269908,0,0.30776318,0.29481881,0,0.30167989,0.31471577,0.3080445,0.29825692,0.32412525,0,0.29830976,0,0.29081497,0,0.28490468,0.28817949,0,2.372666
-0.3103649,-0.0024028004,-0.17147994,0.033691961,0.14579985,0.015816579,0.050507764,0.025661891,0.39269908,-0.39269908,0,-0.39269908,0.39269908,-0.39269908,-0.39269908,0,0.30272267,0.29918808,0.30190511,0,0.28985647,0.29573018,0.31429228,0.29535873,0.27964026,0,0.28429769,0.28593564,0,0.30862936,0.29657847,0.30298543,2.4749364
0.21575548,0.17611221,-0.090684864,0.16023944,0.17098123,-0.24742318,-0.2293391,0.23189092,0,0.39269908,0.39269908,0,-0.39269908,0.39269908,0.39269908,0.39269908,0,0.28749704,0.29659067,0,0,0.29911916,0.29066006,0.31118552,0.30824759,0,0,0,0.28100633,0,0.30057956,0.32157053,2.0030671
-0.10164664,0.022995494,0.069374074,-0.18912858,-0.020593547,0.087773953,-0.075083111,-0.25822859,-0.39269908,-0.39269908,-0.39269908,0.39269908,0.39269908,0.39269908,0,0,0.30189362,0.30101542,0,0.3006817,0,0.28956364,0.30813128,0.30965874,0.29917593,0.31312126,0.30172599,0,0.30387962,0.31249155,0.30717605,0,2.3463854
0.24885905,-0.14246745,0.071571388,0.29864445,0.30884363,0.19551569,-0.073732318,-0.17492238,0,-0.39269908,0.39269908,-0.39269908,-0.39269908,-0.39269908,-0.39269908,-0.39269908,0.30739678,0.29575845,0.29023433,0.32165269,0.28383561,0.29055528,0.29708971,0,0.29611972,0,0,0,0.28981237,0,0.29727822,0,1.7989658
0.20370136,-0.098875027,0.10992875,-0.31230626,0.041705642,-0.25674913,0.10908091,-0.1106126,0.39269908,0.39269908,0,-0.39269908,-0.39269908,0,0.39269908,-0.39269908,0.3131836,0.29244082,0,0.29512826,0.28914479,0.31352429,0.31949164,0.31024351,0,0,0,0.32946126,0.28938013,0,0.30099935,0,2.2061071
0.044655888,-0.30914129,-0.17181185,0.11027892,-0.081817961,0.27480138,-0.18275665,0.25823741,-0.39269908,0,-0.39269908,-0.39269908,-0.39269908,0,0,0.39269908,0.31650205,0.28962694,0.29689364,0,0,0,0.29836542,0,0.28302789,0,0,0,0.27923614,0,0.30416907,0.30077568,1.308067
-0.063397244,0.11074439,0.20147637,0.20487173,0.093588024,0.25262994,-0.22525297,-0.20757476,-0.39269908,0.39269908,0.39269908,-0.39269908,-0.39269908,-0.39269908,0,-0.39269908,0.29042536,0.28457357,0.26673817,0,0,0.30062359,0.28873449,0.3074584,0,0.29416358,0,0.32455681,0,0.28823145,0,0.32160015,1.3498984
-0.23391407,-0.0047192732,-0.1486902,-0.21332611,-0.18634527,0.26288538,-0.021307688,0.023253068,0,-0.39269908,0.39269908,-0.39269908,-0.39269908,0.39269908,0,0.39269908,0.31328361,0.30570147,0.28006943,0.31380311,0,0.32113562,0,0.2854922,0.29859137,0,0.29677841,0,0,0.30973575,0,0,1.623399
-0.28115896,0.14497432,-0.035921357,0.083860561,0.12598031,-0.082338574,-0.30700118,-0.017131489,-0.39269908,-0.39269908,-0.39269908,-0.39269908,0,-0.39269908,-0.39269908,0,0.29572284,0,0,0,0.29590366,0,0.30229611,0,0.28974866,0.29787235,0.30653422,0.28244921,0.30807555,0.32625183,0,0.32247113,1.2464338
0.017174136,0.24750548,-0.27246486,-0.13147168,0.1516737,0.091562603,0.14058633,-0.27161122,-0.39269908,0.39269908,0,0.39269908,-0.39269908,0.39269908,-0.39269908,-0.39269908,0,0.31746004,0.28513252,0.3003341,0,0.29146065,0.29128465,0.28608338,0,0,0.29376053,0.29365701,0.32471548,0,0.31162453,0.29235325,2.1261623
0.11251005,-0.28230804,0.31029038,0.0066383868,-0.26933153,-0.24825221,0.28846318,0.094855247,0.39269908,0.39269908,0,-0.39269908,-0.39269908,0.39269908,0,0,0,0.32127074,0.28986002,0.33378842,0.29834797,0.28893908,0.31933288,0.28055546,0.32068363,0.29255038,0,0.31631353,0.29949989,0,0,0.32654971,2.261077
-0.29795379,-0.01058063,-0.014500323,0.080655918,0.30094088,-0.050762131,0.097422844,-0.012353794,-0.39269908,-0.39269908,0,0.39269908,-0.39269908,-0.39269908,0,-0.39269908,0.29676463,0.2923649,0.30081324,0.29300573,0.28622521,0.28354952,0,0.29505148,0,0,0.30461761,0.30618729,0.31231539,0,0.2857555,0,1.830499
0.20256073,0.20836856,-0.19708193,0.1392578,0.019399088,-0.056846127,0.25963242,-0.030047574,0.39269908,-0.39269908,0,0.39269908,0,-0.39269908,0.39269908,0.39269908,0.30740788,0,0.28167202,0,0,0.28272186,0,0.2816779,0.30540248,0.29730925,0.3092843,0.29066301,0.29384911,0.30780315,0.30780132,0,2.0067569
-0.068105036,0.15502734,-0.092493656,-0.0808382,-0.22296068,-0.0084980436,-0.198312,0.19997639,0.39269908,0,-0.39269908,-0.39269908,0.39269908,0,0.39269908,-0.39269908,0.31198696,0.28888923,0.31774032,0.29437536,0.32452794,0.33628415,0.28409409,0.31891954,0.27981813,0,0,0.30457729,0.33668661,0.28957843,0,0.31105419,2.3666829
-0.30357157,-0.18086558,-0.0026708637,-0.27859101,-0.049415756,0.10649026,-0.29769393,-0.041423785,0,0.39269908,0,-0.39269908,-0.39269908,0.39269908,0.39269908,0,0.310475,0.27776133,0.29644889,0.31164387,0,0.31381755,0.29003933,0.29940778,0,0.30409408,0.290023,0.29982575,0.2904191,0.28973427,0,0.29130163,2.8100951
-0.18092353,0.27985813,-0.016914473,-0.28156956,0.15554122,-0.25219955,-0.081094626,-0.13448006,-0.39269908,-0.39269908,-0.39269908,0,0,0,-0.39269908,0,0,0,0.28217044,0.29431224,0.34492166,0.27796436,0.31687376,0.33130565,0.31424919,0.29026796,0,0,0,0.27586736,0,0.30150051,1.7267362
0.15329237,0.27895072,-0.18812027,-0.038466304,0.036596336,-0.049217289,0.3005288,-0.065126719,0,-0.39269908,-0.39269908,0.39269908,0.39269908,0.39269908,0,0,0.31713216,0.3034531,0.31316566,0.29862061,0,0,0,0,0.2659323,0,0.30347222,0.28466201,0,0.2796236,0.30653764,0,1.1686723
0.29832905,0.034417061,-0.23382443,0.2451496,-0.2836293,0.095116935,0.18798551,0.28681574,0,-0.39269908,0.39269908,0.39269908,0,0,-0.39269908,0,0.28818723,0,0,0.31482428,0.28202459,0,0.31108036,0,0,0.32045215,0,0,0,0.31604736,0,0.29719488,1.1253352
-0.21601526,-0.14405936,-0.29438994,0.19668002,0.017367278,-0.27627707,-0.11484474,-0.00096447541,0.39269908,-0.39269908,0.39269908,0,-0.39269908,0.39269908,0.39269908,0.39269908,0.31772836,0.28538741,0,0.31375645,0.30376066,0,0,0.31560542,0,0,0,0.28518599,0.26123059,0,0,0.28213063,1.3571693
0.18629858,0.20892129,0.29618106,-0.2526067,-0.012560793,0.0057789728,-0.26217722,-0.014625153,-0.39269908,0.39269908,0.39269908,0.39269908,0.39269908,0.39269908,0.39269908,-0.39269908,0,0,0,0.29592074,0.2948202,0.30155459,0.31505387,0.28448281,0,0,0,0,0.29146214,0.28004828,0.30169073,0.32805512,1.8198154
0.087116346,0.18224738,-0.021125887,-0.062816341,-0.17910847,-0.0020361717,-0.29273788,-0.31137937,0,0,0.39269908,0,-0.39269908,0,0,0,0,0.30793849,0,0.29331226,0.31131219,0.29599437,0,0.2980788,0.28910481,0,0,0.29409814,0,0,0,0.30879503,1.5580888
0.10420071,0.17751623,0.25890058,0.236195,0.012900473,0.04836455,-0.18118772,0.23786889,-0.39269908,0,-0.39269908,0,0.39269908,-0.39269908,0.39269908,0.39269908,0,0.31767638,0.31190445,0.30342851,0,0,0.32346614,0,0.29624119,0,0,0,0,0.28003277,0,0.31014372,0.94105198
-0.24639906,0.018487952,-0.29067076,-0.12696151,-0.072446185,0.078278555,-0.071336701,-0.1241782,0.39269908,0.39269908,-0.39269908,0.39269908,0,-0.39269908,0.39269908,0,0.29820929,0.29480824,0,0,0.29542682,0.31720998,0,0.30689239,0,0.30408931,0,0.28978132,0.30056433,0,0,0,1.5519121
-0.12598732,-0.035434422,0.099639715,0.17580292,-0.26234159,-0.26392686,0.11012537,-0.14934602,0,0,0.39269908,0,0,-0.39269908,0.39269908,0,0,0.3193648,0,0,0.28695085,0.29323863,0,0,0,0.31738835,0.29600687,0,0.30286096,0.28846738,0,0,1.4488908
-0.20905372,-0.0086641108,0.15218851,-0.052377941,-0.041788988,0.11259566,-0.10020167,-0.19580943,0.39269908,0,0,0.39269908,0.39269908,0,0.39269908,0.39269908,0.29565789,0.29977287,0.29924285,0.28637709,0,0,0.30881571,0,0.31684276,0,0,0.32467808,0.28042401,0.30179796,0.28363965,0.30394206,1.8122867
0.1671175,0.15995606,-0.19341097,0.26192595,0.18973654,0.18547722,0.22734065,0.10938577,0,0,-0.39269908,0.39269908,0.39269908,0.39269908,0,0.39269908,0.29632699,0,0.2847605,0.29967026,0,0.28990824,0.30654311,0.28874026,0.31792639,0.28278925,0,0,0,0,0,0,1.2622044
